;FLAVOR:Marlin
;TIME:40979
;Filament used: 25.3631m
;Layer height: 0.2
;MINX:28.369
;MINY:28.45
;MINZ:0.2
;MAXX:146.634
;MAXY:146.578
;MAXZ:69
;Generated with Creality Slicer 4.8.2-205
M140 S50
M105
M190 S50
M104 S195
M105
M109 S195
M82 ;absolute extrusion mode
G28 ;Home

G92 E0 ;Reset Extruder
G1 Z2.0 F3000 ;Move Z Axis up
G1 X10.1 Y20 Z0.28 F5000.0 ;Move to start position
G1 X10.1 Y170.0 Z0.28 F1500.0 E12 ;Draw the first line
G1 X10.4 Y170.0 Z0.28 F5000.0 ;Move to side a little
G1 X10.4 Y20 Z0.28 F1500.0 E25 ;Draw the second line
G92 E0 ;Reset Extruder
G1 Z2.0 F3000 ;Move Z Axis up

G92 E0
G92 E0
G1 F1500 E-0.8
;LAYER_COUNT:345
;LAYER:0
M107
G0 F6000 X43.418 Y48.293 Z0.2
;TYPE:SKIRT
G1 F1500 E0
G1 F900 X44.013 Y47.754 E0.04166
G1 X44.659 Y47.277 E0.08332
G1 X45.349 Y46.867 E0.12497
G1 X46.076 Y46.528 E0.16659
G1 X46.834 Y46.262 E0.20827
G1 X47.614 Y46.073 E0.24991
G1 X48.409 Y45.963 E0.29155
G1 X49.117 Y45.932 E0.32832
G1 X56.239 Y45.932 E0.69785
G1 X56.211 Y45.763 E0.70674
G1 X56.161 Y44.962 E0.74838
G1 X56.19 Y44.16 E0.79002
G1 X56.299 Y43.365 E0.83166
G1 X56.487 Y42.584 E0.87334
G1 X56.752 Y41.826 E0.915
G1 X57.09 Y41.098 E0.95665
G1 X57.608 Y40.248 E1.00829
G1 X57.723 Y40.083 E1.01873
G1 X58.214 Y39.448 E1.06038
G1 X58.766 Y38.866 E1.102
G1 X59.373 Y38.34 E1.14367
G1 X60.029 Y37.878 E1.1853
G1 X60.728 Y37.484 E1.22694
G1 X61.463 Y37.161 E1.26859
G1 X62.227 Y36.913 E1.31027
G1 X63.011 Y36.741 E1.35191
G1 X63.808 Y36.649 E1.39354
G1 X64.335 Y36.632 E1.4209
G1 X64.682 Y36.632 E1.4389
G1 X65.484 Y36.672 E1.48057
G1 X66.278 Y36.792 E1.52223
G1 X67.197 Y37.035 E1.57156
G1 X73.074 Y38.966 E1.89253
G1 X73.232 Y38.99 E1.90082
G1 X73.557 Y39.047 E1.91794
G1 X73.648 Y39.06 E1.92271
G1 X73.973 Y39.117 E1.93983
G1 X74.064 Y39.13 E1.9446
G1 X74.387 Y39.187 E1.96162
G1 X74.459 Y39.197 E1.96539
G1 X74.781 Y39.253 E1.98235
G1 X74.896 Y39.269 E1.98837
G1 X75.228 Y39.328 E2.00587
G1 X75.31 Y39.339 E2.01016
G1 X75.631 Y39.396 E2.02707
G1 X75.727 Y39.409 E2.0321
G1 X76.052 Y39.466 E2.04922
G1 X76.143 Y39.479 E2.05399
G1 X76.471 Y39.537 E2.07127
G1 X76.558 Y39.549 E2.07583
G1 X76.883 Y39.606 E2.09295
G1 X76.974 Y39.619 E2.09772
G1 X77.301 Y39.677 E2.11495
G1 X77.368 Y39.686 E2.11846
G1 X77.69 Y39.742 E2.13542
G1 X77.805 Y39.758 E2.14144
G1 X78.13 Y39.815 E2.15856
G1 X78.221 Y39.828 E2.16333
G1 X78.546 Y39.885 E2.18045
G1 X78.637 Y39.898 E2.18522
G1 X78.962 Y39.955 E2.20234
G1 X79.053 Y39.968 E2.20711
G1 X79.374 Y40.025 E2.22403
G1 X79.47 Y40.038 E2.22905
G1 X79.786 Y40.094 E2.2457
G1 X79.867 Y40.105 E2.24995
G1 X80.201 Y40.163 E2.26754
G1 X80.402 Y40.195 E2.2781
G1 X81.187 Y40.234 E2.31888
G1 X81.404 Y40.264 E2.33024
G1 X81.723 Y40.264 E2.34679
G1 X82.525 Y40.304 E2.38846
G1 X82.742 Y40.334 E2.39982
G1 X83.061 Y40.334 E2.41638
G1 X83.863 Y40.374 E2.45804
G1 X84.08 Y40.404 E2.46941
G1 X84.399 Y40.404 E2.48596
G1 X85.201 Y40.444 E2.52762
G1 X85.418 Y40.474 E2.53899
G1 X85.737 Y40.474 E2.55554
G1 X86.539 Y40.514 E2.5972
G1 X86.75 Y40.543 E2.60826
G1 X90.29 Y40.543 E2.79193
G1 X90.676 Y40.495 E2.81211
G1 X91.263 Y40.474 E2.84259
G1 X91.62 Y40.474 E2.86111
G1 X91.994 Y40.427 E2.88067
G1 X92.601 Y40.404 E2.91219
G1 X92.958 Y40.404 E2.93071
G1 X93.332 Y40.357 E2.95027
G1 X93.939 Y40.334 E2.98179
G1 X94.296 Y40.334 E3.00031
G1 X94.67 Y40.287 E3.01987
G1 X95.277 Y40.264 E3.05138
G1 X95.634 Y40.264 E3.06991
G1 X96.008 Y40.217 E3.08947
G1 X96.601 Y40.195 E3.12026
G1 X97.189 Y40.098 E3.15118
G1 X97.53 Y40.038 E3.16914
G1 X97.603 Y40.029 E3.17296
G1 X97.947 Y39.968 E3.19109
G1 X98.016 Y39.959 E3.1947
G1 X98.363 Y39.898 E3.21298
G1 X98.432 Y39.889 E3.21659
G1 X98.779 Y39.828 E3.23487
G1 X98.845 Y39.82 E3.23832
G1 X99.194 Y39.758 E3.25671
G1 X99.279 Y39.747 E3.26116
G1 X99.631 Y39.686 E3.27969
G1 X99.685 Y39.679 E3.28252
G1 X100.026 Y39.619 E3.30048
G1 X100.092 Y39.611 E3.30393
G1 X100.441 Y39.549 E3.32232
G1 X100.51 Y39.54 E3.32593
G1 X100.857 Y39.479 E3.34421
G1 X100.926 Y39.47 E3.34782
G1 X101.273 Y39.409 E3.3661
G1 X101.346 Y39.4 E3.36992
G1 X101.69 Y39.339 E3.38805
G1 X101.752 Y39.331 E3.39129
G1 X102.104 Y39.269 E3.40984
G1 X102.182 Y39.259 E3.41392
G1 X102.539 Y39.197 E3.43272
G1 X102.603 Y39.189 E3.43606
G1 X102.937 Y39.13 E3.45366
G1 X103.003 Y39.122 E3.45711
G1 X103.352 Y39.06 E3.4755
G1 X103.421 Y39.051 E3.47911
G1 X103.768 Y38.99 E3.49739
G1 X103.859 Y38.979 E3.50215
G1 X105.225 Y38.541 E3.57658
G1 X109.769 Y37.039 E3.8249
G1 X110.542 Y36.826 E3.8665
G1 X111.334 Y36.69 E3.90819
G1 X112.298 Y36.632 E3.9583
G1 X112.706 Y36.632 E3.97947
G1 X113.508 Y36.672 E4.02114
G1 X114.302 Y36.792 E4.0628
G1 X115.08 Y36.989 E4.10444
G1 X115.834 Y37.264 E4.14608
G1 X116.557 Y37.612 E4.18772
G1 X117.243 Y38.03 E4.2294
G1 X117.883 Y38.514 E4.27103
G1 X118.472 Y39.06 E4.3127
G1 X119.003 Y39.661 E4.35431
G1 X119.262 Y40.003 E4.37657
G1 X119.38 Y40.168 E4.3871
G1 X119.814 Y40.844 E4.42878
G1 X120.178 Y41.559 E4.47041
G1 X120.47 Y42.307 E4.51207
G1 X120.686 Y43.08 E4.55372
G1 X120.823 Y43.871 E4.59537
G1 X120.882 Y44.672 E4.63704
G1 X120.86 Y45.474 E4.67867
G1 X120.802 Y45.932 E4.70262
G1 X127.878 Y45.932 E5.06977
G1 X128.68 Y45.972 E5.11143
G1 X129.474 Y46.092 E5.1531
G1 X130.252 Y46.289 E5.19474
G1 X131.006 Y46.564 E5.23638
G1 X131.729 Y46.912 E5.27801
G1 X132.415 Y47.33 E5.31969
G1 X133.055 Y47.814 E5.36133
G1 X133.577 Y48.293 E5.39809
G1 X133.729 Y48.445 E5.40924
G1 X134.268 Y49.04 E5.4509
G1 X134.745 Y49.686 E5.49256
G1 X135.155 Y50.376 E5.53421
G1 X135.494 Y51.103 E5.57583
G1 X135.76 Y51.861 E5.61751
G1 X135.949 Y52.641 E5.65915
G1 X136.059 Y53.436 E5.70079
G1 X136.09 Y54.144 E5.73756
G1 X136.091 Y98.919 E8.06075
G1 X136.051 Y99.721 E8.10241
G1 X135.932 Y100.514 E8.14402
G1 X135.734 Y101.292 E8.18567
G1 X135.459 Y102.047 E8.22736
G1 X135.111 Y102.77 E8.269
G1 X134.693 Y103.455 E8.31063
G1 X134.209 Y104.096 E8.35231
G1 X133.73 Y104.618 E8.38907
G1 X133.578 Y104.77 E8.40022
G1 X132.983 Y105.309 E8.44188
G1 X132.337 Y105.786 E8.48354
G1 X131.647 Y106.196 E8.52519
G1 X130.92 Y106.535 E8.56681
G1 X130.162 Y106.801 E8.60849
G1 X129.382 Y106.99 E8.65013
G1 X128.587 Y107.1 E8.69177
G1 X127.879 Y107.131 E8.72854
G1 X49.118 Y107.131 E12.81512
G1 X48.316 Y107.091 E12.85679
G1 X47.522 Y106.971 E12.89845
G1 X46.744 Y106.774 E12.94009
G1 X45.99 Y106.499 E12.98174
G1 X45.267 Y106.151 E13.02337
G1 X44.581 Y105.733 E13.06505
G1 X43.941 Y105.249 E13.10668
G1 X43.419 Y104.77 E13.14344
G1 X43.267 Y104.618 E13.15459
G1 X42.728 Y104.023 E13.19625
G1 X42.251 Y103.377 E13.23792
G1 X41.841 Y102.687 E13.27956
G1 X41.502 Y101.96 E13.32118
G1 X41.236 Y101.202 E13.36286
G1 X41.047 Y100.422 E13.4045
G1 X40.937 Y99.627 E13.44615
G1 X40.906 Y98.919 E13.48292
G1 X40.905 Y54.144 E15.8061
G1 X40.945 Y53.342 E15.84777
G1 X41.064 Y52.549 E15.88937
G1 X41.262 Y51.771 E15.93103
G1 X41.537 Y51.016 E15.97272
G1 X41.885 Y50.293 E16.01435
G1 X42.303 Y49.608 E16.05599
G1 X42.787 Y48.967 E16.09766
G1 X43.266 Y48.445 E16.13442
G1 X43.418 Y48.293 E16.14558
G0 F6000 X43.785 Y48.66
G1 F900 X44.362 Y48.14 E16.18588
G1 X44.989 Y47.682 E16.22617
G1 X45.66 Y47.291 E16.26646
G1 X46.367 Y46.971 E16.30673
G1 X47.104 Y46.726 E16.34702
G1 X47.861 Y46.557 E16.38727
G1 X48.633 Y46.468 E16.42759
G1 X49.117 Y46.452 E16.45272
G1 X56.852 Y46.452 E16.85405
G1 X56.844 Y46.421 E16.85571
G1 X56.722 Y45.654 E16.89601
G1 X56.68 Y44.879 E16.93628
G1 X56.718 Y44.103 E16.97659
G1 X56.835 Y43.336 E17.01685
G1 X57.031 Y42.585 E17.05712
G1 X57.302 Y41.857 E17.09743
G1 X57.648 Y41.162 E17.13771
G1 X58.034 Y40.546 E17.17543
G1 X58.149 Y40.381 E17.18586
G1 X58.625 Y39.767 E17.22617
G1 X59.162 Y39.206 E17.26647
G1 X59.754 Y38.704 E17.30674
G1 X60.394 Y38.264 E17.34704
G1 X61.076 Y37.893 E17.38732
G1 X61.792 Y37.594 E17.42758
G1 X62.535 Y37.37 E17.46784
G1 X63.298 Y37.224 E17.50815
G1 X64.335 Y37.152 E17.56209
G1 X64.682 Y37.152 E17.58009
G1 X65.457 Y37.192 E17.62036
G1 X66.225 Y37.311 E17.66068
G1 X67.035 Y37.529 E17.7042
G1 X72.941 Y39.469 E18.02675
G1 X73.462 Y39.559 E18.05418
G1 X73.557 Y39.572 E18.05916
G1 X73.878 Y39.629 E18.07607
G1 X73.973 Y39.642 E18.08105
G1 X74.29 Y39.698 E18.09775
G1 X74.369 Y39.709 E18.10189
G1 X74.69 Y39.765 E18.1188
G1 X74.805 Y39.781 E18.12482
G1 X75.133 Y39.839 E18.1421
G1 X75.219 Y39.851 E18.14661
G1 X75.536 Y39.907 E18.16331
G1 X75.636 Y39.921 E18.16855
G1 X75.957 Y39.978 E18.18547
G1 X76.052 Y39.991 E18.19044
G1 X76.376 Y40.048 E18.20751
G1 X76.467 Y40.061 E18.21228
G1 X76.788 Y40.118 E18.2292
G1 X76.883 Y40.131 E18.23417
G1 X77.204 Y40.188 E18.25109
G1 X77.278 Y40.198 E18.25496
G1 X77.599 Y40.254 E18.27187
G1 X77.714 Y40.27 E18.27789
G1 X78.035 Y40.327 E18.29481
G1 X78.13 Y40.34 E18.29978
G1 X78.451 Y40.397 E18.3167
G1 X78.546 Y40.41 E18.32167
G1 X78.867 Y40.467 E18.33859
G1 X78.962 Y40.48 E18.34357
G1 X79.279 Y40.536 E18.36027
G1 X79.379 Y40.55 E18.36551
G1 X79.689 Y40.605 E18.38184
G1 X79.777 Y40.617 E18.38645
G1 X80.11 Y40.675 E18.40399
G1 X80.385 Y40.714 E18.4184
G1 X81.16 Y40.754 E18.45867
G1 X81.375 Y40.784 E18.46993
G1 X81.723 Y40.784 E18.48799
G1 X82.498 Y40.824 E18.52825
G1 X82.713 Y40.854 E18.53951
G1 X83.061 Y40.854 E18.55757
G1 X83.836 Y40.894 E18.59783
G1 X84.051 Y40.924 E18.6091
G1 X84.399 Y40.924 E18.62715
G1 X85.174 Y40.964 E18.66742
G1 X85.389 Y40.994 E18.67868
G1 X85.737 Y40.994 E18.69674
G1 X86.512 Y41.034 E18.737
G1 X86.721 Y41.063 E18.74795
G1 X90.321 Y41.063 E18.93474
G1 X90.739 Y41.012 E18.95659
G1 X91.263 Y40.994 E18.98379
G1 X91.654 Y40.994 E19.00408
G1 X92.059 Y40.944 E19.02526
G1 X92.601 Y40.924 E19.0534
G1 X92.992 Y40.924 E19.07368
G1 X93.397 Y40.874 E19.09486
G1 X93.939 Y40.854 E19.123
G1 X94.33 Y40.854 E19.14329
G1 X94.735 Y40.804 E19.16446
G1 X95.277 Y40.784 E19.1926
G1 X95.668 Y40.784 E19.21289
G1 X96.073 Y40.734 E19.23406
G1 X96.65 Y40.714 E19.26402
G1 X97.225 Y40.617 E19.29427
G1 X97.28 Y40.61 E19.29715
G1 X97.621 Y40.55 E19.31511
G1 X97.691 Y40.541 E19.31878
G1 X98.038 Y40.48 E19.33706
G1 X98.104 Y40.472 E19.34051
G1 X98.454 Y40.41 E19.35895
G1 X98.52 Y40.402 E19.3624
G1 X98.87 Y40.34 E19.38084
G1 X98.933 Y40.332 E19.38414
G1 X99.285 Y40.27 E19.40268
G1 X99.363 Y40.26 E19.40676
G1 X99.721 Y40.198 E19.42561
G1 X99.776 Y40.191 E19.42849
G1 X100.117 Y40.131 E19.44645
G1 X100.18 Y40.123 E19.44975
G1 X100.532 Y40.061 E19.46829
G1 X100.598 Y40.053 E19.47174
G1 X100.948 Y39.991 E19.49019
G1 X101.014 Y39.983 E19.49364
G1 X101.364 Y39.921 E19.51208
G1 X101.434 Y39.912 E19.51574
G1 X101.781 Y39.851 E19.53402
G1 X101.841 Y39.844 E19.53716
G1 X102.195 Y39.781 E19.55581
G1 X102.266 Y39.772 E19.55953
G1 X102.629 Y39.709 E19.57864
G1 X102.694 Y39.701 E19.58204
G1 X103.028 Y39.642 E19.59964
G1 X103.091 Y39.634 E19.60293
G1 X103.443 Y39.572 E19.62148
G1 X103.509 Y39.564 E19.62493
G1 X103.859 Y39.502 E19.64337
G1 X103.974 Y39.488 E19.64938
G1 X105.384 Y39.036 E19.72621
G1 X109.932 Y37.533 E19.97474
G1 X110.681 Y37.328 E20.01503
G1 X111.446 Y37.2 E20.05527
G1 X112.298 Y37.152 E20.09955
G1 X112.706 Y37.152 E20.12072
G1 X113.481 Y37.192 E20.16098
G1 X114.249 Y37.311 E20.20131
G1 X114.999 Y37.509 E20.24156
G1 X115.726 Y37.783 E20.28187
G1 X116.42 Y38.13 E20.32213
G1 X117.075 Y38.547 E20.36241
G1 X117.684 Y39.029 E20.40271
G1 X118.24 Y39.571 E20.443
G1 X118.839 Y40.306 E20.4922
G1 X118.957 Y40.471 E20.50272
G1 X119.376 Y41.125 E20.54302
G1 X119.725 Y41.818 E20.58328
G1 X120.001 Y42.544 E20.62358
G1 X120.2 Y43.294 E20.66384
G1 X120.322 Y44.061 E20.70414
G1 X120.364 Y44.836 E20.74441
G1 X120.326 Y45.612 E20.78472
G1 X120.209 Y46.379 E20.82498
G1 X120.19 Y46.452 E20.82889
G1 X127.878 Y46.452 E21.22779
G1 X128.653 Y46.492 E21.26805
G1 X129.421 Y46.611 E21.30838
G1 X130.171 Y46.809 E21.34862
G1 X130.898 Y47.083 E21.38894
G1 X131.592 Y47.43 E21.42919
G1 X132.247 Y47.847 E21.46948
G1 X132.856 Y48.329 E21.50978
G1 X133.21 Y48.66 E21.53493
G1 X133.362 Y48.812 E21.54608
G1 X133.882 Y49.389 E21.58638
G1 X134.34 Y50.016 E21.62667
G1 X134.731 Y50.687 E21.66696
G1 X135.051 Y51.394 E21.70723
G1 X135.296 Y52.131 E21.74753
G1 X135.465 Y52.888 E21.78777
G1 X135.554 Y53.66 E21.82809
G1 X135.57 Y54.144 E21.85322
G1 X135.571 Y98.919 E24.17641
G1 X135.531 Y99.694 E24.21667
G1 X135.412 Y100.461 E24.25694
G1 X135.214 Y101.212 E24.29724
G1 X134.94 Y101.939 E24.33755
G1 X134.593 Y102.633 E24.37781
G1 X134.176 Y103.288 E24.4181
G1 X133.694 Y103.897 E24.4584
G1 X133.363 Y104.251 E24.48354
G1 X133.211 Y104.403 E24.4947
G1 X132.634 Y104.923 E24.535
G1 X132.007 Y105.381 E24.57529
G1 X131.336 Y105.772 E24.61558
G1 X130.629 Y106.092 E24.65585
G1 X129.892 Y106.337 E24.69614
G1 X129.135 Y106.506 E24.73639
G1 X128.363 Y106.595 E24.77671
G1 X127.879 Y106.611 E24.80184
G1 X49.118 Y106.611 E28.88841
G1 X48.343 Y106.571 E28.92868
G1 X47.575 Y106.452 E28.969
G1 X46.825 Y106.254 E29.00925
G1 X46.098 Y105.98 E29.04956
G1 X45.404 Y105.633 E29.08982
G1 X44.749 Y105.216 E29.13011
G1 X44.14 Y104.734 E29.17041
G1 X43.786 Y104.403 E29.19555
G1 X43.634 Y104.251 E29.20671
G1 X43.114 Y103.674 E29.24701
G1 X42.656 Y103.047 E29.2873
G1 X42.265 Y102.376 E29.32759
G1 X41.945 Y101.669 E29.36786
G1 X41.7 Y100.932 E29.40815
G1 X41.531 Y100.175 E29.4484
G1 X41.442 Y99.403 E29.48872
G1 X41.426 Y98.919 E29.51385
G1 X41.425 Y54.144 E31.83703
G1 X41.465 Y53.369 E31.8773
G1 X41.584 Y52.602 E31.91757
G1 X41.782 Y51.851 E31.95787
G1 X42.056 Y51.124 E31.99818
G1 X42.403 Y50.43 E32.03844
G1 X42.82 Y49.775 E32.07873
G1 X43.302 Y49.166 E32.11902
G1 X43.633 Y48.812 E32.14417
G1 X43.785 Y48.66 E32.15532
G0 F6000 X44.153 Y49.028
G1 F900 X44.71 Y48.527 E32.1942
G1 X45.318 Y48.089 E32.23308
G1 X45.968 Y47.718 E32.27191
G1 X46.655 Y47.418 E32.3108
G1 X47.37 Y47.193 E32.3497
G1 X48.104 Y47.045 E32.38855
G1 X49.117 Y46.972 E32.44124
G1 X57.528 Y46.972 E32.87765
G1 X57.347 Y46.287 E32.91442
G1 X57.234 Y45.547 E32.95326
G1 X57.2 Y44.798 E32.99216
G1 X57.246 Y44.051 E33.03099
G1 X57.372 Y43.312 E33.06989
G1 X57.576 Y42.591 E33.10877
G1 X57.855 Y41.896 E33.14762
G1 X58.207 Y41.235 E33.18648
G1 X58.461 Y40.843 E33.21072
G1 X58.576 Y40.678 E33.22115
G1 X59.036 Y40.087 E33.26001
G1 X59.557 Y39.549 E33.29887
G1 X60.132 Y39.069 E33.33773
G1 X60.756 Y38.653 E33.37664
G1 X61.42 Y38.306 E33.41552
G1 X62.117 Y38.032 E33.45438
G1 X62.839 Y37.833 E33.49323
G1 X63.578 Y37.713 E33.53208
G1 X64.335 Y37.672 E33.57141
G1 X64.682 Y37.672 E33.58942
G1 X65.43 Y37.712 E33.62829
G1 X66.17 Y37.831 E33.66717
G1 X66.873 Y38.023 E33.70499
G1 X72.816 Y39.975 E34.02955
G1 X73.367 Y40.07 E34.05856
G1 X73.467 Y40.084 E34.0638
G1 X73.783 Y40.14 E34.08045
G1 X73.883 Y40.154 E34.08569
G1 X74.193 Y40.209 E34.10203
G1 X74.28 Y40.221 E34.10658
G1 X74.6 Y40.277 E34.12344
G1 X74.715 Y40.293 E34.12946
G1 X75.039 Y40.35 E34.14653
G1 X75.129 Y40.363 E34.15125
G1 X75.441 Y40.418 E34.16769
G1 X75.546 Y40.433 E34.17319
G1 X75.862 Y40.489 E34.18984
G1 X75.962 Y40.503 E34.19508
G1 X76.282 Y40.56 E34.21195
G1 X76.377 Y40.573 E34.21692
G1 X76.693 Y40.629 E34.23357
G1 X76.793 Y40.643 E34.23881
G1 X77.107 Y40.699 E34.25536
G1 X77.189 Y40.71 E34.25966
G1 X77.509 Y40.766 E34.27651
G1 X77.624 Y40.782 E34.28254
G1 X77.94 Y40.838 E34.29919
G1 X78.04 Y40.852 E34.30443
G1 X78.356 Y40.908 E34.32108
G1 X78.456 Y40.922 E34.32632
G1 X78.772 Y40.978 E34.34297
G1 X78.872 Y40.992 E34.34821
G1 X79.184 Y41.047 E34.36464
G1 X79.289 Y41.062 E34.37015
G1 X79.592 Y41.116 E34.38612
G1 X79.688 Y41.129 E34.39114
G1 X80.021 Y41.187 E34.40868
G1 X80.307 Y41.234 E34.42372
G1 X80.385 Y41.234 E34.42777
G1 X81.133 Y41.274 E34.46663
G1 X81.345 Y41.304 E34.47774
G1 X81.723 Y41.304 E34.49736
G1 X82.471 Y41.344 E34.53622
G1 X82.683 Y41.374 E34.54733
G1 X83.061 Y41.374 E34.56694
