;FLAVOR:Marlin
;TIME:17063
;Filament used: 10.131m
;Layer height: 0.2
;MINX:20.94
;MINY:33.44
;MINZ:0.2
;MAXX:154.06
;MAXY:141.56
;MAXZ:46
;Generated with Creality Slicer 4.8.2-205
M140 S50
M105
M190 S50
M104 S195
M105
M109 S195
M82 ;absolute extrusion mode
G28 ;Home

G92 E0 ;Reset Extruder
G1 Z2.0 F3000 ;Move Z Axis up
G1 X10.1 Y20 Z0.28 F5000.0 ;Move to start position
G1 X10.1 Y170.0 Z0.28 F1500.0 E12 ;Draw the first line
G1 X10.4 Y170.0 Z0.28 F5000.0 ;Move to side a little
G1 X10.4 Y20 Z0.28 F1500.0 E25 ;Draw the second line
G92 E0 ;Reset Extruder
G1 Z2.0 F3000 ;Move Z Axis up

G92 E0
G92 E0
G1 F1500 E-0.8
;LAYER_COUNT:230
;LAYER:0
M107
G0 F6000 X24.621 Y34.734 Z0.2
;TYPE:SKIRT
G1 F1500 E0
G1 F900 X25.315 Y34.332 E0.04161
G1 X26.047 Y34.001 E0.0833
G1 X26.807 Y33.744 E0.12492
G1 X27.59 Y33.564 E0.16661
G1 X28.386 Y33.463 E0.20824
G1 X29 Y33.44 E0.24012
G1 X146 Y33.44 E6.31076
G1 X146.802 Y33.48 E6.35243
G1 X147.596 Y33.6 E6.39409
G1 X148.374 Y33.797 E6.43573
G1 X149.128 Y34.072 E6.47738
G1 X149.851 Y34.42 E6.51901
G1 X150.537 Y34.838 E6.56069
G1 X151.177 Y35.322 E6.60232
G1 X151.766 Y35.868 E6.64399
G1 X152.297 Y36.469 E6.6856
G1 X152.766 Y37.121 E6.72728
G1 X153.168 Y37.815 E6.76889
G1 X153.499 Y38.547 E6.81057
G1 X153.756 Y39.307 E6.8522
G1 X153.936 Y40.09 E6.89389
G1 X154.037 Y40.886 E6.93552
G1 X154.06 Y41.5 E6.9674
G1 X154.06 Y76 E8.75746
G1 X154.02 Y76.802 E8.79912
G1 X153.9 Y77.596 E8.84079
G1 X153.703 Y78.374 E8.88243
G1 X153.476 Y78.996 E8.91679
G1 X153.499 Y79.047 E8.91969
G1 X153.756 Y79.807 E8.96132
G1 X153.936 Y80.59 E9.003
G1 X154.037 Y81.386 E9.04463
G1 X154.06 Y82 E9.07651
G1 X154.06 Y107.5 E10.3996
G1 X154.02 Y108.302 E10.44127
G1 X153.9 Y109.096 E10.48293
G1 X153.703 Y109.874 E10.52457
G1 X153.428 Y110.628 E10.56622
G1 X153.25 Y110.997 E10.58747
G1 X153.499 Y111.547 E10.6188
G1 X153.756 Y112.307 E10.66042
G1 X153.936 Y113.09 E10.70211
G1 X154.037 Y113.886 E10.74374
G1 X154.06 Y114.5 E10.77562
G1 X154.06 Y133.5 E11.76145
G1 X154.02 Y134.302 E11.80312
G1 X153.9 Y135.096 E11.84478
G1 X153.703 Y135.874 E11.88642
G1 X153.428 Y136.628 E11.92807
G1 X153.08 Y137.351 E11.9697
G1 X152.662 Y138.037 E12.01138
G1 X152.178 Y138.677 E12.05301
G1 X151.632 Y139.266 E12.09469
G1 X151.031 Y139.797 E12.1363
G1 X150.379 Y140.266 E12.17797
G1 X149.685 Y140.668 E12.21958
G1 X148.953 Y140.999 E12.26127
G1 X148.193 Y141.256 E12.30289
G1 X147.41 Y141.436 E12.34458
G1 X146.614 Y141.537 E12.38621
G1 X146 Y141.56 E12.41809
G1 X29 Y141.56 E18.48873
G1 X28.198 Y141.52 E18.5304
G1 X27.404 Y141.4 E18.57206
G1 X26.626 Y141.203 E18.6137
G1 X25.872 Y140.928 E18.65534
G1 X25.149 Y140.58 E18.69698
G1 X24.463 Y140.162 E18.73866
G1 X23.823 Y139.678 E18.78029
G1 X23.234 Y139.132 E18.82196
G1 X22.703 Y138.531 E18.86357
G1 X22.234 Y137.879 E18.90525
G1 X21.832 Y137.185 E18.94686
G1 X21.501 Y136.453 E18.98854
G1 X21.244 Y135.693 E19.03017
G1 X21.064 Y134.91 E19.07186
G1 X20.963 Y134.114 E19.11349
G1 X20.94 Y133.5 E19.14537
G1 X20.94 Y41.5 E23.91886
G1 X20.98 Y40.698 E23.96053
G1 X21.1 Y39.904 E24.00219
G1 X21.297 Y39.126 E24.04383
G1 X21.572 Y38.372 E24.08548
G1 X21.92 Y37.649 E24.12711
G1 X22.338 Y36.963 E24.16879
G1 X22.822 Y36.323 E24.21042
G1 X23.368 Y35.734 E24.2521
G1 X23.969 Y35.203 E24.29371
G1 X24.621 Y34.734 E24.33538
G0 F6000 X25.119 Y35.035
G1 F900 X25.805 Y34.671 E24.37567
G1 X26.524 Y34.378 E24.41596
G1 X27.269 Y34.161 E24.45622
G1 X28.033 Y34.022 E24.49651
G1 X29 Y33.96 E24.54679
G1 X146 Y33.96 E30.61743
G1 X146.775 Y34 E30.65769
G1 X147.543 Y34.119 E30.69802
G1 X148.293 Y34.317 E30.73826
G1 X149.02 Y34.591 E30.77857
G1 X149.714 Y34.938 E30.81883
G1 X150.369 Y35.355 E30.85912
G1 X150.978 Y35.837 E30.89942
G1 X151.534 Y36.379 E30.93971
G1 X152.031 Y36.975 E30.97997
G1 X152.465 Y37.619 E31.02027
G1 X152.829 Y38.305 E31.06056
G1 X153.122 Y39.024 E31.10084
G1 X153.339 Y39.769 E31.14111
G1 X153.478 Y40.533 E31.1814
G1 X153.54 Y41.5 E31.23167
G1 X153.54 Y76 E33.02173
G1 X153.5 Y76.775 E33.062
G1 X153.381 Y77.543 E33.10232
G1 X153.183 Y78.293 E33.14257
G1 X152.913 Y79.01 E33.18232
G1 X153.122 Y79.524 E33.21111
G1 X153.339 Y80.269 E33.25137
G1 X153.478 Y81.033 E33.29167
G1 X153.54 Y82 E33.34194
G1 X153.54 Y107.5 E34.66503
G1 X153.5 Y108.275 E34.7053
G1 X153.381 Y109.043 E34.74562
G1 X153.183 Y109.793 E34.78587
G1 X152.909 Y110.52 E34.82618
G1 X152.668 Y111.002 E34.85414
G1 X152.829 Y111.305 E34.87194
G1 X153.122 Y112.024 E34.91223
G1 X153.339 Y112.769 E34.95249
G1 X153.478 Y113.533 E34.99278
G1 X153.54 Y114.5 E35.04306
G1 X153.54 Y133.5 E36.02889
G1 X153.5 Y134.275 E36.06915
G1 X153.381 Y135.043 E36.10948
G1 X153.183 Y135.793 E36.14972
G1 X152.909 Y136.52 E36.19003
G1 X152.562 Y137.214 E36.23029
G1 X152.145 Y137.869 E36.27058
G1 X151.663 Y138.478 E36.31088
G1 X151.121 Y139.034 E36.35117
G1 X150.525 Y139.531 E36.39143
G1 X149.881 Y139.965 E36.43173
G1 X149.195 Y140.329 E36.47202
G1 X148.476 Y140.622 E36.5123
G1 X147.731 Y140.839 E36.55257
G1 X146.967 Y140.978 E36.59286
G1 X146 Y141.04 E36.64313
G1 X29 Y141.04 E42.71377
G1 X28.225 Y141 E42.75404
G1 X27.457 Y140.881 E42.79436
G1 X26.707 Y140.683 E42.83461
G1 X25.98 Y140.409 E42.87492
G1 X25.286 Y140.062 E42.91518
G1 X24.631 Y139.645 E42.95547
G1 X24.022 Y139.163 E42.99577
G1 X23.466 Y138.621 E43.03605
G1 X22.969 Y138.025 E43.07632
G1 X22.535 Y137.381 E43.11661
G1 X22.171 Y136.695 E43.15691
G1 X21.878 Y135.976 E43.19719
G1 X21.661 Y135.231 E43.23745
G1 X21.522 Y134.467 E43.27774
G1 X21.46 Y133.5 E43.32802
G1 X21.46 Y41.5 E48.10151
G1 X21.5 Y40.725 E48.14178
G1 X21.619 Y39.957 E48.1821
G1 X21.817 Y39.207 E48.22235
G1 X22.091 Y38.48 E48.26266
G1 X22.438 Y37.786 E48.30292
G1 X22.855 Y37.131 E48.34321
G1 X23.337 Y36.522 E48.38351
G1 X23.879 Y35.966 E48.42379
G1 X24.475 Y35.469 E48.46406
G1 X25.119 Y35.035 E48.50435
G0 F6000 X24.979 Y35.746
G1 F900 X25.615 Y35.35 E48.54323
G1 X26.29 Y35.024 E48.58212
G1 X26.995 Y34.772 E48.62097
G1 X27.724 Y34.597 E48.65987
G1 X28.466 Y34.5 E48.69869
G1 X29 Y34.48 E48.72642
G1 X146 Y34.48 E54.79706
G1 X146.748 Y34.52 E54.83593
G1 X147.488 Y34.639 E54.87481
G1 X148.21 Y34.837 E54.91366
G1 X148.908 Y35.11 E54.95255
G1 X149.572 Y35.457 E54.99142
G1 X150.196 Y35.872 E55.0303
G1 X150.771 Y36.351 E55.06913
G1 X151.293 Y36.889 E55.10803
G1 X151.754 Y37.479 E55.14688
G1 X152.15 Y38.115 E55.18575
G1 X152.476 Y38.79 E55.22464
G1 X152.728 Y39.495 E55.26349
G1 X152.903 Y40.224 E55.30239
G1 X153 Y40.966 E55.34122
G1 X153.02 Y41.5 E55.36894
G1 X153.02 Y76 E57.159
G1 X152.98 Y76.748 E57.19787
G1 X152.861 Y77.488 E57.23676
G1 X152.663 Y78.21 E57.2756
G1 X152.39 Y78.908 E57.31449
G1 X152.339 Y79.006 E57.32022
G1 X152.476 Y79.29 E57.33658
G1 X152.728 Y79.995 E57.37543
G1 X152.903 Y80.724 E57.41433
G1 X153 Y81.466 E57.45316
G1 X153.02 Y82 E57.48088
G1 X153.02 Y107.5 E58.80397
G1 X152.98 Y108.248 E58.84284
G1 X152.861 Y108.988 E58.88172
G1 X152.663 Y109.71 E58.92057
G1 X152.39 Y110.408 E58.95946
G1 X152.08 Y111.002 E58.99422
G1 X152.15 Y111.115 E59.00112
G1 X152.476 Y111.79 E59.04001
G1 X152.728 Y112.495 E59.07886
G1 X152.903 Y113.224 E59.11776
G1 X153 Y113.966 E59.15659
G1 X153.02 Y114.5 E59.18431
G1 X153.02 Y133.5 E60.17014
G1 X152.98 Y134.248 E60.20901
G1 X152.861 Y134.988 E60.2479
G1 X152.663 Y135.71 E60.28674
G1 X152.39 Y136.408 E60.32563
G1 X152.043 Y137.072 E60.3645
G1 X151.628 Y137.696 E60.40339
G1 X151.149 Y138.271 E60.44222
G1 X150.611 Y138.793 E60.48111
G1 X150.021 Y139.254 E60.51996
G1 X149.385 Y139.65 E60.55883
G1 X148.71 Y139.976 E60.59773
G1 X148.005 Y140.228 E60.63657
G1 X147.276 Y140.403 E60.67547
G1 X146.534 Y140.5 E60.7143
G1 X146 Y140.52 E60.74203
G1 X29 Y140.52 E66.81267
G1 X28.252 Y140.48 E66.85153
G1 X27.512 Y140.361 E66.89042
G1 X26.79 Y140.163 E66.92926
G1 X26.092 Y139.89 E66.96815
G1 X25.428 Y139.543 E67.00703
G1 X24.804 Y139.128 E67.04591
G1 X24.229 Y138.649 E67.08474
G1 X23.707 Y138.111 E67.12363
G1 X23.246 Y137.521 E67.16248
G1 X22.85 Y136.885 E67.20136
G1 X22.524 Y136.21 E67.24025
G1 X22.272 Y135.505 E67.2791
G1 X22.097 Y134.776 E67.31799
G1 X22 Y134.034 E67.35682
G1 X21.98 Y133.5 E67.38455
G1 X21.98 Y41.5 E72.15804
G1 X22.02 Y40.752 E72.19691
G1 X22.139 Y40.012 E72.2358
G1 X22.337 Y39.29 E72.27464
G1 X22.61 Y38.592 E72.31353
G1 X22.957 Y37.928 E72.3524
G1 X23.372 Y37.304 E72.39129
G1 X23.851 Y36.729 E72.43012
G1 X24.389 Y36.207 E72.46901
G1 X24.979 Y35.746 E72.50786
G0 F6000 X25.48 Y36.035
G1 F900 X26.107 Y35.679 E72.54527
G1 X26.769 Y35.395 E72.58265
G1 X27.459 Y35.185 E72.62007
G1 X28.168 Y35.054 E72.65748
G1 X29 Y35 E72.70074
G1 X146 Y35 E78.77138
G1 X146.72 Y35.04 E78.80879
G1 X147.431 Y35.159 E78.8462
G1 X148.124 Y35.357 E78.88359
G1 X148.791 Y35.63 E78.92099
G1 X149.424 Y35.975 E78.95839
G1 X150.015 Y36.388 E78.9958
G1 X150.556 Y36.864 E79.03319
G1 X151.041 Y37.397 E79.07058
G1 X151.465 Y37.98 E79.10799
G1 X151.821 Y38.607 E79.1454
G1 X152.105 Y39.269 E79.18277
G1 X152.315 Y39.959 E79.22019
G1 X152.446 Y40.668 E79.2576
G1 X152.5 Y41.5 E79.30086
G1 X152.5 Y76 E81.09092
G1 X152.46 Y76.72 E81.12834
G1 X152.341 Y77.431 E81.16574
G1 X152.143 Y78.124 E81.20314
G1 X151.87 Y78.791 E81.24053
G1 X151.758 Y78.996 E81.25265
G1 X151.821 Y79.107 E81.25928
G1 X152.105 Y79.769 E81.29665
G1 X152.315 Y80.459 E81.33408
G1 X152.446 Y81.168 E81.37149
G1 X152.5 Y82 E81.41475
G1 X152.5 Y107.5 E82.73783
G1 X152.46 Y108.22 E82.77525
G1 X152.341 Y108.931 E82.81265
G1 X152.143 Y109.624 E82.85005
G1 X151.87 Y110.291 E82.88744
G1 X151.525 Y110.924 E82.92485
G1 X151.474 Y110.996 E82.92943
G1 X151.821 Y111.607 E82.96588
G1 X152.105 Y112.269 E83.00326
G1 X152.315 Y112.959 E83.04068
G1 X152.446 Y113.668 E83.07809
G1 X152.5 Y114.5 E83.12135
G1 X152.5 Y133.5 E84.10718
G1 X152.46 Y134.22 E84.1446
G1 X152.341 Y134.931 E84.182
G1 X152.143 Y135.624 E84.2194
G1 X151.87 Y136.291 E84.25679
G1 X151.525 Y136.924 E84.2942
G1 X151.112 Y137.515 E84.33161
G1 X150.636 Y138.056 E84.369
G1 X150.103 Y138.541 E84.40639
G1 X149.52 Y138.965 E84.44379
G1 X148.893 Y139.321 E84.4812
G1 X148.231 Y139.605 E84.51858
G1 X147.541 Y139.815 E84.556
G1 X146.832 Y139.946 E84.59341
G1 X146 Y140 E84.63667
G1 X29 Y140 E90.70731
G1 X28.28 Y139.96 E90.74472
G1 X27.569 Y139.841 E90.78213
G1 X26.876 Y139.643 E90.81952
G1 X26.209 Y139.37 E90.85692
G1 X25.576 Y139.025 E90.89432
G1 X24.985 Y138.612 E90.93173
G1 X24.444 Y138.136 E90.96912
G1 X23.959 Y137.603 E91.00651
G1 X23.535 Y137.02 E91.04391
G1 X23.179 Y136.393 E91.08133
G1 X22.895 Y135.731 E91.1187
G1 X22.685 Y135.041 E91.15612
G1 X22.554 Y134.332 E91.19353
G1 X22.5 Y133.5 E91.23679
G1 X22.5 Y41.5 E96.01029
G1 X22.54 Y40.78 E96.0477
G1 X22.659 Y40.069 E96.08511
G1 X22.857 Y39.376 E96.1225
G1 X23.13 Y38.709 E96.1599
G1 X23.475 Y38.076 E96.1973
G1 X23.888 Y37.485 E96.23471
G1 X24.364 Y36.944 E96.2721
G1 X24.897 Y36.459 E96.30949
G1 X25.48 Y36.035 E96.3469
G0 F6000 X25.979 Y36.339
G1 F900 X26.594 Y36.025 E96.38272
G1 X27.242 Y35.784 E96.4186
G1 X27.914 Y35.619 E96.4545
G1 X28.6 Y35.533 E96.49037
G1 X29 Y35.52 E96.51114
G1 X146 Y35.52 E102.58178
G1 X146.69 Y35.56 E102.61764
G1 X147.371 Y35.679 E102.65351
G1 X148.034 Y35.877 E102.68941
G1 X148.669 Y36.149 E102.72525
G1 X149.269 Y36.493 E102.76114
G1 X149.825 Y36.903 E102.79698
G1 X150.33 Y37.376 E102.83288
G1 X150.777 Y37.903 E102.86874
G1 X151.161 Y38.479 E102.90466
G1 X151.475 Y39.094 E102.94048
G1 X151.716 Y39.742 E102.97636
G1 X151.881 Y40.414 E103.01226
G1 X151.967 Y41.1 E103.04813
G1 X151.98 Y41.5 E103.0689
G1 X151.98 Y76 E104.85896
G1 X151.94 Y76.69 E104.89482
G1 X151.821 Y77.371 E104.93069
G1 X151.623 Y78.034 E104.96659
G1 X151.351 Y78.669 E105.00243
G1 X151.167 Y78.99 E105.02163
G1 X151.475 Y79.594 E105.05681
G1 X151.716 Y80.242 E105.09268
G1 X151.881 Y80.914 E105.12858
G1 X151.967 Y81.6 E105.16446
G1 X151.98 Y82 E105.18522
G1 X151.98 Y107.5 E106.50831
G1 X151.94 Y108.19 E106.54417
G1 X151.821 Y108.871 E106.58004
G1 X151.623 Y109.534 E106.61594
G1 X151.351 Y110.169 E106.65178
G1 X151.007 Y110.769 E106.68767
G1 X150.839 Y110.996 E106.70232
G1 X151.161 Y111.479 E106.73244
G1 X151.475 Y112.094 E106.76827
G1 X151.716 Y112.742 E106.80414
G1 X151.881 Y113.414 E106.84004
G1 X151.967 Y114.1 E106.87592
G1 X151.98 Y114.5 E106.89668
G1 X151.98 Y133.5 E107.88251
G1 X151.94 Y134.19 E107.91837
G1 X151.821 Y134.871 E107.95424
G1 X151.623 Y135.534 E107.99015
G1 X151.351 Y136.169 E108.02599
G1 X151.007 Y136.769 E108.06187
G1 X150.597 Y137.325 E108.09772
G1 X150.124 Y137.83 E108.13362
G1 X149.597 Y138.277 E108.16947
G1 X149.021 Y138.661 E108.20539
G1 X148.406 Y138.975 E108.24122
G1 X147.758 Y139.216 E108.27709
G1 X147.086 Y139.381 E108.313
G1 X146.4 Y139.467 E108.34887
G1 X146 Y139.48 E108.36963
G1 X29 Y139.48 E114.44027
G1 X28.31 Y139.44 E114.47613
G1 X27.629 Y139.321 E114.512
G1 X26.966 Y139.123 E114.54791
G1 X26.331 Y138.851 E114.58375
G1 X25.731 Y138.507 E114.61963
G1 X25.175 Y138.097 E114.65548
G1 X24.67 Y137.624 E114.69138
G1 X24.223 Y137.097 E114.72723
G1 X23.839 Y136.521 E114.76315
G1 X23.525 Y135.906 E114.79898
G1 X23.284 Y135.258 E114.83485
G1 X23.119 Y134.586 E114.87076
G1 X23.033 Y133.9 E114.90663
G1 X23.02 Y133.5 E114.92739
G1 X23.02 Y41.5 E119.70089
G1 X23.06 Y40.81 E119.73675
G1 X23.179 Y40.129 E119.77262
G1 X23.377 Y39.466 E119.80852
G1 X23.649 Y38.831 E119.84436
G1 X23.993 Y38.231 E119.88025
G1 X24.403 Y37.675 E119.91609
G1 X24.876 Y37.17 E119.95199
G1 X25.403 Y36.723 E119.98785
G1 X25.979 Y36.339 E120.02377
G0 F6000 X25.907 Y37.001
G1 F900 X26.473 Y36.66 E120.05805
G1 X27.076 Y36.39 E120.09233
G1 X27.707 Y36.195 E120.1266
G1 X28.357 Y36.078 E120.16087
G1 X29 Y36.04 E120.19429
G1 X146 Y36.04 E126.26493
G1 X146.659 Y36.08 E126.29918
G1 X147.309 Y36.199 E126.33347
G1 X147.94 Y36.396 E126.36777
G1 X148.542 Y36.668 E126.40204
G1 X149.107 Y37.01 E126.43631
G1 X149.626 Y37.418 E126.47057
G1 X150.093 Y37.886 E126.50487
G1 X150.499 Y38.407 E126.53914
G1 X150.84 Y38.973 E126.57343
G1 X151.11 Y39.576 E126.60771
G1 X151.305 Y40.207 E126.64197
G1 X151.422 Y40.857 E126.67624
G1 X151.46 Y41.5 E126.70966
G1 X151.46 Y76 E128.49972
G1 X151.42 Y76.659 E128.53398
G1 X151.301 Y77.309 E128.56827
G1 X151.104 Y77.94 E128.60256
G1 X150.832 Y78.542 E128.63684
G1 X150.555 Y79 E128.66461
G1 X150.84 Y79.473 E128.69326
G1 X151.11 Y80.076 E128.72754
G1 X151.305 Y80.707 E128.76181
G1 X151.422 Y81.357 E128.79608
G1 X151.46 Y82 E128.8295
G1 X151.46 Y107.5 E130.15259
G1 X151.42 Y108.159 E130.18684
G1 X151.301 Y108.809 E130.22113
G1 X151.104 Y109.44 E130.25543
G1 X150.832 Y110.042 E130.2897
G1 X150.49 Y110.607 E130.32397
G1 X150.181 Y110.999 E130.34987
G1 X150.499 Y111.407 E130.37671
G1 X150.84 Y111.973 E130.411
G1 X151.11 Y112.576 E130.44528
G1 X151.305 Y113.207 E130.47954
G1 X151.422 Y113.857 E130.51381
G1 X151.46 Y114.5 E130.54723
G1 X151.46 Y133.5 E131.53306
G1 X151.42 Y134.159 E131.56732
G1 X151.301 Y134.809 E131.60161
G1 X151.104 Y135.44 E131.6359
G1 X150.832 Y136.042 E131.67018
G1 X150.49 Y136.607 E131.70445
G1 X150.082 Y137.126 E131.7387
G1 X149.614 Y137.593 E131.773
G1 X149.093 Y137.999 E131.80728
G1 X148.527 Y138.34 E131.84156
G1 X147.924 Y138.61 E131.87584
G1 X147.293 Y138.805 E131.91011
G1 X146.643 Y138.922 E131.94438
G1 X146 Y138.96 E131.9778
G1 X29 Y138.96 E138.04844
G1 X28.341 Y138.92 E138.08269
G1 X27.691 Y138.801 E138.11698
G1 X27.06 Y138.604 E138.15128
G1 X26.458 Y138.332 E138.18555
G1 X25.893 Y137.99 E138.21982
G1 X25.374 Y137.582 E138.25408
G1 X24.907 Y137.114 E138.28838
G1 X24.501 Y136.593 E138.32265
G1 X24.16 Y136.027 E138.35694
G1 X23.89 Y135.424 E138.39122
G1 X23.695 Y134.793 E138.42548
G1 X23.578 Y134.143 E138.45975
G1 X23.54 Y133.5 E138.49317
