;FLAVOR:Marlin
;TIME:38480
;Filament used: 22.8803m
;Layer height: 0.2
;MINX:21.399
;MINY:30.2
;MINZ:0.2
;MAXX:151.352
;MAXY:134.086
;MAXZ:69
;Generated with Creality Slicer 4.8.2-205
M140 S50
M105
M190 S50
M104 S195
M105
M109 S195
M82 ;absolute extrusion mode
G28 ;Home

G92 E0 ;Reset Extruder
G1 Z2.0 F3000 ;Move Z Axis up
G1 X10.1 Y20 Z0.28 F5000.0 ;Move to start position
G1 X10.1 Y170.0 Z0.28 F1500.0 E12 ;Draw the first line
G1 X10.4 Y170.0 Z0.28 F5000.0 ;Move to side a little
G1 X10.4 Y20 Z0.28 F1500.0 E25 ;Draw the second line
G92 E0 ;Reset Extruder
G1 Z2.0 F3000 ;Move Z Axis up

G92 E0
G92 E0
G1 F1500 E-0.8
;LAYER_COUNT:345
;LAYER:0
M107
G0 F6000 X27.713 Y42.365 Z0.2
;TYPE:SKIRT
G1 F1500 E0
G1 F900 X29.683 Y41.205 E0.11862
G1 X31.326 Y40.212 E0.21823
G1 X33.455 Y38.877 E0.34861
G1 X35.56 Y37.474 E0.47987
G1 X37.607 Y36.025 E0.61
G1 X39.604 Y34.523 E0.73965
G1 X41.177 Y33.279 E0.8437
G1 X41.86 Y32.726 E0.8893
G1 X42.623 Y32.159 E0.93862
G1 X43.431 Y31.659 E0.98793
G1 X44.279 Y31.229 E1.03726
G1 X45.16 Y30.871 E1.0866
G1 X46.067 Y30.589 E1.13588
G1 X46.996 Y30.383 E1.18526
G1 X47.938 Y30.257 E1.23457
G1 X48.692 Y30.213 E1.27376
G1 X49.101 Y30.203 E1.29498
G1 X49.377 Y30.2 E1.3093
G1 X127.324 Y30.2 E5.35365
G1 X128.188 Y30.211 E5.39848
G1 X129.138 Y30.265 E5.44785
G1 X130.079 Y30.398 E5.49716
G1 X131.006 Y30.609 E5.54649
G1 X131.911 Y30.898 E5.59578
G1 X132.789 Y31.262 E5.6451
G1 X133.634 Y31.699 E5.69446
G1 X134.356 Y32.148 E5.73857
G1 X136.602 Y33.666 E5.87923
G1 X138.71 Y35.005 E6.0088
G1 X140.857 Y36.283 E6.13844
G1 X142.383 Y37.137 E6.22918
G1 X142.825 Y37.392 E6.25565
G1 X143.665 Y37.927 E6.30733
G1 X144.401 Y38.443 E6.35397
G1 X145.45 Y39.205 E6.42124
G1 X145.995 Y39.614 E6.45659
G1 X146.73 Y40.216 E6.50589
G1 X147.413 Y40.878 E6.55524
G1 X148.238 Y41.854 E6.62155
G1 X148.71 Y42.483 E6.66235
G1 X149.106 Y43.027 E6.69726
G1 X149.641 Y43.813 E6.7466
G1 X150.108 Y44.641 E6.79592
G1 X150.504 Y45.505 E6.84523
G1 X150.826 Y46.399 E6.89454
G1 X151.071 Y47.318 E6.94389
G1 X151.238 Y48.253 E6.99317
G1 X151.34 Y49.606 E7.06357
G1 X151.352 Y50.517 E7.11084
G1 X151.351 Y52.277 E7.20216
G1 X151.34 Y52.985 E7.2389
G1 X151.285 Y53.934 E7.28822
G1 X151.151 Y54.875 E7.33754
G1 X150.938 Y55.801 E7.38684
G1 X150.648 Y56.706 E7.43615
G1 X150.148 Y57.863 E7.50155
G1 X149.882 Y58.369 E7.53121
G1 X148.65 Y60.576 E7.66235
G1 X147.513 Y62.756 E7.78992
G1 X146.408 Y65.026 E7.92092
G1 X145.368 Y67.328 E8.05198
G1 X144.392 Y69.66 E8.18315
G1 X143.505 Y71.971 E8.31159
G1 X142.665 Y74.348 E8.44239
G1 X141.898 Y76.735 E8.57248
G1 X141.199 Y79.138 E8.70233
G1 X140.568 Y81.563 E8.83234
G1 X139.998 Y84.038 E8.96412
G1 X139.513 Y86.466 E9.09259
G1 X139.237 Y88.066 E9.17683
G1 X139.129 Y88.644 E9.20734
G1 X138.915 Y89.571 E9.25671
G1 X138.624 Y90.476 E9.30603
G1 X138.258 Y91.353 E9.35534
G1 X137.82 Y92.197 E9.40468
G1 X137.312 Y93 E9.45398
G1 X136.739 Y93.758 E9.50328
G1 X136.104 Y94.466 E9.55263
G1 X135.412 Y95.117 E9.60192
G1 X134.667 Y95.708 E9.65126
G1 X133.875 Y96.234 E9.70059
G1 X133.042 Y96.692 E9.74992
G1 X132.174 Y97.078 E9.79921
G1 X131.276 Y97.39 E9.84853
G1 X130.355 Y97.625 E9.89785
G1 X129.417 Y97.782 E9.94719
G1 X128.371 Y97.864 E10.00163
G1 X128.048 Y97.874 E10.0184
G1 X127.698 Y97.879 E10.03656
G1 X49.511 Y97.878 E14.09336
G1 X48.812 Y97.868 E14.12963
G1 X47.863 Y97.814 E14.17895
G1 X46.922 Y97.681 E14.22826
G1 X45.995 Y97.469 E14.2776
G1 X45.09 Y97.18 E14.32689
G1 X44.212 Y96.816 E14.37621
G1 X43.367 Y96.38 E14.42554
G1 X42.562 Y95.874 E14.47488
G1 X41.803 Y95.302 E14.52419
G1 X41.094 Y94.669 E14.57351
G1 X40.442 Y93.978 E14.6228
G1 X39.849 Y93.234 E14.67216
G1 X39.321 Y92.444 E14.72147
G1 X38.862 Y91.612 E14.77077
G1 X38.334 Y90.373 E14.84065
G1 X38.139 Y89.825 E14.87083
G1 X37.545 Y88.066 E14.96716
G1 X36.679 Y85.723 E15.09677
G1 X35.747 Y83.407 E15.2263
G1 X34.738 Y81.091 E15.35738
G1 X33.68 Y78.839 E15.48647
G1 X32.535 Y76.571 E15.6183
G1 X31.353 Y74.384 E15.74728
G1 X30.111 Y72.234 E15.87611
G1 X28.78 Y70.073 E16.0078
G1 X27.394 Y67.96 E16.13892
G1 X25.992 Y65.95 E16.26607
G1 X25.115 Y64.779 E16.34198
G1 X24.98 Y64.582 E16.35437
G1 X24.216 Y63.545 E16.4212
G1 X23.685 Y62.756 E16.47055
G1 X23.391 Y62.249 E16.50096
G1 X23.318 Y62.115 E16.50888
G1 X23.124 Y61.742 E16.53069
G1 X22.923 Y61.338 E16.5541
G1 X22.536 Y60.47 E16.60341
G1 X22.143 Y59.295 E16.6677
G1 X22.031 Y58.875 E16.69025
G1 X21.742 Y57.716 E16.75223
G1 X21.551 Y56.785 E16.80154
G1 X21.439 Y55.841 E16.85086
G1 X21.407 Y55.151 E16.8867
G1 X21.399 Y54.615 E16.91452
G1 X21.4 Y54.256 E16.93315
G1 X21.407 Y53.839 E16.95478
G1 X21.463 Y52.89 E17.00411
G1 X21.598 Y51.95 E17.05338
G1 X21.729 Y51.344 E17.08555
G1 X21.988 Y50.285 E17.14212
G1 X22.058 Y50.013 E17.15669
G1 X22.135 Y49.729 E17.17196
G1 X22.422 Y48.823 E17.22127
G1 X22.784 Y47.944 E17.27059
G1 X23.072 Y47.366 E17.3041
G1 X23.27 Y46.995 E17.32592
G1 X23.752 Y46.176 E17.37523
G1 X24.302 Y45.4 E17.42458
G1 X25.155 Y44.42 E17.49199
G1 X25.364 Y44.206 E17.50751
G1 X26.056 Y43.554 E17.55684
G1 X26.8 Y42.963 E17.60614
G1 X27.713 Y42.365 E17.66277
G0 F6000 X27.977 Y42.813
G1 F900 X29.948 Y41.652 E17.78146
G1 X31.546 Y40.687 E17.87832
G1 X33.756 Y39.301 E18.01367
G1 X35.836 Y37.915 E18.14336
G1 X37.907 Y36.448 E18.27504
G1 X39.939 Y34.921 E18.40693
G1 X41.499 Y33.687 E18.51013
G1 X42.187 Y33.13 E18.55606
G1 X42.933 Y32.578 E18.60421
G1 X43.724 Y32.091 E18.65241
G1 X44.554 Y31.675 E18.70058
G1 X45.416 Y31.332 E18.74872
G1 X46.305 Y31.064 E18.79689
G1 X47.214 Y30.874 E18.84508
G1 X48.136 Y30.762 E18.89327
G1 X48.705 Y30.733 E18.92283
G1 X49.114 Y30.723 E18.94406
G1 X49.377 Y30.72 E18.9577
G1 X127.324 Y30.72 E23.00205
G1 X128.181 Y30.731 E23.04651
G1 X129.108 Y30.784 E23.09469
G1 X130.027 Y30.917 E23.14287
G1 X130.931 Y31.128 E23.19104
G1 X131.814 Y31.417 E23.23924
G1 X132.668 Y31.78 E23.28739
G1 X133.488 Y32.215 E23.33555
G1 X134.065 Y32.579 E23.37095
G1 X136.305 Y34.093 E23.51123
G1 X138.429 Y35.441 E23.64176
G1 X140.626 Y36.75 E23.77445
G1 X141.992 Y37.513 E23.85563
G1 X142.565 Y37.843 E23.88994
G1 X143.366 Y38.353 E23.93921
G1 X144.25 Y38.974 E23.99527
G1 X145.138 Y39.621 E24.05227
G1 X145.683 Y40.03 E24.08763
G1 X146.4 Y40.619 E24.13577
G1 X147.065 Y41.267 E24.18395
G1 X147.823 Y42.166 E24.24496
G1 X148.177 Y42.636 E24.27549
G1 X148.689 Y43.337 E24.32053
G1 X149.211 Y44.105 E24.36871
G1 X149.664 Y44.915 E24.41687
G1 X150.047 Y45.761 E24.46505
G1 X150.355 Y46.637 E24.51323
G1 X150.586 Y47.536 E24.56139
G1 X150.74 Y48.452 E24.60959
G1 X150.82 Y49.614 E24.67002
G1 X150.832 Y50.517 E24.71688
G1 X150.831 Y52.268 E24.80773
G1 X150.82 Y52.976 E24.84447
G1 X150.765 Y53.903 E24.89265
G1 X150.631 Y54.822 E24.94084
G1 X150.419 Y55.726 E24.98902
G1 X150.129 Y56.608 E25.03719
G1 X149.683 Y57.63 E25.09505
G1 X149.428 Y58.115 E25.12348
G1 X148.201 Y60.314 E25.25414
G1 X147.035 Y62.549 E25.38493
G1 X145.938 Y64.802 E25.51495
G1 X144.9 Y67.101 E25.64583
G1 X143.906 Y69.477 E25.77947
G1 X143.019 Y71.785 E25.90776
G1 X142.169 Y74.191 E26.04016
G1 X141.404 Y76.574 E26.17002
G1 X140.697 Y79.005 E26.30138
G1 X140.058 Y81.459 E26.43295
G1 X139.491 Y83.922 E26.56409
G1 X138.999 Y86.385 E26.69441
G1 X138.726 Y87.971 E26.77791
G1 X138.618 Y88.549 E26.80842
G1 X138.408 Y89.453 E26.85657
G1 X138.121 Y90.337 E26.90479
G1 X137.76 Y91.192 E26.95295
G1 X137.326 Y92.012 E27.00109
G1 X136.823 Y92.793 E27.04929
G1 X136.255 Y93.527 E27.09744
G1 X135.625 Y94.21 E27.14565
G1 X134.94 Y94.836 E27.1938
G1 X134.203 Y95.4 E27.24195
G1 X133.42 Y95.9 E27.29016
G1 X132.597 Y96.33 E27.33834
G1 X131.74 Y96.687 E27.38651
G1 X130.856 Y96.97 E27.43467
G1 X129.95 Y97.175 E27.48286
G1 X129.031 Y97.302 E27.531
G1 X128.355 Y97.344 E27.56614
G1 X128.032 Y97.354 E27.58291
G1 X127.698 Y97.359 E27.60024
G1 X49.519 Y97.358 E31.65662
G1 X48.82 Y97.348 E31.69289
G1 X47.893 Y97.295 E31.74107
G1 X46.974 Y97.162 E31.78925
G1 X46.07 Y96.95 E31.83743
G1 X45.187 Y96.662 E31.88562
G1 X44.333 Y96.299 E31.93376
G1 X43.513 Y95.863 E31.98195
G1 X42.733 Y95.359 E32.03014
G1 X42 Y94.789 E32.07831
G1 X41.319 Y94.159 E32.12645
G1 X40.694 Y93.472 E32.17464
G1 X40.131 Y92.734 E32.2228
G1 X39.633 Y91.95 E32.27099
G1 X39.205 Y91.127 E32.31912
G1 X38.823 Y90.198 E32.37124
G1 X38.632 Y89.659 E32.40091
G1 X38.039 Y87.903 E32.49708
G1 X37.171 Y85.554 E32.62701
G1 X36.215 Y83.18 E32.7598
G1 X35.214 Y80.88 E32.88995
G1 X34.157 Y78.631 E33.01889
G1 X32.999 Y76.336 E33.15227
G1 X31.803 Y74.124 E33.28274
G1 X30.536 Y71.931 E33.41415
G1 X29.225 Y69.803 E33.54384
G1 X27.839 Y67.69 E33.67495
G1 X26.402 Y65.629 E33.80531
G1 X25.531 Y64.467 E33.88066
G1 X25.401 Y64.277 E33.89261
G1 X24.634 Y63.236 E33.9597
G1 X24.116 Y62.466 E34.00785
G1 X23.848 Y62 E34.03574
G1 X23.775 Y61.866 E34.04366
G1 X23.59 Y61.511 E34.06443
G1 X23.389 Y61.107 E34.08784
G1 X23.011 Y60.259 E34.13602
G1 X22.644 Y59.157 E34.19628
G1 X22.535 Y58.749 E34.21819
G1 X22.246 Y57.59 E34.28017
G1 X22.061 Y56.68 E34.32835
G1 X21.954 Y55.758 E34.37651
G1 X21.927 Y55.143 E34.40845
G1 X21.919 Y54.607 E34.43627
G1 X21.92 Y54.265 E34.45401
G1 X21.927 Y53.848 E34.47565
G1 X21.982 Y52.921 E34.52383
G1 X22.117 Y52.003 E34.57198
G1 X22.234 Y51.468 E34.60039
G1 X22.493 Y50.409 E34.65696
G1 X22.56 Y50.149 E34.67089
G1 X22.637 Y49.865 E34.68616
G1 X22.918 Y48.98 E34.73433
G1 X23.274 Y48.123 E34.78248
G1 X23.531 Y47.61 E34.81226
G1 X23.729 Y47.239 E34.83408
G1 X24.201 Y46.44 E34.88223
G1 X24.74 Y45.684 E34.9304
G1 X25.527 Y44.783 E34.99247
G1 X25.736 Y44.569 E35.00799
G1 X26.413 Y43.933 E35.05619
G1 X27.141 Y43.358 E35.10432
G1 X27.977 Y42.813 E35.1561
G0 F6000 X28.241 Y43.261
G1 F900 X30.214 Y42.099 E35.27491
G1 X31.835 Y41.119 E35.37319
G1 X34.049 Y39.732 E35.50875
G1 X36.137 Y38.34 E35.63895
G1 X38.209 Y36.873 E35.77068
G1 X40.25 Y35.338 E35.90318
G1 X41.766 Y34.139 E36.00347
G1 X42.514 Y33.534 E36.05339
G1 X43.242 Y32.996 E36.10035
G1 X44.016 Y32.524 E36.14739
G1 X44.827 Y32.123 E36.19433
G1 X45.671 Y31.794 E36.24134
G1 X46.541 Y31.541 E36.28835
G1 X47.43 Y31.366 E36.33536
G1 X48.717 Y31.253 E36.40239
G1 X49.126 Y31.243 E36.42362
G1 X49.377 Y31.24 E36.43664
G1 X127.324 Y31.24 E40.48099
G1 X128.174 Y31.251 E40.52509
G1 X129.078 Y31.304 E40.57208
G1 X129.974 Y31.436 E40.61907
G1 X130.855 Y31.647 E40.66607
G1 X131.714 Y31.935 E40.71308
G1 X132.544 Y32.297 E40.76007
G1 X133.339 Y32.731 E40.80706
G1 X133.774 Y33.01 E40.83387
G1 X136.024 Y34.531 E40.97479
G1 X138.171 Y35.894 E41.10674
G1 X140.337 Y37.184 E41.23755
G1 X141.863 Y38.038 E41.32828
G1 X142.305 Y38.293 E41.35476
G1 X143.068 Y38.779 E41.40169
G1 X143.944 Y39.395 E41.45726
G1 X144.825 Y40.037 E41.51382
G1 X145.37 Y40.446 E41.54918
G1 X146.07 Y41.021 E41.59618
G1 X146.716 Y41.656 E41.64318
G1 X147.407 Y42.479 E41.69894
G1 X147.868 Y43.094 E41.73882
G1 X148.272 Y43.648 E41.77439
G1 X148.78 Y44.397 E41.82135
G1 X149.22 Y45.189 E41.86836
G1 X149.589 Y46.017 E41.91539
G1 X149.883 Y46.873 E41.96235
G1 X150.1 Y47.753 E42.00938
G1 X150.239 Y48.648 E42.05638
G1 X150.3 Y49.621 E42.10696
G1 X150.312 Y50.517 E42.15345
G1 X150.311 Y52.26 E42.24389
G1 X150.3 Y52.968 E42.28063
G1 X150.246 Y53.873 E42.32767
G1 X150.112 Y54.768 E42.37463
G1 X149.9 Y55.649 E42.42164
G1 X149.611 Y56.507 E42.46862
G1 X149.218 Y57.397 E42.5191
G1 X148.974 Y57.862 E42.54634
G1 X147.735 Y60.081 E42.67821
G1 X146.578 Y62.299 E42.80801
G1 X145.462 Y64.594 E42.94042
G1 X144.419 Y66.904 E43.07193
G1 X143.423 Y69.283 E43.20575
G1 X142.528 Y71.613 E43.33525
G1 X141.684 Y74.002 E43.46671
G1 X140.909 Y76.412 E43.59807
G1 X140.194 Y78.871 E43.73094
G1 X139.557 Y81.32 E43.86223
G1 X138.977 Y83.837 E43.99625
G1 X138.491 Y86.269 E44.12493
G1 X138.241 Y87.727 E44.20169
G1 X138.106 Y88.453 E44.24
G1 X137.901 Y89.336 E44.28704
G1 X137.618 Y90.196 E44.33401
G1 X137.261 Y91.029 E44.38103
G1 X136.832 Y91.826 E44.428
G1 X136.334 Y92.583 E44.47501
G1 X135.771 Y93.292 E44.52199
G1 X135.148 Y93.95 E44.569
G1 X134.469 Y94.549 E44.61598
G1 X133.74 Y95.087 E44.66299
G1 X132.967 Y95.558 E44.70996
G1 X132.155 Y95.959 E44.75695
G1 X131.31 Y96.287 E44.80398
G1 X130.44 Y96.54 E44.85099
G1 X129.552 Y96.714 E44.89794
G1 X128.338 Y96.824 E44.96119
G1 X128.015 Y96.834 E44.97795
G1 X127.698 Y96.839 E44.9944
G1 X49.526 Y96.838 E49.05042
G1 X48.827 Y96.828 E49.08669
G1 X47.923 Y96.775 E49.13368
G1 X47.027 Y96.643 E49.18067
G1 X46.146 Y96.432 E49.22767
G1 X45.287 Y96.144 E49.27468
G1 X44.457 Y95.781 E49.32169
G1 X43.662 Y95.347 E49.36868
G1 X42.909 Y94.844 E49.41567
G1 X42.203 Y94.277 E49.46265
G1 X41.549 Y93.65 E49.50966
G1 X40.954 Y92.968 E49.55662
G1 X40.421 Y92.235 E49.60364
G1 X39.954 Y91.459 E49.65064
G1 X39.558 Y90.644 E49.69765
G1 X39.313 Y90.023 E49.73229
G1 X39.125 Y89.492 E49.76151
G1 X38.529 Y87.727 E49.85817
G1 X37.652 Y85.354 E49.98944
G1 X36.708 Y83.008 E50.12065
G1 X35.696 Y80.686 E50.25207
G1 X34.599 Y78.351 E50.38593
G1 X33.471 Y76.116 E50.51583
G1 X32.264 Y73.882 E50.64758
G1 X30.98 Y71.661 E50.78069
G1 X29.66 Y69.517 E50.91132
G1 X28.268 Y67.395 E51.043
G1 X26.835 Y65.341 E51.17295
G1 X25.947 Y64.155 E51.24982
G1 X25.822 Y63.972 E51.26132
G1 X25.053 Y62.928 E51.3286
G1 X24.549 Y62.175 E51.37561
G1 X24.304 Y61.751 E51.40102
G1 X24.231 Y61.617 E51.40894
G1 X24.055 Y61.279 E51.42871
G1 X23.854 Y60.875 E51.45212
G1 X23.487 Y60.047 E51.49911
G1 X23.146 Y59.02 E51.55526
G1 X23.04 Y58.623 E51.57658
G1 X22.751 Y57.464 E51.63856
G1 X22.571 Y56.577 E51.68552
G1 X22.47 Y55.677 E51.73251
G1 X22.447 Y55.135 E51.76066
G1 X22.439 Y54.599 E51.78847
G1 X22.439 Y54.274 E51.80533
G1 X22.446 Y53.857 E51.82697
G1 X22.502 Y52.953 E51.87397
G1 X22.636 Y52.057 E51.92097
G1 X22.739 Y51.592 E51.94569
G1 X22.998 Y50.533 E52.00225
G1 X23.062 Y50.285 E52.01554
G1 X23.139 Y50.001 E52.03081
G1 X23.414 Y49.138 E52.07781
G1 X23.764 Y48.303 E52.12478
G1 X23.989 Y47.855 E52.15079
G1 X24.187 Y47.484 E52.17261
G1 X24.649 Y46.705 E52.21961
G1 X25.177 Y45.969 E52.2666
G1 X25.899 Y45.146 E52.32341
G1 X26.108 Y44.932 E52.33893
G1 X26.769 Y44.313 E52.38592
G1 X27.482 Y43.754 E52.43293
G1 X28.241 Y43.261 E52.47989
G1 F1500 E51.67989
G0 F6000 X48.843 Y40.839
G0 X128.153 Y40.839
G0 X128.589 Y41.275
G0 X135.65 Y50.742
G1 F1500 E52.47989
G1 F900 X135.876 Y50.576 E52.49443
G1 X136.128 Y50.576 E52.50751
G1 X136.362 Y50.746 E52.52252
G1 X136.518 Y51.116 E52.54335
G1 X136.121 Y51.423 E52.56939
G1 X135.884 Y51.423 E52.58169
G1 X135.647 Y51.248 E52.59697
G1 X135.614 Y51.148 E52.60244
G1 X135.614 Y50.847 E52.61806
G1 X135.65 Y50.742 E52.62381
G0 F6000 X135.211 Y50.42
G1 F900 X135.706 Y50.056 E52.65569
G1 X136.297 Y50.056 E52.68636
G1 X136.796 Y50.419 E52.71838
G1 X136.828 Y50.514 E52.72358
G1 X137.016 Y50.954 E52.7484
G1 X137.192 Y51.226 E52.76521
G1 X137.192 Y51.283 E52.76817
G1 X136.971 Y51.431 E52.78197
G1 X136.806 Y51.55 E52.79253
G1 X136.299 Y51.943 E52.82581
G1 X135.712 Y51.944 E52.85627
G1 X135.206 Y51.569 E52.88895
G1 X135.094 Y51.234 E52.90727
G1 X135.094 Y50.76 E52.93187
G1 X135.211 Y50.42 E52.95052
G0 F6000 X134.574 Y50.676
G1 F900 X134.773 Y50.096 E52.98234
G1 X135.536 Y49.536 E53.03145
G1 X136.466 Y49.536 E53.0797
G1 X137.236 Y50.095 E53.12907
G1 X137.321 Y50.35 E53.14302
G1 X137.495 Y50.746 E53.16546
G1 X137.712 Y51.063 E53.18539
G1 X137.712 Y51.561 E53.21123
G1 X137.26 Y51.863 E53.23944
G1 X137.125 Y51.961 E53.24809
G1 X136.499 Y52.447 E53.28921
G1 X136.476 Y52.463 E53.29067
G1 X135.542 Y52.464 E53.33913
G1 X134.765 Y51.888 E53.38931
G1 X134.574 Y51.318 E53.4205
G1 X134.574 Y50.676 E53.45381
G0 F6000 X134.429 Y49.703
G1 F900 X135.365 Y49.016 E53.51406
G1 X136.635 Y49.016 E53.57995
G1 X137.676 Y49.772 E53.64671
