;FLAVOR:Marlin
;TIME:18537
;Filament used: 10.7136m
;Layer height: 0.2
;MINX:20.94
;MINY:33.44
;MINZ:0.2
;MAXX:154.06
;MAXY:141.56
;MAXZ:46
;Generated with Creality Slicer 4.8.2-205
M140 S50
M105
M190 S50
M104 S195
M105
M109 S195
M82 ;absolute extrusion mode
G28 ;Home

G92 E0 ;Reset Extruder
G1 Z2.0 F3000 ;Move Z Axis up
G1 X10.1 Y20 Z0.28 F5000.0 ;Move to start position
G1 X10.1 Y170.0 Z0.28 F1500.0 E12 ;Draw the first line
G1 X10.4 Y170.0 Z0.28 F5000.0 ;Move to side a little
G1 X10.4 Y20 Z0.28 F1500.0 E25 ;Draw the second line
G92 E0 ;Reset Extruder
G1 Z2.0 F3000 ;Move Z Axis up

G92 E0
G92 E0
G1 F1500 E-0.8
;LAYER_COUNT:230
;LAYER:0
M107
G0 F6000 X24.694 Y34.785 Z0.2
;TYPE:SKIRT
G1 F1500 E0
G1 F900 X25.384 Y34.375 E0.04164
G1 X26.111 Y34.036 E0.08327
G1 X26.869 Y33.77 E0.12495
G1 X27.649 Y33.581 E0.16659
G1 X28.444 Y33.471 E0.20823
G1 X29.152 Y33.44 E0.245
G1 X145.848 Y33.44 E6.29987
G1 X146.65 Y33.48 E6.34153
G1 X147.444 Y33.6 E6.3832
G1 X148.222 Y33.797 E6.42484
G1 X148.976 Y34.072 E6.46648
G1 X149.699 Y34.42 E6.50811
G1 X150.385 Y34.838 E6.54979
G1 X151.025 Y35.322 E6.59143
G1 X151.547 Y35.801 E6.62819
G1 X151.699 Y35.953 E6.63934
G1 X152.238 Y36.548 E6.681
G1 X152.715 Y37.194 E6.72266
G1 X153.125 Y37.884 E6.76431
G1 X153.464 Y38.611 E6.80593
G1 X153.73 Y39.369 E6.84761
G1 X153.919 Y40.149 E6.88925
G1 X154.029 Y40.944 E6.93089
G1 X154.06 Y41.652 E6.96766
G1 X154.06 Y75.848 E8.74195
G1 X154.04 Y76.256 E8.76314
G1 X154.06 Y76.8 E8.79139
G1 X154.06 Y81.2 E9.01969
G1 X154.038 Y81.645 E9.0428
G1 X154.06 Y82.152 E9.06913
G1 X154.06 Y107.348 E10.37645
G1 X154.04 Y107.756 E10.39764
G1 X154.06 Y108.3 E10.42589
G1 X154.06 Y113.7 E10.70607
G1 X154.038 Y114.145 E10.72919
G1 X154.06 Y114.652 E10.75552
G1 X154.06 Y133.348 E11.72558
G1 X154.02 Y134.15 E11.76724
G1 X153.9 Y134.944 E11.80891
G1 X153.703 Y135.722 E11.85055
G1 X153.428 Y136.476 E11.89219
G1 X153.08 Y137.199 E11.93382
G1 X152.662 Y137.885 E11.9755
G1 X152.178 Y138.525 E12.01714
G1 X151.699 Y139.047 E12.0539
G1 X151.547 Y139.199 E12.06505
G1 X150.952 Y139.738 E12.10671
G1 X150.306 Y140.215 E12.14837
G1 X149.616 Y140.625 E12.19002
G1 X148.889 Y140.964 E12.23164
G1 X148.131 Y141.23 E12.27332
G1 X147.351 Y141.419 E12.31496
G1 X146.556 Y141.529 E12.3566
G1 X145.848 Y141.56 E12.39337
G1 X29.152 Y141.56 E18.44824
G1 X28.35 Y141.52 E18.4899
G1 X27.556 Y141.4 E18.53157
G1 X26.778 Y141.203 E18.57321
G1 X26.024 Y140.928 E18.61485
G1 X25.301 Y140.58 E18.65649
G1 X24.615 Y140.162 E18.69817
G1 X23.975 Y139.678 E18.7398
G1 X23.453 Y139.199 E18.77656
G1 X23.301 Y139.047 E18.78771
G1 X22.762 Y138.452 E18.82937
G1 X22.285 Y137.806 E18.87103
G1 X21.875 Y137.116 E18.91268
G1 X21.536 Y136.389 E18.9543
G1 X21.27 Y135.631 E18.99598
G1 X21.081 Y134.851 E19.03762
G1 X20.971 Y134.056 E19.07926
G1 X20.94 Y133.348 E19.11603
G1 X20.94 Y41.652 E23.87376
G1 X20.98 Y40.85 E23.91542
G1 X21.1 Y40.056 E23.95708
G1 X21.297 Y39.278 E23.99873
G1 X21.572 Y38.524 E24.04037
G1 X21.92 Y37.801 E24.082
G1 X22.338 Y37.115 E24.12368
G1 X22.822 Y36.475 E24.16532
G1 X23.301 Y35.953 E24.20208
G1 X23.453 Y35.801 E24.21323
G1 X24.048 Y35.262 E24.25488
G1 X24.694 Y34.785 E24.29655
G0 F6000 X25.024 Y35.19
G1 F900 X25.695 Y34.799 E24.33684
G1 X26.402 Y34.479 E24.37711
G1 X27.139 Y34.234 E24.41741
G1 X27.896 Y34.065 E24.45765
G1 X28.668 Y33.976 E24.49797
G1 X29.152 Y33.96 E24.5231
G1 X145.848 Y33.96 E30.57797
G1 X146.623 Y34 E30.61823
G1 X147.391 Y34.119 E30.65856
G1 X148.141 Y34.317 E30.6988
G1 X148.868 Y34.591 E30.73911
G1 X149.562 Y34.938 E30.77937
G1 X150.217 Y35.355 E30.81966
G1 X150.826 Y35.837 E30.85996
G1 X151.18 Y36.168 E30.8851
G1 X151.332 Y36.32 E30.89626
G1 X151.852 Y36.897 E30.93656
G1 X152.31 Y37.524 E30.97685
G1 X152.701 Y38.195 E31.01714
G1 X153.021 Y38.902 E31.05741
G1 X153.266 Y39.639 E31.09771
G1 X153.435 Y40.396 E31.13795
G1 X153.524 Y41.168 E31.17827
G1 X153.54 Y41.652 E31.2034
G1 X153.54 Y75.848 E32.97769
G1 X153.513 Y76.375 E33.00506
G1 X153.54 Y76.8 E33.02716
G1 X153.54 Y81.2 E33.25546
G1 X153.518 Y81.619 E33.27723
G1 X153.524 Y81.668 E33.27979
G1 X153.54 Y82.152 E33.30492
G1 X153.54 Y107.348 E34.61223
G1 X153.513 Y107.875 E34.63961
G1 X153.54 Y108.3 E34.66171
G1 X153.54 Y113.7 E34.94189
G1 X153.518 Y114.119 E34.96366
G1 X153.524 Y114.168 E34.96622
G1 X153.54 Y114.652 E34.99135
G1 X153.54 Y133.348 E35.96141
G1 X153.5 Y134.123 E36.00167
G1 X153.381 Y134.891 E36.04199
G1 X153.183 Y135.641 E36.08224
G1 X152.909 Y136.368 E36.12255
G1 X152.562 Y137.062 E36.16281
G1 X152.145 Y137.717 E36.2031
G1 X151.663 Y138.326 E36.2434
G1 X151.332 Y138.68 E36.26854
G1 X151.18 Y138.832 E36.2797
G1 X150.603 Y139.352 E36.32
G1 X149.976 Y139.81 E36.36029
G1 X149.305 Y140.201 E36.40058
G1 X148.598 Y140.521 E36.44085
G1 X147.861 Y140.766 E36.48114
G1 X147.104 Y140.935 E36.52139
G1 X146.332 Y141.024 E36.56171
G1 X145.848 Y141.04 E36.58684
G1 X29.152 Y141.04 E42.6417
G1 X28.377 Y141 E42.68197
G1 X27.609 Y140.881 E42.72229
G1 X26.859 Y140.683 E42.76254
G1 X26.132 Y140.409 E42.80285
G1 X25.438 Y140.062 E42.84311
G1 X24.783 Y139.645 E42.8834
G1 X24.174 Y139.163 E42.9237
G1 X23.82 Y138.832 E42.94884
G1 X23.668 Y138.68 E42.95999
G1 X23.148 Y138.103 E43.0003
G1 X22.69 Y137.476 E43.04058
G1 X22.299 Y136.805 E43.08088
G1 X21.979 Y136.098 E43.12115
G1 X21.734 Y135.361 E43.16144
G1 X21.565 Y134.604 E43.20169
G1 X21.476 Y133.832 E43.24201
G1 X21.46 Y133.348 E43.26713
G1 X21.46 Y41.652 E48.02486
G1 X21.5 Y40.877 E48.06512
G1 X21.619 Y40.109 E48.10544
G1 X21.817 Y39.359 E48.14569
G1 X22.091 Y38.632 E48.186
G1 X22.438 Y37.938 E48.22626
G1 X22.855 Y37.283 E48.26655
G1 X23.337 Y36.674 E48.30685
G1 X23.668 Y36.32 E48.33199
G1 X23.82 Y36.168 E48.34315
G1 X24.397 Y35.648 E48.38345
G1 X25.024 Y35.19 E48.42374
G0 F6000 X25.353 Y35.597
G1 F900 X26.003 Y35.226 E48.46257
G1 X26.69 Y34.926 E48.50147
G1 X27.405 Y34.701 E48.54036
G1 X28.139 Y34.553 E48.57921
G1 X29.152 Y34.48 E48.6319
G1 X145.848 Y34.48 E54.68677
G1 X146.596 Y34.52 E54.72564
G1 X147.336 Y34.639 E54.76453
G1 X148.058 Y34.837 E54.80337
G1 X148.756 Y35.11 E54.84226
G1 X149.42 Y35.457 E54.88113
G1 X150.044 Y35.872 E54.92001
G1 X150.812 Y36.536 E54.97269
G1 X150.964 Y36.688 E54.98385
G1 X151.465 Y37.245 E55.02272
G1 X151.903 Y37.853 E55.0616
G1 X152.274 Y38.503 E55.10043
G1 X152.574 Y39.19 E55.13932
G1 X152.799 Y39.905 E55.17822
G1 X152.947 Y40.639 E55.21707
G1 X153.02 Y41.652 E55.26976
G1 X153.02 Y75.848 E57.04405
G1 X152.998 Y76.253 E57.0651
G1 X153 Y76.266 E57.06578
G1 X153.02 Y76.8 E57.0935
G1 X153.02 Y81.2 E57.3218
G1 X152.991 Y81.746 E57.35017
G1 X153.02 Y82.152 E57.37129
G1 X153.02 Y107.348 E58.67861
G1 X152.998 Y107.753 E58.69965
G1 X153 Y107.766 E58.70033
G1 X153.02 Y108.3 E58.72806
G1 X153.02 Y113.7 E59.00824
G1 X152.991 Y114.246 E59.03661
G1 X153.02 Y114.652 E59.05773
G1 X153.02 Y133.348 E60.02779
G1 X152.98 Y134.096 E60.06666
G1 X152.861 Y134.836 E60.10554
G1 X152.663 Y135.558 E60.14439
G1 X152.39 Y136.256 E60.18328
G1 X152.043 Y136.92 E60.22215
G1 X151.628 Y137.544 E60.26103
G1 X150.964 Y138.312 E60.31371
G1 X150.812 Y138.464 E60.32486
G1 X150.255 Y138.965 E60.36373
G1 X149.647 Y139.403 E60.40261
G1 X148.997 Y139.774 E60.44145
G1 X148.31 Y140.074 E60.48034
G1 X147.595 Y140.299 E60.51923
G1 X146.861 Y140.447 E60.55809
G1 X145.848 Y140.52 E60.61078
G1 X29.152 Y140.52 E66.66565
G1 X28.404 Y140.48 E66.70451
G1 X27.664 Y140.361 E66.7434
G1 X26.942 Y140.163 E66.78225
G1 X26.244 Y139.89 E66.82114
G1 X25.58 Y139.543 E66.86001
G1 X24.956 Y139.128 E66.89889
G1 X24.188 Y138.464 E66.95157
G1 X24.036 Y138.312 E66.96272
G1 X23.535 Y137.755 E67.00159
G1 X23.097 Y137.147 E67.04047
G1 X22.726 Y136.497 E67.07931
G1 X22.426 Y135.81 E67.1182
G1 X22.201 Y135.095 E67.15709
G1 X22.053 Y134.361 E67.19594
G1 X21.98 Y133.348 E67.24864
G1 X21.98 Y41.652 E72.00636
G1 X22.02 Y40.904 E72.04523
G1 X22.139 Y40.164 E72.08412
G1 X22.337 Y39.442 E72.12296
G1 X22.61 Y38.744 E72.16185
G1 X22.957 Y38.08 E72.20072
G1 X23.372 Y37.456 E72.23961
G1 X24.036 Y36.688 E72.29228
G1 X24.188 Y36.536 E72.30344
G1 X24.745 Y36.035 E72.34231
G1 X25.353 Y35.597 E72.38119
G0 F6000 X25.68 Y36.005
G1 F900 X26.31 Y35.654 E72.41861
G1 X26.975 Y35.376 E72.456
G1 X27.666 Y35.172 E72.49339
G1 X28.376 Y35.046 E72.5308
G1 X29.152 Y35 E72.57114
G1 X145.848 Y35 E78.626
G1 X146.568 Y35.04 E78.66342
G1 X147.279 Y35.159 E78.70082
G1 X147.972 Y35.357 E78.73822
G1 X148.639 Y35.63 E78.77561
G1 X149.272 Y35.975 E78.81302
G1 X149.863 Y36.388 E78.85043
G1 X150.444 Y36.904 E78.89074
G1 X150.596 Y37.056 E78.9019
G1 X151.077 Y37.593 E78.9393
G1 X151.495 Y38.18 E78.97669
G1 X151.846 Y38.81 E79.01411
G1 X152.124 Y39.475 E79.05151
G1 X152.328 Y40.166 E79.08889
G1 X152.454 Y40.876 E79.12631
G1 X152.5 Y41.652 E79.16664
G1 X152.5 Y75.848 E80.94093
G1 X152.472 Y76.361 E80.96759
G1 X152.5 Y76.8 E80.99041
G1 X152.5 Y81.2 E81.21871
G1 X152.473 Y81.691 E81.24422
G1 X152.5 Y82.152 E81.26818
G1 X152.5 Y107.348 E82.5755
G1 X152.472 Y107.861 E82.60215
G1 X152.5 Y108.3 E82.62498
G1 X152.5 Y113.7 E82.90516
G1 X152.473 Y114.191 E82.93068
G1 X152.5 Y114.652 E82.95464
G1 X152.5 Y133.348 E83.92469
G1 X152.46 Y134.068 E83.96211
G1 X152.341 Y134.779 E83.99951
G1 X152.143 Y135.472 E84.03691
G1 X151.87 Y136.139 E84.0743
G1 X151.525 Y136.772 E84.11171
G1 X151.112 Y137.363 E84.14912
G1 X150.596 Y137.944 E84.18944
G1 X150.444 Y138.096 E84.20059
G1 X149.907 Y138.577 E84.238
G1 X149.32 Y138.995 E84.27539
G1 X148.69 Y139.346 E84.3128
G1 X148.025 Y139.624 E84.3502
G1 X147.334 Y139.828 E84.38759
G1 X146.624 Y139.954 E84.425
G1 X145.848 Y140 E84.46533
G1 X29.152 Y140 E90.5202
G1 X28.432 Y139.96 E90.55762
G1 X27.721 Y139.841 E90.59502
G1 X27.028 Y139.643 E90.63242
G1 X26.361 Y139.37 E90.66981
G1 X25.728 Y139.025 E90.70722
G1 X25.137 Y138.612 E90.74463
G1 X24.556 Y138.096 E90.78494
G1 X24.404 Y137.944 E90.7961
G1 X23.923 Y137.407 E90.8335
G1 X23.505 Y136.82 E90.87089
G1 X23.154 Y136.19 E90.90831
G1 X22.876 Y135.525 E90.94571
G1 X22.672 Y134.834 E90.98309
G1 X22.546 Y134.124 E91.02051
G1 X22.5 Y133.348 E91.06084
G1 X22.5 Y41.652 E95.81856
G1 X22.54 Y40.932 E95.85598
G1 X22.659 Y40.221 E95.89338
G1 X22.857 Y39.528 E95.93078
G1 X23.13 Y38.861 E95.96817
G1 X23.475 Y38.228 E96.00558
G1 X23.888 Y37.637 E96.04299
G1 X24.404 Y37.056 E96.0833
G1 X24.556 Y36.904 E96.09446
G1 X25.093 Y36.423 E96.13186
G1 X25.68 Y36.005 E96.16925
G0 F6000 X26.006 Y36.415
G1 F900 X26.614 Y36.085 E96.20515
G1 X27.256 Y35.829 E96.24101
G1 X27.923 Y35.648 E96.27687
G1 X28.607 Y35.545 E96.31276
G1 X29.152 Y35.52 E96.34107
G1 X145.848 Y35.52 E102.39593
G1 X146.538 Y35.56 E102.43179
G1 X147.219 Y35.679 E102.46766
G1 X147.882 Y35.877 E102.50356
G1 X148.517 Y36.149 E102.53941
G1 X149.117 Y36.493 E102.57529
G1 X149.673 Y36.903 E102.61114
G1 X150.076 Y37.272 E102.63949
G1 X150.228 Y37.424 E102.65064
G1 X150.688 Y37.94 E102.68651
G1 X151.085 Y38.506 E102.72238
G1 X151.415 Y39.114 E102.75827
G1 X151.671 Y39.756 E102.79414
G1 X151.852 Y40.423 E102.82999
G1 X151.955 Y41.107 E102.86588
G1 X151.98 Y41.652 E102.89419
G1 X151.98 Y75.848 E104.66848
G1 X151.954 Y76.296 E104.69176
G1 X151.967 Y76.4 E104.6972
G1 X151.98 Y76.8 E104.71797
G1 X151.98 Y81.2 E104.94626
G1 X151.956 Y81.621 E104.96814
G1 X151.98 Y82.152 E104.99572
G1 X151.98 Y107.348 E106.30304
G1 X151.954 Y107.796 E106.32632
G1 X151.967 Y107.9 E106.33176
G1 X151.98 Y108.3 E106.35253
G1 X151.98 Y113.7 E106.63271
G1 X151.956 Y114.121 E106.65459
G1 X151.98 Y114.652 E106.68217
G1 X151.98 Y133.348 E107.65222
G1 X151.94 Y134.038 E107.68809
G1 X151.821 Y134.719 E107.72396
G1 X151.623 Y135.382 E107.75986
G1 X151.351 Y136.017 E107.7957
G1 X151.007 Y136.617 E107.83159
G1 X150.597 Y137.173 E107.86743
G1 X150.228 Y137.576 E107.89578
G1 X150.076 Y137.728 E107.90693
G1 X149.56 Y138.188 E107.9428
G1 X148.994 Y138.585 E107.97867
G1 X148.386 Y138.915 E108.01457
G1 X147.744 Y139.171 E108.05043
G1 X147.077 Y139.352 E108.08629
G1 X146.393 Y139.455 E108.12218
G1 X145.848 Y139.48 E108.15048
G1 X29.152 Y139.48 E114.20535
G1 X28.462 Y139.44 E114.24121
G1 X27.781 Y139.321 E114.27708
G1 X27.118 Y139.123 E114.31298
G1 X26.483 Y138.851 E114.34883
G1 X25.883 Y138.507 E114.38471
G1 X25.327 Y138.097 E114.42056
G1 X24.924 Y137.728 E114.44891
G1 X24.772 Y137.576 E114.46006
G1 X24.312 Y137.06 E114.49593
G1 X23.915 Y136.494 E114.5318
G1 X23.585 Y135.886 E114.56769
G1 X23.329 Y135.244 E114.60355
G1 X23.148 Y134.577 E114.63941
G1 X23.045 Y133.893 E114.6753
G1 X23.02 Y133.348 E114.70361
G1 X23.02 Y41.652 E119.46133
G1 X23.06 Y40.962 E119.49719
G1 X23.179 Y40.281 E119.53306
G1 X23.377 Y39.618 E119.56896
G1 X23.649 Y38.983 E119.60481
G1 X23.993 Y38.383 E119.64069
G1 X24.403 Y37.827 E119.67654
G1 X24.772 Y37.424 E119.70489
G1 X24.924 Y37.272 E119.71604
G1 X25.44 Y36.812 E119.75191
G1 X26.006 Y36.415 E119.78778
G0 F6000 X26.33 Y36.826
G1 F900 X26.915 Y36.519 E119.82206
G1 X27.533 Y36.286 E119.85633
G1 X28.174 Y36.128 E119.89058
G1 X29.152 Y36.04 E119.94153
G1 X145.848 Y36.04 E125.9964
G1 X146.507 Y36.08 E126.03065
G1 X147.157 Y36.199 E126.06494
G1 X147.788 Y36.396 E126.09924
G1 X148.39 Y36.668 E126.13351
G1 X148.955 Y37.01 E126.16778
G1 X149.709 Y37.639 E126.21873
G1 X149.861 Y37.791 E126.22988
G1 X150.299 Y38.286 E126.26418
G1 X150.674 Y38.83 E126.29846
G1 X150.981 Y39.415 E126.33274
G1 X151.214 Y40.033 E126.36701
G1 X151.372 Y40.674 E126.40126
G1 X151.46 Y41.652 E126.45221
G1 X151.46 Y75.848 E128.2265
G1 X151.431 Y76.318 E128.25093
G1 X151.46 Y76.8 E128.27598
G1 X151.46 Y81.2 E128.50428
G1 X151.425 Y81.769 E128.53386
G1 X151.46 Y82.152 E128.55382
G1 X151.46 Y107.348 E129.86113
G1 X151.431 Y107.818 E129.88556
G1 X151.46 Y108.3 E129.91062
G1 X151.46 Y113.7 E130.1908
G1 X151.425 Y114.269 E130.22038
G1 X151.46 Y114.652 E130.24033
G1 X151.46 Y133.348 E131.21039
G1 X151.42 Y134.007 E131.24465
G1 X151.301 Y134.657 E131.27893
G1 X151.104 Y135.288 E131.31323
G1 X150.832 Y135.89 E131.34751
G1 X150.49 Y136.455 E131.38178
G1 X149.861 Y137.209 E131.43272
G1 X149.709 Y137.361 E131.44388
G1 X149.214 Y137.799 E131.47817
G1 X148.67 Y138.174 E131.51245
G1 X148.085 Y138.481 E131.54673
G1 X147.467 Y138.714 E131.581
G1 X146.826 Y138.872 E131.61525
G1 X145.848 Y138.96 E131.6662
G1 X29.152 Y138.96 E137.72107
G1 X28.493 Y138.92 E137.75533
G1 X27.843 Y138.801 E137.78961
G1 X27.212 Y138.604 E137.82391
G1 X26.61 Y138.332 E137.85819
G1 X26.045 Y137.99 E137.89245
G1 X25.291 Y137.361 E137.9434
G1 X25.139 Y137.209 E137.95456
G1 X24.701 Y136.714 E137.98885
G1 X24.326 Y136.17 E138.02313
G1 X24.019 Y135.585 E138.05741
G1 X23.786 Y134.967 E138.09168
G1 X23.628 Y134.326 E138.12593
G1 X23.54 Y133.348 E138.17688
G1 X23.54 Y41.652 E142.9346
G1 X23.58 Y40.993 E142.96886
G1 X23.699 Y40.343 E143.00315
G1 X23.896 Y39.712 E143.03745
G1 X24.168 Y39.11 E143.07172
G1 X24.51 Y38.545 E143.10599
G1 X25.139 Y37.791 E143.15694
G1 X25.291 Y37.639 E143.16809
G1 X25.786 Y37.201 E143.20238
G1 X26.33 Y36.826 E143.23667
G0 F6000 X26.651 Y37.24
G1 F900 X27.212 Y36.957 E143.26927
G1 X27.804 Y36.747 E143.30186
G1 X28.419 Y36.615 E143.3345
G1 X29.152 Y36.56 E143.37264
G1 X145.848 Y36.56 E149.4275
G1 X146.475 Y36.6 E149.4601
G1 X147.092 Y36.719 E149.4927
G1 X147.689 Y36.916 E149.52532
G1 X148.256 Y37.187 E149.55793
G1 X148.784 Y37.527 E149.59051
G1 X149.341 Y38.007 E149.62867
G1 X149.493 Y38.159 E149.63982
G1 X149.908 Y38.631 E149.67243
G1 X150.26 Y39.151 E149.70501
G1 X150.543 Y39.712 E149.73761
G1 X150.753 Y40.304 E149.7702
G1 X150.885 Y40.919 E149.80284
G1 X150.94 Y41.652 E149.84098
G1 X150.94 Y75.848 E151.61527
G1 X150.905 Y76.394 E151.64365
G1 X150.94 Y76.8 E151.6648
G1 X150.94 Y81.2 E151.8931
