;FLAVOR:Marlin
;TIME:6050
;Filament used: 3.73582m
;Layer height: 0.2
;MINX:46.215
;MINY:44.353
;MINZ:0.2
;MAXX:128.786
;MAXY:130.385
;MAXZ:16
;Generated with Creality Slicer 4.8.2-205
M140 S50
M105
M190 S50
M104 S195
M105
M109 S195
M82 ;absolute extrusion mode
G28 ;Home

G92 E0 ;Reset Extruder
G1 Z2.0 F3000 ;Move Z Axis up
G1 X10.1 Y20 Z0.28 F5000.0 ;Move to start position
G1 X10.1 Y170.0 Z0.28 F1500.0 E12 ;Draw the first line
G1 X10.4 Y170.0 Z0.28 F5000.0 ;Move to side a little
G1 X10.4 Y20 Z0.28 F1500.0 E25 ;Draw the second line
G92 E0 ;Reset Extruder
G1 Z2.0 F3000 ;Move Z Axis up

G92 E0
G92 E0
G1 F1500 E-0.8
;LAYER_COUNT:81
;LAYER:0
M107
G0 F6000 X55.786 Y59.468 Z0.2
;TYPE:SKIRT
G1 F1500 E0
G1 F900 X61.505 Y53.75 E0.41961
G1 X61.984 Y53.284 E0.45428
G1 X62.693 Y52.65 E0.50363
G1 X63.452 Y52.078 E0.55295
G1 X64.574 Y51.398 E0.62102
G1 X65.44 Y50.94 E0.67185
G1 X72.449 Y47.369 E1.08
G1 X73.227 Y46.985 E1.12501
G1 X74.097 Y46.601 E1.17436
G1 X74.995 Y46.291 E1.22365
G1 X76.286 Y45.988 E1.29245
G1 X77.261 Y45.819 E1.34379
G1 X85.177 Y44.567 E1.75963
G1 X85.876 Y44.466 E1.79627
G1 X86.822 Y44.37 E1.84561
G1 X87.772 Y44.353 E1.89491
G1 X89.084 Y44.463 E1.96322
G1 X90.054 Y44.602 E2.01407
G1 X97.977 Y45.858 E2.43029
G1 X98.675 Y45.978 E2.46704
G1 X99.604 Y46.179 E2.51635
G1 X100.513 Y46.456 E2.56566
G1 X101.733 Y46.968 E2.63431
G1 X102.443 Y47.316 E2.67534
G1 X109.733 Y51.03 E3.09984
G1 X110.38 Y51.37 E3.13777
G1 X111.202 Y51.847 E3.18708
G1 X111.981 Y52.392 E3.23641
G1 X112.996 Y53.267 E3.30594
G1 X113.671 Y53.925 E3.35485
G1 X119.389 Y59.644 E3.77446
G1 X119.855 Y60.123 E3.80913
G1 X120.489 Y60.832 E3.85848
G1 X121.061 Y61.591 E3.90779
G1 X121.741 Y62.713 E3.97587
G1 X122.199 Y63.579 E4.0267
G1 X125.77 Y70.588 E4.43484
G1 X126.154 Y71.366 E4.47986
G1 X126.538 Y72.236 E4.5292
G1 X126.848 Y73.134 E4.57849
G1 X127.152 Y74.429 E4.64751
G1 X127.316 Y75.379 E4.69753
G1 X128.574 Y83.331 E5.11526
G1 X128.672 Y84.007 E5.1507
G1 X128.769 Y84.952 E5.19999
G1 X128.786 Y85.903 E5.24934
G1 X128.675 Y87.232 E5.31854
G1 X128.533 Y88.211 E5.36987
G1 X127.281 Y96.115 E5.78509
G1 X127.161 Y96.813 E5.82183
G1 X126.96 Y97.742 E5.87115
G1 X126.683 Y98.651 E5.92046
G1 X126.171 Y99.871 E5.98911
G1 X125.823 Y100.581 E6.03013
G1 X122.111 Y107.868 E6.45445
G1 X121.766 Y108.525 E6.49296
G1 X121.437 Y109.107 E6.52764
G1 X120.542 Y110.591 E6.61756
G1 X119.252 Y112.823 E6.75132
G1 X118.523 Y114.153 E6.83002
G1 X118.249 Y114.663 E6.86006
G1 X117.781 Y115.456 E6.90783
G1 X117.651 Y115.657 E6.92025
G1 X117.328 Y116.131 E6.95001
G1 X116.976 Y116.619 E6.98123
G1 X116.598 Y117.127 E7.01409
G1 X115.975 Y117.948 E7.06756
G1 X115.817 Y118.151 E7.08091
G1 X115.436 Y118.63 E7.11267
G1 X114.813 Y119.349 E7.16203
G1 X114.132 Y120.012 E7.21134
G1 X113.372 Y120.636 E7.26236
G1 X113.064 Y120.864 E7.28225
G1 X112.822 Y121.037 E7.29768
G1 X112.57 Y121.211 E7.31357
G1 X112.112 Y121.52 E7.34224
G1 X111.84 Y121.698 E7.3591
G1 X110.591 Y122.488 E7.43578
G1 X109.663 Y123.057 E7.49226
G1 X108.718 Y123.651 E7.55018
G1 X108.155 Y124 E7.58455
G1 X107.774 Y124.241 E7.60794
G1 X106.468 Y125.05 E7.68765
G1 X106.02 Y125.334 E7.71517
G1 X105.825 Y125.454 E7.72705
G1 X104.053 Y126.587 E7.83618
G1 X103.231 Y127.065 E7.88552
G1 X102.372 Y127.472 E7.93484
G1 X101.482 Y127.806 E7.98416
G1 X100.464 Y128.087 E8.03896
G1 X99.749 Y128.249 E8.07699
G1 X99.385 Y128.325 E8.09629
G1 X97.613 Y128.665 E8.18991
G1 X96.707 Y128.833 E8.23772
G1 X95.494 Y129.074 E8.30188
G1 X93.636 Y129.416 E8.39991
G1 X92.283 Y129.684 E8.47147
G1 X90.63 Y129.988 E8.55868
G1 X89.689 Y130.174 E8.60845
G1 X88.749 Y130.319 E8.6578
G1 X87.801 Y130.385 E8.7071
G1 X86.851 Y130.371 E8.7564
G1 X85.598 Y130.228 E8.82184
G1 X85.193 Y130.155 E8.84319
G1 X84.632 Y130.043 E8.87287
G1 X83.756 Y129.882 E8.91908
G1 X81.306 Y129.403 E9.04861
G1 X79.8 Y129.131 E9.12801
G1 X78.092 Y128.794 E9.21834
G1 X76.543 Y128.51 E9.30006
G1 X75.393 Y128.283 E9.36088
G1 X75.08 Y128.217 E9.37747
G1 X74.56 Y128.099 E9.40514
G1 X73.643 Y127.85 E9.45444
G1 X72.75 Y127.524 E9.50377
G1 X71.887 Y127.125 E9.5531
G1 X71.048 Y126.646 E9.60323
G1 X69.784 Y125.852 E9.68067
G1 X68.447 Y124.997 E9.76302
G1 X68.067 Y124.765 E9.78612
G1 X66.574 Y123.825 E9.87766
G1 X65.938 Y123.429 E9.91653
G1 X64.886 Y122.779 E9.9807
G1 X64.654 Y122.632 E9.99495
G1 X64.281 Y122.403 E10.01766
G1 X63.202 Y121.722 E10.08386
G1 X62.93 Y121.545 E10.1007
G1 X62.494 Y121.252 E10.12795
G1 X62.229 Y121.068 E10.14469
G1 X61.837 Y120.788 E10.16969
G1 X61.087 Y120.204 E10.21901
G1 X60.39 Y119.558 E10.26831
G1 X59.536 Y118.595 E10.3351
G1 X58.962 Y117.868 E10.38316
G1 X58.827 Y117.693 E10.39463
G1 X58.344 Y117.056 E10.43611
G1 X58.168 Y116.818 E10.45146
G1 X57.545 Y115.95 E10.5069
G1 X56.822 Y114.804 E10.57721
G1 X56.197 Y113.665 E10.64462
G1 X55.929 Y113.162 E10.67419
G1 X54.011 Y109.844 E10.87304
G1 X53.596 Y109.16 E10.91455
G1 X53.277 Y108.598 E10.94808
G1 X52.8 Y107.697 E11.00098
G1 X49.161 Y100.55 E11.41711
G1 X48.843 Y99.904 E11.45447
G1 X48.459 Y99.034 E11.50381
G1 X48.15 Y98.135 E11.55313
G1 X47.849 Y96.854 E11.62141
G1 X47.68 Y95.877 E11.67285
G1 X46.427 Y87.956 E12.08895
G1 X46.326 Y87.255 E12.1257
G1 X46.231 Y86.31 E12.17498
G1 X46.215 Y85.359 E12.22433
G1 X46.324 Y84.052 E12.29238
G1 X46.458 Y83.117 E12.34139
G1 X47.721 Y75.149 E12.75997
G1 X47.841 Y74.455 E12.79652
G1 X48.042 Y73.526 E12.84583
G1 X48.321 Y72.617 E12.89517
G1 X48.833 Y71.4 E12.96368
G1 X49.288 Y70.475 E13.01716
G1 X52.891 Y63.406 E13.42884
G1 X53.231 Y62.759 E13.46676
G1 X53.708 Y61.937 E13.51607
G1 X54.253 Y61.158 E13.5654
G1 X55.128 Y60.143 E13.63493
G1 X55.786 Y59.468 E13.68384
G0 F6000 X56.153 Y59.835
G1 F900 X61.868 Y54.122 E14.10312
G1 X62.347 Y53.656 E14.1378
G1 X63.04 Y53.038 E14.18597
G1 X63.783 Y52.482 E14.23412
G1 X64.818 Y51.857 E14.29686
G1 X65.676 Y51.404 E14.3472
G1 X72.812 Y47.769 E14.76273
G1 X73.457 Y47.451 E14.80004
G1 X74.307 Y47.077 E14.84822
G1 X75.185 Y46.777 E14.89636
G1 X76.375 Y46.5 E14.95976
G1 X77.343 Y46.333 E15.01073
G1 X85.251 Y45.082 E15.42614
G1 X85.95 Y44.981 E15.46279
G1 X86.874 Y44.888 E15.51097
G1 X87.802 Y44.874 E15.55913
G1 X89.011 Y44.978 E15.62209
G1 X89.973 Y45.116 E15.67251
G1 X97.888 Y46.371 E16.08832
G1 X98.586 Y46.491 E16.12507
G1 X99.494 Y46.687 E16.17326
G1 X100.381 Y46.961 E16.22143
G1 X101.504 Y47.435 E16.28468
G1 X102.364 Y47.858 E16.33441
G1 X109.491 Y51.49 E16.74945
G1 X110.138 Y51.83 E16.78737
G1 X110.94 Y52.297 E16.83552
G1 X111.7 Y52.831 E16.88372
G1 X112.634 Y53.64 E16.94783
G1 X113.304 Y54.292 E16.99634
G1 X119.017 Y60.007 E17.41562
G1 X119.483 Y60.486 E17.45029
G1 X120.101 Y61.179 E17.49847
G1 X120.657 Y61.922 E17.54662
G1 X121.282 Y62.957 E17.60935
G1 X121.735 Y63.815 E17.65969
G1 X125.37 Y70.951 E18.07522
G1 X125.688 Y71.596 E18.11253
G1 X126.062 Y72.446 E18.16072
G1 X126.362 Y73.324 E18.20886
G1 X126.64 Y74.518 E18.27247
G1 X126.802 Y75.46 E18.32206
G1 X128.059 Y83.405 E18.73942
G1 X128.157 Y84.081 E18.77486
G1 X128.251 Y85.005 E18.82305
G1 X128.265 Y85.933 E18.87121
G1 X128.16 Y87.158 E18.935
G1 X128.019 Y88.13 E18.98596
G1 X126.768 Y96.026 E19.40076
G1 X126.648 Y96.724 E19.43751
G1 X126.452 Y97.632 E19.48571
G1 X126.178 Y98.519 E19.53387
G1 X125.704 Y99.642 E19.59712
G1 X125.281 Y100.502 E19.64685
G1 X121.65 Y107.626 E20.06172
G1 X121.305 Y108.283 E20.10023
G1 X120.992 Y108.839 E20.13333
G1 X120.114 Y110.293 E20.22146
G1 X118.792 Y112.58 E20.35852
G1 X118.067 Y113.903 E20.4368
G1 X117.791 Y114.417 E20.46707
G1 X117.345 Y115.173 E20.51261
G1 X117.215 Y115.374 E20.52504
G1 X116.906 Y115.826 E20.55344
G1 X116.449 Y116.457 E20.59387
G1 X116.183 Y116.812 E20.61689
G1 X115.41 Y117.828 E20.68312
G1 X115.029 Y118.307 E20.71488
G1 X114.42 Y119.008 E20.76306
G1 X113.753 Y119.654 E20.81124
G1 X113.06 Y120.22 E20.85767
G1 X112.761 Y120.441 E20.87696
G1 X112.519 Y120.614 E20.89239
G1 X112.279 Y120.78 E20.90753
G1 X111.821 Y121.089 E20.9362
G1 X111.561 Y121.259 E20.95232
G1 X110.319 Y122.045 E21.02858
G1 X109.381 Y122.62 E21.08567
G1 X108.444 Y123.209 E21.14309
G1 X107.876 Y123.561 E21.17776
G1 X107.5 Y123.799 E21.20085
G1 X106.203 Y124.603 E21.28003
G1 X105.748 Y124.891 E21.30797
G1 X105.533 Y125.023 E21.32106
G1 X103.773 Y126.149 E21.42947
G1 X102.969 Y126.615 E21.47768
G1 X102.129 Y127.01 E21.52585
G1 X101.258 Y127.331 E21.57401
G1 X100.349 Y127.58 E21.62291
G1 X99.634 Y127.742 E21.66095
G1 X99.287 Y127.814 E21.67934
G1 X97.518 Y128.154 E21.7728
G1 X96.598 Y128.325 E21.82136
G1 X95.4 Y128.562 E21.88472
G1 X93.586 Y128.896 E21.98042
G1 X92.189 Y129.172 E22.05431
G1 X90.581 Y129.468 E22.13914
G1 X89.588 Y129.664 E22.19166
G1 X88.67 Y129.805 E22.23985
G1 X87.744 Y129.866 E22.288
G1 X86.816 Y129.847 E22.33616
G1 X85.686 Y129.716 E22.39518
G1 X85.295 Y129.645 E22.4158
G1 X84.771 Y129.54 E22.44353
G1 X83.856 Y129.372 E22.4918
G1 X81.37 Y128.886 E22.62323
G1 X80.079 Y128.654 E22.69129
G1 X78.282 Y128.301 E22.78631
G1 X76.643 Y128 E22.87277
G1 X75.493 Y127.773 E22.93359
G1 X75.195 Y127.71 E22.94939
G1 X74.675 Y127.592 E22.97706
G1 X73.78 Y127.347 E23.02521
G1 X72.908 Y127.027 E23.0734
G1 X72.068 Y126.633 E23.12154
G1 X71.325 Y126.206 E23.16601
G1 X70.065 Y125.414 E23.24323
G1 X68.762 Y124.58 E23.3235
G1 X68.344 Y124.324 E23.34893
G1 X66.851 Y123.384 E23.44047
G1 X65.163 Y122.339 E23.54348
G1 X64.86 Y122.148 E23.56206
G1 X64.558 Y121.963 E23.58044
G1 X63.479 Y121.282 E23.64664
G1 X63.22 Y121.113 E23.66269
G1 X62.784 Y120.82 E23.68994
G1 X62.531 Y120.645 E23.7059
G1 X62.139 Y120.365 E23.7309
G1 X61.408 Y119.793 E23.77906
G1 X60.728 Y119.161 E23.82723
G1 X59.944 Y118.273 E23.88869
G1 X59.37 Y117.546 E23.93675
G1 X59.241 Y117.379 E23.9477
G1 X58.758 Y116.742 E23.98918
G1 X58.59 Y116.515 E24.00383
G1 X57.967 Y115.647 E24.05927
G1 X57.278 Y114.553 E24.12635
G1 X56.656 Y113.42 E24.19341
G1 X56.38 Y112.902 E24.22387
G1 X54.494 Y109.639 E24.41941
G1 X54.04 Y108.891 E24.46481
G1 X53.736 Y108.354 E24.49683
G1 X53.263 Y107.461 E24.54926
G1 X49.627 Y100.32 E24.96505
G1 X49.309 Y99.674 E25.0024
G1 X48.936 Y98.824 E25.05057
G1 X48.636 Y97.945 E25.09876
G1 X48.361 Y96.765 E25.16162
G1 X48.221 Y95.962 E25.20392
G1 X46.942 Y87.882 E25.62837
G1 X46.841 Y87.181 E25.66512
G1 X46.748 Y86.258 E25.71325
G1 X46.736 Y85.329 E25.76146
G1 X46.839 Y84.125 E25.82416
G1 X46.972 Y83.199 E25.8727
G1 X48.234 Y75.237 E26.29097
G1 X48.354 Y74.543 E26.32751
G1 X48.551 Y73.636 E26.37567
G1 X48.826 Y72.749 E26.42386
G1 X49.299 Y71.629 E26.48694
G1 X49.751 Y70.712 E26.53998
G1 X53.351 Y63.648 E26.95136
G1 X53.691 Y63.001 E26.98928
G1 X54.158 Y62.199 E27.03743
G1 X54.692 Y61.439 E27.08563
G1 X55.501 Y60.505 E27.14974
G1 X56.153 Y59.835 E27.19825
G0 F6000 X56.521 Y60.203
G1 F900 X62.231 Y54.495 E27.61716
G1 X62.71 Y54.029 E27.65183
G1 X63.386 Y53.427 E27.6988
G1 X64.113 Y52.886 E27.74582
G1 X65.061 Y52.317 E27.80319
G1 X65.912 Y51.867 E27.85313
G1 X72.921 Y48.296 E28.26128
G1 X73.687 Y47.918 E28.3056
G1 X74.516 Y47.553 E28.3526
G1 X75.374 Y47.264 E28.39958
G1 X76.464 Y47.012 E28.45762
G1 X77.424 Y46.846 E28.50817
G1 X85.326 Y45.596 E28.92327
G1 X86.025 Y45.495 E28.95992
G1 X86.926 Y45.406 E29.00689
G1 X87.832 Y45.396 E29.05391
G1 X88.938 Y45.492 E29.11151
G1 X89.892 Y45.629 E29.16151
G1 X97.8 Y46.883 E29.57695
G1 X98.498 Y47.003 E29.6137
G1 X99.383 Y47.196 E29.6607
G1 X100.248 Y47.466 E29.70772
G1 X101.276 Y47.902 E29.76565
G1 X102.128 Y48.321 E29.81492
G1 X109.249 Y51.951 E30.22963
G1 X109.896 Y52.291 E30.26756
G1 X110.678 Y52.747 E30.31452
G1 X111.417 Y53.271 E30.36153
G1 X112.272 Y54.013 E30.42027
G1 X112.936 Y54.66 E30.46837
G1 X118.644 Y60.37 E30.88728
G1 X119.11 Y60.849 E30.92196
G1 X119.712 Y61.525 E30.96892
G1 X120.253 Y62.252 E31.01594
G1 X120.822 Y63.2 E31.07331
G1 X121.272 Y64.051 E31.12326
G1 X124.843 Y71.06 E31.53141
G1 X125.221 Y71.826 E31.57573
G1 X125.586 Y72.655 E31.62273
G1 X125.875 Y73.513 E31.6697
G1 X126.128 Y74.607 E31.72796
G1 X126.289 Y75.541 E31.77714
G1 X127.545 Y83.48 E32.19418
G1 X127.643 Y84.156 E32.22962
G1 X127.733 Y85.057 E32.27661
G1 X127.744 Y85.963 E32.32362
G1 X127.645 Y87.084 E32.38201
G1 X127.506 Y88.048 E32.43254
G1 X126.256 Y95.938 E32.84703
G1 X126.136 Y96.636 E32.88378
G1 X125.943 Y97.521 E32.93077
G1 X125.673 Y98.386 E32.97779
G1 X125.237 Y99.414 E33.03573
G1 X124.818 Y100.266 E33.08499
G1 X121.19 Y107.384 E33.49952
G1 X120.845 Y108.041 E33.53802
G1 X120.547 Y108.57 E33.56953
G1 X119.664 Y110.031 E33.6581
G1 X118.35 Y112.304 E33.79433
G1 X117.654 Y113.574 E33.86947
G1 X117.333 Y114.172 E33.90468
G1 X116.908 Y114.891 E33.94802
G1 X116.778 Y115.092 E33.96044
G1 X116.484 Y115.522 E33.98747
G1 X116.033 Y116.146 E34.02742
G1 X115.769 Y116.498 E34.05024
G1 X115.146 Y117.319 E34.10372
G1 X115.003 Y117.504 E34.11585
G1 X114.622 Y117.983 E34.14761
G1 X114.027 Y118.666 E34.19461
G1 X113.375 Y119.294 E34.24158
G1 X112.748 Y119.804 E34.28351
G1 X112.459 Y120.018 E34.30217
G1 X112.217 Y120.191 E34.31761
G1 X111.988 Y120.349 E34.33204
G1 X111.53 Y120.658 E34.36071
G1 X111.283 Y120.82 E34.37603
G1 X110.048 Y121.601 E34.45185
G1 X109.124 Y122.167 E34.50807
G1 X108.17 Y122.768 E34.56658
G1 X107.504 Y123.181 E34.60724
G1 X107.226 Y123.357 E34.62431
G1 X105.937 Y124.155 E34.70297
G1 X105.476 Y124.448 E34.73131
G1 X105.257 Y124.583 E34.74466
G1 X103.492 Y125.711 E34.85334
G1 X102.708 Y126.165 E34.90035
G1 X101.888 Y126.547 E34.94729
G1 X101.036 Y126.856 E34.99431
G1 X100.234 Y127.072 E35.03741
G1 X99.519 Y127.234 E35.07544
G1 X99.189 Y127.304 E35.09295
G1 X97.423 Y127.643 E35.18625
G1 X96.474 Y127.819 E35.23633
G1 X95.306 Y128.051 E35.29812
G1 X93.464 Y128.391 E35.3953
G1 X92.095 Y128.661 E35.4677
G1 X90.459 Y128.962 E35.55401
G1 X89.487 Y129.154 E35.60542
G1 X88.592 Y129.29 E35.65239
G1 X87.688 Y129.347 E35.69939
G1 X86.782 Y129.324 E35.74641
G1 X85.773 Y129.203 E35.79914
G1 X85.397 Y129.135 E35.81897
G1 X84.853 Y129.026 E35.84775
G1 X83.956 Y128.861 E35.89508
G1 X81.495 Y128.38 E36.02518
G1 X80.001 Y128.11 E36.10396
G1 X78.332 Y127.781 E36.19222
G1 X76.744 Y127.49 E36.27599
G1 X75.594 Y127.263 E36.33681
G1 X75.31 Y127.203 E36.35187
G1 X74.79 Y127.085 E36.37954
G1 X73.917 Y126.845 E36.42651
G1 X73.068 Y126.53 E36.4735
G1 X72.25 Y126.141 E36.52049
G1 X71.602 Y125.766 E36.55934
G1 X70.345 Y124.976 E36.63637
G1 X69.009 Y124.121 E36.71867
G1 X68.621 Y123.884 E36.74226
G1 X67.175 Y122.974 E36.83091
G1 X66.487 Y122.545 E36.87298
G1 X65.441 Y121.899 E36.93677
G1 X65.229 Y121.765 E36.94978
G1 X64.836 Y121.523 E36.97373
G1 X63.757 Y120.842 E37.03993
G1 X63.51 Y120.682 E37.0552
G1 X63.074 Y120.389 E37.08246
G1 X62.833 Y120.222 E37.09767
G1 X62.441 Y119.942 E37.12266
G1 X61.728 Y119.383 E37.16967
G1 X61.067 Y118.764 E37.21666
G1 X60.352 Y117.951 E37.27283
G1 X59.778 Y117.224 E37.3209
G1 X59.655 Y117.065 E37.33133
G1 X59.172 Y116.428 E37.3728
G1 X59.013 Y116.212 E37.38672
G1 X58.39 Y115.344 E37.44216
G1 X57.734 Y114.303 E37.506
G1 X57.115 Y113.176 E37.57272
G1 X56.83 Y112.64 E37.60421
G1 X54.934 Y109.362 E37.8007
G1 X54.485 Y108.621 E37.84565
G1 X54.195 Y108.111 E37.87609
G1 X53.806 Y107.378 E37.91915
G1 X50.157 Y100.216 E38.33621
G1 X49.776 Y99.444 E38.38087
G1 X49.412 Y98.615 E38.42785
G1 X49.123 Y97.756 E38.47488
G1 X48.873 Y96.675 E38.53244
G1 X48.707 Y95.714 E38.58305
G1 X47.457 Y87.808 E38.99835
G1 X47.356 Y87.107 E39.0351
G1 X47.266 Y86.206 E39.08208
G1 X47.257 Y85.3 E39.12909
G1 X47.353 Y84.199 E39.18643
G1 X47.485 Y83.28 E39.23461
G1 X48.746 Y75.326 E39.65246
G1 X48.866 Y74.632 E39.689
G1 X49.06 Y73.747 E39.73601
G1 X49.33 Y72.883 E39.78298
G1 X49.766 Y71.858 E39.84077
G1 X50.214 Y70.948 E39.8934
G1 X53.812 Y63.89 E40.30445
