;FLAVOR:Marlin
;TIME:18161
;Filament used: 10.4179m
;Layer height: 0.2
;MINX:17.7
;MINY:30.2
;MINZ:0.2
;MAXX:157.3
;MAXY:144.8
;MAXZ:46
;Generated with Creality Slicer 4.8.2-205
M140 S50
M105
M190 S50
M104 S195
M105
M109 S195
M82 ;absolute extrusion mode
G28 ;Home

G92 E0 ;Reset Extruder
G1 Z2.0 F3000 ;Move Z Axis up
G1 X10.1 Y20 Z0.28 F5000.0 ;Move to start position
G1 X10.1 Y170.0 Z0.28 F1500.0 E12 ;Draw the first line
G1 X10.4 Y170.0 Z0.28 F5000.0 ;Move to side a little
G1 X10.4 Y20 Z0.28 F1500.0 E25 ;Draw the second line
G92 E0 ;Reset Extruder
G1 Z2.0 F3000 ;Move Z Axis up

G92 E0
G92 E0
G1 F1500 E-0.8
;LAYER_COUNT:230
;LAYER:0
M107
G0 F6000 X22.337 Y32.389 Z0.2
;TYPE:SKIRT
G1 F1500 E0
G1 F900 X23.127 Y31.861 E0.0493
G1 X23.958 Y31.4 E0.09861
G1 X24.826 Y31.012 E0.14794
G1 X25.723 Y30.697 E0.19727
G1 X26.643 Y30.459 E0.24658
G1 X27.58 Y30.3 E0.29589
G1 X28.692 Y30.213 E0.35376
G1 X29.013 Y30.204 E0.37042
G1 X29.33 Y30.2 E0.38687
G1 X145.293 Y30.2 E6.40371
G1 X146.153 Y30.211 E6.44833
G1 X147.102 Y30.265 E6.49765
G1 X148.043 Y30.398 E6.54696
G1 X148.97 Y30.61 E6.5963
G1 X149.875 Y30.899 E6.64559
G1 X150.754 Y31.263 E6.69496
G1 X151.598 Y31.699 E6.74425
G1 X152.403 Y32.205 E6.79358
G1 X153.162 Y32.777 E6.84289
G1 X153.871 Y33.411 E6.89224
G1 X154.524 Y34.102 E6.94157
G1 X155.116 Y34.845 E6.99086
G1 X155.644 Y35.635 E7.04017
G1 X156.104 Y36.467 E7.08949
G1 X156.492 Y37.335 E7.13883
G1 X156.805 Y38.233 E7.18817
G1 X157.042 Y39.153 E7.23746
G1 X157.201 Y40.09 E7.28677
G1 X157.287 Y41.192 E7.34413
G1 X157.296 Y41.512 E7.36074
G1 X157.3 Y41.83 E7.37724
G1 X157.3 Y81.211 E9.42055
G1 X157.299 Y132.919 E12.10346
G1 X157.289 Y133.646 E12.14119
G1 X157.236 Y134.596 E12.19056
G1 X157.103 Y135.537 E12.23987
G1 X156.892 Y136.464 E12.28919
G1 X156.604 Y137.369 E12.33847
G1 X156.24 Y138.248 E12.38783
G1 X155.804 Y139.092 E12.43712
G1 X155.299 Y139.897 E12.48643
G1 X154.727 Y140.657 E12.53578
G1 X154.094 Y141.366 E12.5851
G1 X153.403 Y142.019 E12.63443
G1 X152.66 Y142.612 E12.68375
G1 X151.87 Y143.141 E12.73308
G1 X151.038 Y143.601 E12.78241
G1 X150.171 Y143.989 E12.8317
G1 X149.274 Y144.303 E12.88101
G1 X148.353 Y144.541 E12.93036
G1 X147.416 Y144.701 E12.97968
G1 X146.308 Y144.787 E13.03735
G1 X145.988 Y144.796 E13.05396
G1 X145.67 Y144.8 E13.07046
G1 X29.561 Y144.799 E19.09487
G1 X28.863 Y144.79 E19.13109
G1 X27.914 Y144.738 E19.1804
G1 X26.973 Y144.606 E19.2297
G1 X26.046 Y144.396 E19.27902
G1 X25.14 Y144.108 E19.32835
G1 X24.261 Y143.745 E19.37769
G1 X23.416 Y143.31 E19.427
G1 X22.611 Y142.805 E19.47631
G1 X21.85 Y142.234 E19.52567
G1 X21.141 Y141.602 E19.57495
G1 X20.487 Y140.912 E19.62428
G1 X19.894 Y140.169 E19.6736
G1 X19.365 Y139.379 E19.72294
G1 X18.904 Y138.548 E19.77224
G1 X18.514 Y137.681 E19.82157
G1 X18.199 Y136.784 E19.8709
G1 X17.961 Y135.864 E19.9202
G1 X17.801 Y134.927 E19.96952
G1 X17.713 Y133.796 E20.02838
G1 X17.704 Y133.463 E20.04567
G1 X17.7 Y133.158 E20.0615
G1 X17.701 Y42.021 E24.79021
G1 X17.71 Y41.356 E24.82472
G1 X17.763 Y40.407 E24.87404
G1 X17.895 Y39.466 E24.92334
G1 X18.106 Y38.539 E24.97267
G1 X18.395 Y37.633 E25.02201
G1 X18.758 Y36.755 E25.07131
G1 X19.194 Y35.91 E25.12064
G1 X19.699 Y35.105 E25.16995
G1 X20.27 Y34.345 E25.21927
G1 X20.903 Y33.636 E25.26859
G1 X21.594 Y32.982 E25.31795
G1 X22.337 Y32.389 E25.36727
G0 F6000 X22.837 Y32.671
G1 F900 X23.621 Y32.172 E25.41549
G1 X24.444 Y31.743 E25.46365
G1 X25.301 Y31.387 E25.5118
G1 X26.186 Y31.105 E25.55999
G1 X27.092 Y30.901 E25.60818
G1 X28.011 Y30.775 E25.65631
G1 X28.707 Y30.733 E25.69249
G1 X29.028 Y30.724 E25.70915
G1 X29.33 Y30.72 E25.72482
G1 X145.293 Y30.72 E31.74165
G1 X146.145 Y30.731 E31.78586
G1 X147.072 Y30.784 E31.83404
G1 X147.991 Y30.917 E31.88222
G1 X148.895 Y31.129 E31.9304
G1 X149.778 Y31.417 E31.97859
G1 X150.632 Y31.78 E32.02673
G1 X151.452 Y32.216 E32.07492
G1 X152.232 Y32.72 E32.12311
G1 X152.965 Y33.29 E32.17128
G1 X153.646 Y33.92 E32.21942
G1 X154.271 Y34.607 E32.26761
G1 X154.834 Y35.345 E32.31577
G1 X155.332 Y36.129 E32.36396
G1 X155.76 Y36.953 E32.41214
G1 X156.116 Y37.81 E32.46029
G1 X156.397 Y38.695 E32.50847
G1 X156.601 Y39.601 E32.55665
G1 X156.726 Y40.521 E32.60483
G1 X156.767 Y41.207 E32.64048
G1 X156.776 Y41.527 E32.65709
G1 X156.78 Y41.83 E32.67282
G1 X156.78 Y81.21 E34.71608
G1 X156.779 Y132.912 E37.39868
G1 X156.769 Y133.639 E37.4364
G1 X156.716 Y134.566 E37.48458
G1 X156.584 Y135.485 E37.53275
G1 X156.373 Y136.389 E37.58092
G1 X156.085 Y137.272 E37.62911
G1 X155.722 Y138.127 E37.6773
G1 X155.287 Y138.947 E37.72547
G1 X154.783 Y139.727 E37.77365
G1 X154.214 Y140.46 E37.8218
G1 X153.584 Y141.142 E37.86997
G1 X152.898 Y141.767 E37.91812
G1 X152.16 Y142.331 E37.96632
G1 X151.376 Y142.829 E38.01451
G1 X150.553 Y143.258 E38.06266
G1 X149.696 Y143.614 E38.11081
G1 X148.811 Y143.895 E38.15899
G1 X147.905 Y144.1 E38.20719
G1 X146.985 Y144.225 E38.25536
G1 X146.293 Y144.267 E38.29133
G1 X145.973 Y144.276 E38.30794
G1 X145.67 Y144.28 E38.32366
G1 X29.568 Y144.279 E44.34771
G1 X28.87 Y144.27 E44.38393
G1 X27.943 Y144.218 E44.4321
G1 X27.024 Y144.087 E44.48027
G1 X26.12 Y143.877 E44.52842
G1 X25.237 Y143.589 E44.57661
G1 X24.382 Y143.227 E44.62479
G1 X23.561 Y142.793 E44.67297
G1 X22.781 Y142.29 E44.72113
G1 X22.047 Y141.721 E44.76932
G1 X21.365 Y141.092 E44.81745
G1 X20.739 Y140.406 E44.86564
G1 X20.175 Y139.668 E44.91383
G1 X19.676 Y138.885 E44.96201
G1 X19.246 Y138.062 E45.01019
G1 X18.889 Y137.205 E45.05836
G1 X18.607 Y136.321 E45.1065
G1 X18.402 Y135.415 E45.1547
G1 X18.276 Y134.495 E45.20288
G1 X18.233 Y133.782 E45.23994
G1 X18.224 Y133.449 E45.25723
G1 X18.22 Y133.158 E45.27233
G1 X18.221 Y42.028 E50.00068
G1 X18.23 Y41.363 E50.03519
G1 X18.283 Y40.436 E50.08336
G1 X18.415 Y39.517 E50.13154
G1 X18.625 Y38.613 E50.17969
G1 X18.913 Y37.73 E50.22788
G1 X19.276 Y36.876 E50.27603
G1 X19.71 Y36.055 E50.32421
G1 X20.214 Y35.275 E50.3724
G1 X20.783 Y34.542 E50.42054
G1 X21.413 Y33.86 E50.46872
G1 X22.1 Y33.234 E50.51694
G1 X22.837 Y32.671 E50.56506
G0 F6000 X22.604 Y33.494
G1 F900 X23.336 Y32.96 E50.61207
G1 X24.112 Y32.493 E50.65907
G1 X24.926 Y32.096 E50.70606
G1 X25.772 Y31.773 E50.75304
G1 X26.644 Y31.525 E50.80008
G1 X27.533 Y31.356 E50.84703
G1 X28.721 Y31.253 E50.90891
G1 X29.042 Y31.244 E50.92557
G1 X29.33 Y31.24 E50.94051
G1 X145.293 Y31.24 E56.95735
G1 X146.138 Y31.251 E57.00119
G1 X147.042 Y31.304 E57.04818
G1 X147.938 Y31.436 E57.09517
G1 X148.819 Y31.647 E57.14217
G1 X149.678 Y31.935 E57.18918
G1 X150.508 Y32.298 E57.23619
G1 X151.303 Y32.732 E57.28318
G1 X152.056 Y33.235 E57.33017
G1 X152.762 Y33.802 E57.37715
G1 X153.416 Y34.429 E57.42416
G1 X154.011 Y35.112 E57.47116
G1 X154.545 Y35.844 E57.51817
G1 X155.011 Y36.62 E57.56514
G1 X155.407 Y37.435 E57.61215
G1 X155.73 Y38.281 E57.65914
G1 X155.977 Y39.153 E57.70616
G1 X156.146 Y40.043 E57.75316
G1 X156.247 Y41.222 E57.81456
G1 X156.256 Y41.542 E57.83117
G1 X156.26 Y41.83 E57.84612
G1 X156.26 Y81.21 E59.88938
G1 X156.259 Y132.905 E62.57162
G1 X156.249 Y133.632 E62.60934
G1 X156.197 Y134.536 E62.65632
G1 X156.065 Y135.432 E62.70331
G1 X155.854 Y136.313 E62.75032
G1 X155.567 Y137.172 E62.79731
G1 X155.205 Y138.003 E62.84434
G1 X154.771 Y138.798 E62.89134
G1 X154.269 Y139.552 E62.93834
G1 X153.702 Y140.258 E62.98532
G1 X153.075 Y140.912 E63.03233
G1 X152.393 Y141.508 E63.07932
G1 X151.661 Y142.041 E63.1263
G1 X150.885 Y142.508 E63.1733
G1 X150.071 Y142.905 E63.22029
G1 X149.224 Y143.228 E63.26732
G1 X148.353 Y143.475 E63.3143
G1 X147.463 Y143.645 E63.36131
G1 X146.278 Y143.747 E63.42302
G1 X145.958 Y143.756 E63.43963
G1 X145.67 Y143.76 E63.45458
G1 X29.575 Y143.759 E69.47826
G1 X28.877 Y143.75 E69.51448
G1 X27.972 Y143.699 E69.56151
G1 X27.076 Y143.567 E69.6085
G1 X26.195 Y143.358 E69.65548
G1 X25.336 Y143.071 E69.70247
G1 X24.505 Y142.71 E69.74948
G1 X23.71 Y142.277 E69.79645
G1 X22.956 Y141.775 E69.84345
G1 X22.249 Y141.209 E69.89044
G1 X21.594 Y140.582 E69.93749
G1 X20.998 Y139.901 E69.98444
G1 X20.464 Y139.169 E70.03146
G1 X19.996 Y138.394 E70.07843
G1 X19.599 Y137.58 E70.12542
G1 X19.275 Y136.734 E70.17243
G1 X19.027 Y135.863 E70.21942
G1 X18.857 Y134.973 E70.26643
G1 X18.753 Y133.768 E70.32918
G1 X18.744 Y133.435 E70.34647
G1 X18.74 Y133.158 E70.36084
G1 X18.741 Y42.035 E75.08883
G1 X18.75 Y41.37 E75.12334
G1 X18.802 Y40.466 E75.17032
G1 X18.934 Y39.57 E75.21731
G1 X19.144 Y38.689 E75.26431
G1 X19.431 Y37.83 E75.3113
G1 X19.793 Y36.999 E75.35833
G1 X20.227 Y36.204 E75.40532
G1 X20.729 Y35.45 E75.45232
G1 X21.296 Y34.744 E75.4993
G1 X21.922 Y34.09 E75.54628
G1 X22.604 Y33.494 E75.59327
G1 F1500 E74.79327
G0 F6000 X146.122 Y40.839
G0 X146.661 Y41.378
G0 X146.661 Y76.122
G0 X144.12 Y78.62
G1 F1500 E75.59327
G1 F900 X144.18 Y78.62 E75.59639
G1 X144.18 Y79.38 E75.63582
G1 X144.12 Y79.38 E75.63893
G1 X144.12 Y78.62 E75.67836
G0 F6000 X143.6 Y78.1
G1 F900 X144.7 Y78.1 E75.73544
G1 X144.7 Y79.9 E75.82883
G1 X143.6 Y79.9 E75.88591
G1 X143.6 Y78.1 E75.9793
G0 F6000 X143.08 Y77.58
G1 F900 X145.22 Y77.58 E76.09034
G1 X145.22 Y80.42 E76.23769
G1 X143.08 Y80.42 E76.34873
G1 X143.08 Y77.58 E76.49609
G0 F6000 X142.56 Y77.06
G1 F900 X145.74 Y77.06 E76.66108
G1 X145.74 Y80.94 E76.8624
G1 X142.56 Y80.94 E77.0274
G1 X142.56 Y77.06 E77.22871
G1 F1500 E76.42871
G0 F6000 X136.28 Y51.22
G0 X136.673 Y50.827
G1 F1500 E77.22871
G1 F900 X136.673 Y107.239 E80.1557
G1 X38.327 Y107.239 E85.25846
G1 X38.326 Y50.826 E88.18549
G1 X136.673 Y50.827 E93.28831
G1 F1500 E92.48831
G0 F6000 X136.28 Y51.22
G0 X136.26 Y105.218
G1 F1500 E93.28831
G1 F900 X136.26 Y51.782 E96.06088
G1 X136.184 Y51.598 E96.0712
G1 X135.902 Y51.316 E96.0919
G1 X135.718 Y51.24 E96.10223
G1 X39.282 Y51.24 E101.10589
G1 X39.098 Y51.316 E101.11622
G1 X38.816 Y51.598 E101.13691
G1 X38.74 Y51.782 E101.14724
G1 X38.74 Y105.218 E103.91981
G1 X38.816 Y105.402 E103.93014
G1 X39.098 Y105.684 E103.95083
G1 X39.282 Y105.76 E103.96116
G1 X135.718 Y105.76 E108.96482
G1 X135.902 Y105.684 E108.97515
G1 X136.184 Y105.402 E108.99584
G1 X136.26 Y105.218 E109.00617
G0 F6000 X136.153 Y106.124
G1 F900 X136.153 Y106.719 E109.03704
G1 X38.847 Y106.719 E114.08584
G1 X38.847 Y106.136 E114.11609
G1 X38.932 Y106.197 E114.12152
G1 X39.282 Y106.28 E114.14018
G1 X135.718 Y106.28 E119.14384
G1 X135.964 Y106.24 E119.15678
G1 X136.153 Y106.124 E119.16828
G0 F6000 X142.56 Y108.56
G1 F900 X145.74 Y108.56 E119.33328
G1 X145.74 Y113.44 E119.58648
G1 X142.56 Y113.44 E119.75148
G1 X142.56 Y108.56 E120.00468
G0 F6000 X143.08 Y109.08
G1 F900 X145.22 Y109.08 E120.11572
G1 X145.22 Y112.92 E120.31496
G1 X143.08 Y112.92 E120.42599
G1 X143.08 Y109.08 E120.62524
G0 F6000 X143.6 Y109.6
G1 F900 X144.7 Y109.6 E120.68231
G1 X144.7 Y112.4 E120.82759
G1 X143.6 Y112.4 E120.88466
G1 X143.6 Y109.6 E121.02995
G0 F6000 X144.12 Y110.12
G1 F900 X144.18 Y110.12 E121.03306
G1 X144.18 Y111.88 E121.12438
G1 X144.12 Y111.88 E121.12749
G1 X144.12 Y110.12 E121.21881
G0 F6000 X127.74 Y120.56
G1 F900 X127.74 Y123.24 E121.35786
G1 X124.755 Y123.24 E121.51274
G1 X124.76 Y123.227 E121.51347
G1 X124.76 Y120.56 E121.65184
G1 X127.74 Y120.56 E121.80646
G0 F6000 X127.22 Y121.08
G1 F900 X127.22 Y122.72 E121.89156
G1 X125.28 Y122.72 E121.99222
G1 X125.28 Y121.08 E122.07731
G1 X127.22 Y121.08 E122.17797
G0 F6000 X126.7 Y121.6
G1 F900 X126.7 Y122.2 E122.2091
G1 X125.8 Y122.2 E122.2558
G1 X125.8 Y121.6 E122.28693
G1 X126.7 Y121.6 E122.33362
G0 F6000 X101.74 Y120.56
G1 F900 X101.74 Y123.218 E122.47154
G1 X101.749 Y123.24 E122.47277
G1 X97.26 Y123.24 E122.70569
G1 X97.26 Y120.56 E122.84474
G1 X101.74 Y120.56 E123.07719
G0 F6000 X101.22 Y121.08
G1 F900 X101.22 Y122.72 E123.16228
G1 X97.78 Y122.72 E123.34077
G1 X97.78 Y121.08 E123.42586
G1 X101.22 Y121.08 E123.60435
G0 F6000 X100.7 Y121.6
G1 F900 X100.7 Y122.2 E123.63548
G1 X98.3 Y122.2 E123.76001
G1 X98.3 Y121.6 E123.79114
G1 X100.7 Y121.6 E123.91566
G1 F1500 E123.11566
G0 F6000 X136.28 Y106.846
G0 X137.133 Y107.699
;TYPE:SUPPORT-INTERFACE
G1 F1500 E123.91566
G1 F900 X137.133 Y50.367 E126.89038
G1 X37.866 Y50.366 E132.04093
G1 X37.867 Y107.699 E135.0157
G1 X137.133 Y107.699 E140.16619
G1 F1500 E139.36619
G0 F6000 X136.28 Y106.846
G0 X142.165 Y112.499
G0 X139.666 Y112.499
G1 F1500 E140.16619
G1 F900 X35.334 Y112.499 E145.57955
G1 X35.333 Y47.833 E148.93479
G1 X139.666 Y47.834 E154.3482
G1 X139.666 Y112.499 E157.70339
G0 F6000 X139.451 Y112.298
G1 F900 X135.052 Y107.899 E158.02618
G0 F6000 X136.477 Y107.898
G1 F900 X132.076 Y112.299 E158.34911
G0 F6000 X132.663 Y112.298
G1 F900 X128.264 Y107.899 E158.6719
G0 F6000 X129.689 Y107.898
G1 F900 X125.288 Y112.299 E158.99484
G0 F6000 X125.874 Y112.298
G1 F900 X121.475 Y107.899 E159.31763
G0 F6000 X122.9 Y107.898
G1 F900 X118.5 Y112.299 E159.64052
G0 F6000 X119.086 Y112.298
G1 F900 X114.687 Y107.899 E159.96331
G0 F6000 X116.112 Y107.898
G1 F900 X111.712 Y112.299 E160.28621
G0 F6000 X112.298 Y112.298
G1 F900 X107.899 Y107.899 E160.609
G0 F6000 X109.324 Y107.898
G1 F900 X104.924 Y112.299 E160.9319
G0 F6000 X105.51 Y112.298
G1 F900 X101.111 Y107.899 E161.25468
G0 F6000 X102.536 Y107.898
G1 F900 X98.135 Y112.299 E161.57762
G0 F6000 X98.722 Y112.298
G1 F900 X94.323 Y107.899 E161.90041
G0 F6000 X95.747 Y107.898
G1 F900 X91.347 Y112.299 E162.22331
G0 F6000 X91.933 Y112.298
G1 F900 X87.534 Y107.899 E162.54609
G0 F6000 X88.959 Y107.898
G1 F900 X84.559 Y112.299 E162.86899
G0 F6000 X85.145 Y112.298
G1 F900 X80.745 Y107.898 E163.19185
G0 F6000 X82.172 Y107.898
G1 F900 X77.771 Y112.299 E163.51479
G0 F6000 X78.357 Y112.298
G1 F900 X73.957 Y107.898 E163.83765
G0 F6000 X75.383 Y107.898
G1 F900 X70.982 Y112.299 E164.16058
G0 F6000 X71.569 Y112.298
G1 F900 X67.169 Y107.898 E164.48345
G0 F6000 X68.595 Y107.898
G1 F900 X64.194 Y112.299 E164.80638
G0 F6000 X64.78 Y112.298
G1 F900 X60.381 Y107.898 E165.12921
G0 F6000 X61.807 Y107.898
G1 F900 X57.406 Y112.299 E165.45214
G0 F6000 X57.992 Y112.298
G1 F900 X53.593 Y107.898 E165.77497
G0 F6000 X55.019 Y107.898
G1 F900 X50.618 Y112.299 E166.0979
G0 F6000 X51.204 Y112.298
G1 F900 X46.804 Y107.898 E166.42076
G0 F6000 X48.231 Y107.898
G1 F900 X43.83 Y112.299 E166.7437
G0 F6000 X44.416 Y112.298
G1 F900 X40.016 Y107.898 E167.06656
G0 F6000 X41.442 Y107.898
G1 F900 X37.041 Y112.299 E167.38949
G0 F6000 X37.627 Y112.298
G1 F900 X35.533 Y110.204 E167.54315
G0 F6000 X35.533 Y110.413
G1 F900 X38.048 Y107.898 E167.72769
G0 F6000 X37.666 Y105.549
G1 F900 X35.533 Y103.415 E167.88424
G0 F6000 X35.533 Y103.625
G1 F900 X37.666 Y101.492 E168.04076
G0 F6000 X37.666 Y102.155
G1 F900 X35.533 Y100.021 E168.19731
G0 F6000 X35.533 Y100.23
G1 F900 X37.666 Y98.098 E168.35379
G0 F6000 X37.666 Y98.76
G1 F900 X35.533 Y96.627 E168.5103
G0 F6000 X35.533 Y96.836
G1 F900 X37.666 Y94.704 E168.66678
G0 F6000 X37.666 Y95.366
G1 F900 X35.533 Y93.233 E168.82329
G0 F6000 X35.533 Y93.442
G1 F900 X37.666 Y91.31 E168.97977
G0 F6000 X37.666 Y91.972
G1 F900 X35.533 Y89.839 E169.13628
G0 F6000 X35.533 Y90.048
G1 F900 X37.666 Y87.916 E169.29276
G0 F6000 X37.666 Y88.578
G1 F900 X35.533 Y86.445 E169.44928
G0 F6000 X35.533 Y86.654
G1 F900 X37.666 Y84.521 E169.60579
G0 F6000 X37.666 Y85.184
G1 F900 X35.533 Y83.051 E169.76231
G0 F6000 X35.533 Y83.26
G1 F900 X37.666 Y81.127 E169.91882
G0 F6000 X37.666 Y81.79
G1 F900 X35.533 Y79.656 E170.07537
G0 F6000 X35.533 Y79.866
G1 F900 X37.666 Y77.733 E170.23189
G0 F6000 X37.666 Y78.396
G1 F900 X35.533 Y76.262 E170.38844
G0 F6000 X35.533 Y76.472
G1 F900 X37.666 Y74.339 E170.54495
G0 F6000 X37.666 Y75.002
G1 F900 X35.533 Y72.868 E170.7015
G0 F6000 X35.533 Y73.078
G1 F900 X37.666 Y70.945 E170.85802
G0 F6000 X37.666 Y71.607
