;FLAVOR:Marlin
;TIME:35436
;Filament used: 23.5187m
;Layer height: 0.2
;MINX:28.369
;MINY:35.704
;MINZ:0.2
;MAXX:146.634
;MAXY:139.408
;MAXZ:69
;Generated with Creality Slicer 4.8.2-205
M140 S50
M105
M190 S50
M104 S195
M105
M109 S195
M82 ;absolute extrusion mode
G28 ;Home

G92 E0 ;Reset Extruder
G1 Z2.0 F3000 ;Move Z Axis up
G1 X10.1 Y20 Z0.28 F5000.0 ;Move to start position
G1 X10.1 Y170.0 Z0.28 F1500.0 E12 ;Draw the first line
G1 X10.4 Y170.0 Z0.28 F5000.0 ;Move to side a little
G1 X10.4 Y20 Z0.28 F1500.0 E25 ;Draw the second line
G92 E0 ;Reset Extruder
G1 Z2.0 F3000 ;Move Z Axis up

G92 E0
G92 E0
G1 F1500 E-0.8
;LAYER_COUNT:345
;LAYER:0
M107
G0 F6000 X43.334 Y41.038 Z0.2
;TYPE:SKIRT
G1 F1500 E0
G1 F900 X43.935 Y40.507 E0.04161
G1 X44.587 Y40.038 E0.08328
G1 X45.281 Y39.636 E0.1249
G1 X46.013 Y39.305 E0.16658
G1 X46.773 Y39.048 E0.20821
G1 X47.556 Y38.868 E0.24989
G1 X48.352 Y38.767 E0.29153
G1 X48.966 Y38.744 E0.32341
G1 X128.03 Y38.745 E4.42571
G1 X128.832 Y38.785 E4.46737
G1 X129.626 Y38.905 E4.50903
G1 X130.404 Y39.102 E4.55068
G1 X131.158 Y39.377 E4.59232
G1 X131.881 Y39.725 E4.63395
G1 X132.567 Y40.143 E4.67563
G1 X133.207 Y40.627 E4.71727
G1 X133.796 Y41.173 E4.75894
G1 X134.327 Y41.774 E4.80055
G1 X134.796 Y42.426 E4.84222
G1 X135.199 Y43.12 E4.88386
G1 X135.529 Y43.852 E4.92552
G1 X135.786 Y44.612 E4.96715
G1 X135.966 Y45.395 E5.00884
G1 X136.067 Y46.191 E5.05047
G1 X136.09 Y46.805 E5.08235
G1 X136.09 Y91.901 E7.42219
G1 X136.05 Y92.703 E7.46385
G1 X135.93 Y93.497 E7.50552
G1 X135.733 Y94.275 E7.54716
G1 X135.458 Y95.029 E7.5888
G1 X135.11 Y95.752 E7.63044
G1 X134.692 Y96.438 E7.67212
G1 X134.208 Y97.078 E7.71375
G1 X133.662 Y97.667 E7.75542
G1 X133.061 Y98.198 E7.79703
G1 X132.409 Y98.667 E7.83871
G1 X131.715 Y99.069 E7.88032
G1 X130.983 Y99.4 E7.922
G1 X130.223 Y99.657 E7.96363
G1 X129.44 Y99.837 E8.00532
G1 X128.644 Y99.938 E8.04695
G1 X128.03 Y99.961 E8.07883
G1 X48.966 Y99.961 E12.18113
G1 X48.164 Y99.921 E12.22279
G1 X47.37 Y99.801 E12.26446
G1 X46.592 Y99.604 E12.3061
G1 X45.838 Y99.329 E12.34774
G1 X45.115 Y98.981 E12.38937
G1 X44.429 Y98.563 E12.43105
G1 X43.789 Y98.079 E12.47269
G1 X43.2 Y97.533 E12.51436
G1 X42.669 Y96.932 E12.55597
G1 X42.2 Y96.28 E12.59764
G1 X41.798 Y95.586 E12.63926
G1 X41.467 Y94.854 E12.68094
G1 X41.21 Y94.094 E12.72257
G1 X41.03 Y93.311 E12.76425
G1 X40.929 Y92.515 E12.80589
G1 X40.906 Y91.901 E12.83777
G1 X40.906 Y46.804 E15.17766
G1 X40.946 Y46.002 E15.21932
G1 X41.066 Y45.208 E15.26099
G1 X41.263 Y44.43 E15.30263
G1 X41.538 Y43.676 E15.34427
G1 X41.886 Y42.953 E15.38591
G1 X42.304 Y42.267 E15.42759
G1 X42.788 Y41.627 E15.46922
G1 X43.334 Y41.038 E15.51089
G0 F6000 X43.845 Y41.27
G1 F900 X44.441 Y40.773 E15.55116
G1 X45.085 Y40.339 E15.59145
G1 X45.771 Y39.975 E15.63174
G1 X46.49 Y39.682 E15.67203
G1 X47.235 Y39.465 E15.71229
G1 X47.999 Y39.326 E15.75258
G1 X48.966 Y39.264 E15.80286
G1 X128.03 Y39.265 E19.90516
G1 X128.805 Y39.305 E19.94542
G1 X129.573 Y39.424 E19.98575
G1 X130.323 Y39.622 E20.02599
G1 X131.05 Y39.896 E20.06631
G1 X131.744 Y40.243 E20.10657
G1 X132.399 Y40.66 E20.14685
G1 X133.008 Y41.142 E20.18715
G1 X133.564 Y41.684 E20.22744
G1 X134.061 Y42.28 E20.2677
G1 X134.495 Y42.924 E20.308
G1 X134.86 Y43.61 E20.34832
G1 X135.152 Y44.329 E20.38858
G1 X135.369 Y45.075 E20.42889
G1 X135.508 Y45.838 E20.46913
G1 X135.57 Y46.805 E20.51941
G1 X135.57 Y91.901 E22.85925
G1 X135.53 Y92.676 E22.89952
G1 X135.411 Y93.444 E22.93984
G1 X135.213 Y94.194 E22.98009
G1 X134.939 Y94.921 E23.0204
G1 X134.592 Y95.615 E23.06066
G1 X134.175 Y96.27 E23.10095
G1 X133.693 Y96.879 E23.14124
G1 X133.151 Y97.435 E23.18153
G1 X132.555 Y97.932 E23.2218
G1 X131.911 Y98.366 E23.26209
G1 X131.225 Y98.73 E23.30238
G1 X130.506 Y99.023 E23.34267
G1 X129.761 Y99.24 E23.38293
G1 X128.997 Y99.379 E23.42322
G1 X128.03 Y99.441 E23.4735
G1 X48.966 Y99.441 E27.5758
G1 X48.191 Y99.401 E27.61606
G1 X47.423 Y99.282 E27.65639
G1 X46.673 Y99.084 E27.69663
G1 X45.946 Y98.81 E27.73695
G1 X45.252 Y98.463 E27.7772
G1 X44.597 Y98.046 E27.81749
G1 X43.988 Y97.564 E27.85779
G1 X43.432 Y97.022 E27.89808
G1 X42.935 Y96.426 E27.93834
G1 X42.501 Y95.782 E27.97864
G1 X42.137 Y95.096 E28.01893
G1 X41.844 Y94.377 E28.05922
G1 X41.627 Y93.632 E28.09948
G1 X41.488 Y92.868 E28.13977
G1 X41.426 Y91.901 E28.19005
G1 X41.426 Y46.804 E30.52994
G1 X41.466 Y46.029 E30.5702
G1 X41.585 Y45.261 E30.61053
G1 X41.783 Y44.511 E30.65078
G1 X42.057 Y43.784 E30.69109
G1 X42.404 Y43.09 E30.73135
G1 X42.821 Y42.435 E30.77163
G1 X43.303 Y41.826 E30.81193
G1 X43.845 Y41.27 E30.85222
G0 F6000 X43.817 Y42.033
G1 F900 X44.355 Y41.511 E30.89111
G1 X44.945 Y41.05 E30.92996
G1 X45.581 Y40.654 E30.96884
G1 X46.256 Y40.328 E31.00773
G1 X46.961 Y40.076 E31.04658
G1 X47.69 Y39.901 E31.08548
G1 X48.432 Y39.804 E31.1243
G1 X48.966 Y39.784 E31.15203
G1 X128.03 Y39.785 E35.25433
G1 X128.778 Y39.825 E35.2932
G1 X129.518 Y39.944 E35.33208
G1 X130.24 Y40.142 E35.37093
G1 X130.938 Y40.416 E35.40984
G1 X131.602 Y40.762 E35.44868
G1 X132.226 Y41.177 E35.48757
G1 X132.802 Y41.656 E35.52644
G1 X133.323 Y42.194 E35.5653
G1 X133.784 Y42.784 E35.60415
G1 X134.18 Y43.42 E35.64302
G1 X134.506 Y44.095 E35.68191
G1 X134.758 Y44.8 E35.72076
G1 X134.933 Y45.529 E35.75966
G1 X135.03 Y46.271 E35.79848
G1 X135.05 Y46.805 E35.82621
G1 X135.05 Y91.901 E38.16605
G1 X135.01 Y92.649 E38.20492
G1 X134.891 Y93.389 E38.24381
G1 X134.693 Y94.111 E38.28265
G1 X134.42 Y94.809 E38.32154
G1 X134.073 Y95.473 E38.36041
G1 X133.658 Y96.097 E38.3993
G1 X133.179 Y96.672 E38.43813
G1 X132.641 Y97.194 E38.47702
G1 X132.051 Y97.655 E38.51587
G1 X131.415 Y98.051 E38.55474
G1 X130.74 Y98.377 E38.59364
G1 X130.035 Y98.629 E38.63248
G1 X129.306 Y98.804 E38.67138
G1 X128.564 Y98.901 E38.71021
G1 X128.03 Y98.921 E38.73794
G1 X48.966 Y98.921 E42.84024
G1 X48.218 Y98.881 E42.8791
G1 X47.478 Y98.762 E42.91799
G1 X46.756 Y98.564 E42.95684
G1 X46.058 Y98.291 E42.99572
G1 X45.394 Y97.944 E43.0346
G1 X44.77 Y97.529 E43.07348
G1 X44.195 Y97.05 E43.11231
G1 X43.673 Y96.512 E43.1512
G1 X43.212 Y95.922 E43.19005
G1 X42.816 Y95.286 E43.22893
G1 X42.49 Y94.611 E43.26782
G1 X42.238 Y93.906 E43.30667
G1 X42.063 Y93.177 E43.34557
G1 X41.966 Y92.435 E43.38439
G1 X41.946 Y91.901 E43.41212
G1 X41.946 Y46.804 E45.75201
G1 X41.986 Y46.056 E45.79088
G1 X42.105 Y45.316 E45.82977
G1 X42.303 Y44.594 E45.86861
G1 X42.576 Y43.896 E45.9075
G1 X42.923 Y43.232 E45.94637
G1 X43.338 Y42.608 E45.98526
G1 X43.817 Y42.033 E46.02409
G0 F6000 X44.33 Y42.248
G1 F900 X44.863 Y41.763 E46.06148
G1 X45.446 Y41.339 E46.09888
G1 X46.073 Y40.983 E46.13629
G1 X46.735 Y40.699 E46.17367
G1 X47.425 Y40.489 E46.21109
G1 X48.134 Y40.358 E46.2485
G1 X48.966 Y40.304 E46.29176
G1 X128.03 Y40.305 E50.39406
G1 X128.75 Y40.345 E50.43148
G1 X129.461 Y40.464 E50.46888
G1 X130.154 Y40.662 E50.50627
G1 X130.821 Y40.935 E50.54367
G1 X131.454 Y41.28 E50.58107
G1 X132.045 Y41.693 E50.61848
G1 X132.586 Y42.169 E50.65587
G1 X133.071 Y42.702 E50.69326
G1 X133.495 Y43.285 E50.73067
G1 X133.851 Y43.912 E50.76808
G1 X134.135 Y44.574 E50.80545
G1 X134.345 Y45.264 E50.84288
G1 X134.477 Y45.973 E50.8803
G1 X134.53 Y46.805 E50.92355
G1 X134.53 Y91.901 E53.26339
G1 X134.49 Y92.621 E53.30081
G1 X134.371 Y93.332 E53.33821
G1 X134.173 Y94.025 E53.37561
G1 X133.9 Y94.692 E53.413
G1 X133.555 Y95.325 E53.45041
G1 X133.142 Y95.916 E53.48782
G1 X132.666 Y96.457 E53.52521
G1 X132.133 Y96.942 E53.5626
G1 X131.55 Y97.366 E53.6
G1 X130.923 Y97.722 E53.63741
G1 X130.261 Y98.006 E53.67479
G1 X129.571 Y98.216 E53.71221
G1 X128.862 Y98.347 E53.74962
G1 X128.03 Y98.401 E53.79288
G1 X48.966 Y98.401 E57.89518
G1 X48.246 Y98.361 E57.93259
G1 X47.535 Y98.242 E57.97
G1 X46.842 Y98.044 E58.00739
G1 X46.175 Y97.771 E58.04479
G1 X45.542 Y97.426 E58.08219
G1 X44.951 Y97.013 E58.1196
G1 X44.41 Y96.537 E58.15699
G1 X43.925 Y96.004 E58.19438
G1 X43.501 Y95.421 E58.23179
G1 X43.145 Y94.794 E58.2692
G1 X42.861 Y94.132 E58.30657
G1 X42.651 Y93.442 E58.344
G1 X42.52 Y92.733 E58.38141
G1 X42.466 Y91.901 E58.42467
G1 X42.466 Y46.804 E60.76456
G1 X42.506 Y46.084 E60.80198
G1 X42.625 Y45.373 E60.83938
G1 X42.823 Y44.68 E60.87677
G1 X43.096 Y44.013 E60.91417
G1 X43.441 Y43.38 E60.95157
G1 X43.854 Y42.789 E60.98898
G1 X44.33 Y42.248 E61.02637
G0 F6000 X44.842 Y42.474
G1 F900 X45.369 Y42.027 E61.06223
G1 X45.945 Y41.643 E61.09815
G1 X46.56 Y41.329 E61.13398
G1 X47.208 Y41.088 E61.16985
G1 X47.88 Y40.923 E61.20575
G1 X48.566 Y40.837 E61.24162
G1 X48.966 Y40.824 E61.26239
G1 X128.03 Y40.825 E65.36469
G1 X128.72 Y40.865 E65.40055
G1 X129.401 Y40.984 E65.43642
G1 X130.064 Y41.182 E65.47232
G1 X130.699 Y41.454 E65.50816
G1 X131.299 Y41.798 E65.54405
G1 X131.855 Y42.209 E65.57992
G1 X132.36 Y42.681 E65.61579
G1 X132.807 Y43.208 E65.65164
G1 X133.191 Y43.784 E65.68756
G1 X133.505 Y44.399 E65.72339
G1 X133.746 Y45.047 E65.75926
G1 X133.911 Y45.719 E65.79517
G1 X133.997 Y46.405 E65.83104
G1 X134.01 Y46.805 E65.8518
G1 X134.01 Y91.901 E68.19165
G1 X133.97 Y92.591 E68.22751
G1 X133.851 Y93.272 E68.26338
G1 X133.653 Y93.935 E68.29928
G1 X133.381 Y94.57 E68.33512
G1 X133.037 Y95.17 E68.37101
G1 X132.627 Y95.726 E68.40685
G1 X132.154 Y96.231 E68.44275
G1 X131.627 Y96.678 E68.47861
G1 X131.051 Y97.062 E68.51452
G1 X130.436 Y97.376 E68.55035
G1 X129.788 Y97.617 E68.58623
G1 X129.116 Y97.782 E68.62213
G1 X128.43 Y97.868 E68.658
G1 X128.03 Y97.881 E68.67877
G1 X48.966 Y97.881 E72.78107
G1 X48.276 Y97.841 E72.81693
G1 X47.595 Y97.722 E72.8528
G1 X46.932 Y97.524 E72.8887
G1 X46.297 Y97.252 E72.92454
G1 X45.697 Y96.908 E72.96043
G1 X45.141 Y96.498 E72.99627
G1 X44.636 Y96.025 E73.03217
G1 X44.189 Y95.498 E73.06803
G1 X43.805 Y94.922 E73.10394
G1 X43.491 Y94.307 E73.13977
G1 X43.25 Y93.659 E73.17565
G1 X43.085 Y92.987 E73.21155
G1 X42.999 Y92.301 E73.24742
G1 X42.986 Y91.901 E73.26819
G1 X42.986 Y46.804 E75.60808
G1 X43.026 Y46.114 E75.64394
G1 X43.145 Y45.433 E75.67981
G1 X43.343 Y44.77 E75.71571
G1 X43.615 Y44.135 E75.75156
G1 X43.959 Y43.535 E75.78744
G1 X44.369 Y42.979 E75.82328
G1 X44.842 Y42.474 E75.85919
G0 F6000 X45.352 Y42.711
G1 F900 X45.873 Y42.305 E75.89346
G1 X46.439 Y41.964 E75.92774
G1 X47.042 Y41.694 E75.96202
G1 X47.673 Y41.499 E75.99629
G1 X48.323 Y41.382 E76.03056
G1 X48.966 Y41.344 E76.06398
G1 X128.03 Y41.345 E80.16628
G1 X128.689 Y41.385 E80.20053
G1 X129.339 Y41.504 E80.23482
G1 X129.97 Y41.701 E80.26912
G1 X130.572 Y41.973 E80.30339
G1 X131.137 Y42.315 E80.33766
G1 X131.656 Y42.723 E80.37192
G1 X132.123 Y43.191 E80.40622
G1 X132.529 Y43.712 E80.44049
G1 X132.87 Y44.278 E80.47478
G1 X133.14 Y44.881 E80.50906
G1 X133.335 Y45.512 E80.54332
G1 X133.452 Y46.162 E80.57759
G1 X133.49 Y46.805 E80.61101
G1 X133.49 Y91.901 E82.95086
G1 X133.45 Y92.56 E82.98511
G1 X133.331 Y93.21 E83.0194
G1 X133.134 Y93.841 E83.0537
G1 X132.862 Y94.443 E83.08797
G1 X132.52 Y95.008 E83.12224
G1 X132.112 Y95.527 E83.15649
G1 X131.644 Y95.994 E83.1908
G1 X131.123 Y96.4 E83.22507
G1 X130.557 Y96.741 E83.25935
G1 X129.954 Y97.011 E83.29363
G1 X129.323 Y97.206 E83.3279
G1 X128.673 Y97.323 E83.36217
G1 X128.03 Y97.361 E83.39559
G1 X48.966 Y97.361 E87.49789
G1 X48.307 Y97.321 E87.53215
G1 X47.657 Y97.202 E87.56643
G1 X47.026 Y97.005 E87.60073
G1 X46.424 Y96.733 E87.63501
G1 X45.859 Y96.391 E87.66927
G1 X45.34 Y95.983 E87.70353
G1 X44.873 Y95.515 E87.73783
G1 X44.467 Y94.994 E87.7721
G1 X44.126 Y94.428 E87.80639
G1 X43.856 Y93.825 E87.84067
G1 X43.661 Y93.194 E87.87494
G1 X43.544 Y92.544 E87.9092
G1 X43.506 Y91.901 E87.94262
G1 X43.506 Y46.804 E90.28252
G1 X43.546 Y46.145 E90.31677
G1 X43.665 Y45.495 E90.35106
G1 X43.862 Y44.864 E90.38536
G1 X44.134 Y44.262 E90.41963
G1 X44.476 Y43.697 E90.4539
G1 X44.884 Y43.178 E90.48816
G1 X45.352 Y42.711 E90.52246
G0 F6000 X45.398 Y43.388
G1 F900 X45.86 Y42.962 E90.55507
G1 X46.373 Y42.599 E90.58767
G1 X46.928 Y42.304 E90.62029
G1 X47.516 Y42.082 E90.6529
G1 X48.127 Y41.936 E90.68549
G1 X48.966 Y41.864 E90.72918
G1 X128.03 Y41.865 E94.83148
G1 X128.657 Y41.905 E94.86408
G1 X129.274 Y42.024 E94.89668
G1 X129.871 Y42.221 E94.9293
G1 X130.438 Y42.492 E94.96191
G1 X130.966 Y42.832 E94.99449
G1 X131.446 Y43.237 E95.02708
G1 X131.872 Y43.699 E95.05969
G1 X132.235 Y44.212 E95.09229
G1 X132.53 Y44.767 E95.12491
G1 X132.752 Y45.355 E95.15752
G1 X132.898 Y45.966 E95.19011
G1 X132.97 Y46.805 E95.2338
G1 X132.97 Y91.901 E97.57365
G1 X132.93 Y92.528 E97.60624
G1 X132.811 Y93.145 E97.63885
G1 X132.614 Y93.742 E97.67147
G1 X132.343 Y94.309 E97.70407
G1 X132.003 Y94.837 E97.73666
G1 X131.598 Y95.317 E97.76924
G1 X131.136 Y95.743 E97.80185
G1 X130.623 Y96.106 E97.83446
G1 X130.068 Y96.401 E97.86707
G1 X129.48 Y96.623 E97.89968
G1 X128.869 Y96.769 E97.93228
G1 X128.03 Y96.841 E97.97597
G1 X48.966 Y96.841 E102.07827
G1 X48.339 Y96.801 E102.11087
G1 X47.722 Y96.682 E102.14347
G1 X47.125 Y96.485 E102.17609
G1 X46.558 Y96.214 E102.20869
G1 X46.03 Y95.874 E102.24128
G1 X45.55 Y95.469 E102.27387
G1 X45.124 Y95.007 E102.30647
G1 X44.761 Y94.494 E102.33908
G1 X44.466 Y93.939 E102.37169
G1 X44.244 Y93.351 E102.4043
G1 X44.098 Y92.74 E102.4369
G1 X44.026 Y91.901 E102.48059
G1 X44.026 Y46.804 E104.82048
G1 X44.066 Y46.177 E104.85308
G1 X44.185 Y45.56 E104.88568
G1 X44.382 Y44.963 E104.9183
G1 X44.653 Y44.396 E104.95091
G1 X44.993 Y43.868 E104.98349
G1 X45.398 Y43.388 E105.01608
G0 F6000 X45.91 Y43.611
G1 F900 X46.366 Y43.23 E105.04691
G1 X46.869 Y42.913 E105.07776
G1 X47.41 Y42.667 E105.1086
G1 X47.979 Y42.496 E105.13942
G1 X48.566 Y42.402 E105.17027
G1 X48.966 Y42.384 E105.19104
G1 X128.03 Y42.385 E109.29334
G1 X128.623 Y42.425 E109.32418
G1 X129.205 Y42.544 E109.35501
G1 X129.766 Y42.74 E109.38584
G1 X130.296 Y43.01 E109.4167
G1 X130.784 Y43.348 E109.4475
G1 X131.223 Y43.749 E109.47835
G1 X131.604 Y44.205 E109.50918
G1 X131.921 Y44.708 E109.54003
G1 X132.167 Y45.249 E109.57087
G1 X132.338 Y45.818 E109.6017
G1 X132.432 Y46.405 E109.63254
G1 X132.45 Y46.805 E109.65332
G1 X132.45 Y91.901 E111.99316
G1 X132.41 Y92.494 E112.024
G1 X132.291 Y93.076 E112.05482
G1 X132.095 Y93.637 E112.08565
G1 X131.825 Y94.167 E112.11651
G1 X131.487 Y94.655 E112.14732
G1 X131.086 Y95.094 E112.17817
G1 X130.63 Y95.475 E112.209
G1 X130.127 Y95.792 E112.23985
G1 X129.586 Y96.038 E112.27068
G1 X129.017 Y96.209 E112.30151
G1 X128.43 Y96.303 E112.33235
G1 X128.03 Y96.321 E112.35313
G1 X48.966 Y96.321 E116.45543
G1 X48.373 Y96.281 E116.48627
G1 X47.791 Y96.162 E116.51709
G1 X47.23 Y95.966 E116.54792
G1 X46.7 Y95.696 E116.57879
G1 X46.212 Y95.358 E116.60959
G1 X45.773 Y94.957 E116.64044
G1 X45.392 Y94.501 E116.67127
G1 X45.075 Y93.998 E116.70212
G1 X44.829 Y93.457 E116.73295
G1 X44.658 Y92.888 E116.76378
G1 X44.564 Y92.301 E116.79463
G1 X44.546 Y91.901 E116.8154
G1 X44.546 Y46.804 E119.15529
G1 X44.586 Y46.211 E119.18613
G1 X44.705 Y45.629 E119.21696
G1 X44.901 Y45.068 E119.24779
G1 X45.171 Y44.538 E119.27865
G1 X45.509 Y44.05 E119.30945
G1 X45.91 Y43.611 E119.3403
G0 F6000 X46.42 Y43.85
G1 F900 X46.868 Y43.516 E119.3693
G1 X47.359 Y43.251 E119.39825
G1 X47.883 Y43.058 E119.42722
G1 X48.429 Y42.941 E119.45619
G1 X48.966 Y42.904 E119.48412
G1 X128.03 Y42.905 E123.58642
G1 X128.587 Y42.945 E123.61539
G1 X129.132 Y43.064 E123.64434
G1 X129.655 Y43.26 E123.67332
G1 X130.144 Y43.528 E123.70225
G1 X130.591 Y43.863 E123.73123
G1 X130.984 Y44.259 E123.76018
G1 X131.318 Y44.707 E123.78918
G1 X131.583 Y45.198 E123.81813
G1 X131.776 Y45.722 E123.8471
G1 X131.893 Y46.268 E123.87607
G1 X131.93 Y46.805 E123.904
G1 X131.93 Y91.901 E126.24384
G1 X131.89 Y92.458 E126.27282
G1 X131.771 Y93.003 E126.30176
