;FLAVOR:Marlin
;TIME:19823
;Filament used: 12.125m
;Layer height: 0.2
;MINX:17.7
;MINY:25.2
;MINZ:0.2
;MAXX:157.3
;MAXY:149.8
;MAXZ:46
;Generated with Creality Slicer 4.8.2-205
M140 S50
M105
M190 S50
M104 S195
M105
M109 S195
M82 ;absolute extrusion mode
G28 ;Home

G92 E0 ;Reset Extruder
G1 Z2.0 F3000 ;Move Z Axis up
G1 X10.1 Y20 Z0.28 F5000.0 ;Move to start position
G1 X10.1 Y170.0 Z0.28 F1500.0 E12 ;Draw the first line
G1 X10.4 Y170.0 Z0.28 F5000.0 ;Move to side a little
G1 X10.4 Y20 Z0.28 F1500.0 E25 ;Draw the second line
G92 E0 ;Reset Extruder
G1 Z2.0 F3000 ;Move Z Axis up

G92 E0
G92 E0
G1 F1500 E-0.8
;LAYER_COUNT:230
;LAYER:0
M107
G0 F6000 X22.337 Y27.389 Z0.2
;TYPE:SKIRT
G1 F1500 E0
G1 F900 X23.127 Y26.861 E0.0493
G1 X23.958 Y26.4 E0.09861
G1 X24.826 Y26.012 E0.14794
G1 X25.723 Y25.697 E0.19727
G1 X26.643 Y25.459 E0.24658
G1 X27.58 Y25.3 E0.29589
G1 X28.692 Y25.213 E0.35376
G1 X29.013 Y25.204 E0.37042
G1 X29.33 Y25.2 E0.38687
G1 X145.293 Y25.2 E6.40371
G1 X146.153 Y25.211 E6.44833
G1 X147.102 Y25.265 E6.49765
G1 X148.043 Y25.398 E6.54696
G1 X148.97 Y25.61 E6.5963
G1 X149.875 Y25.899 E6.64559
G1 X150.754 Y26.263 E6.69496
G1 X151.598 Y26.699 E6.74425
G1 X152.403 Y27.205 E6.79358
G1 X153.162 Y27.777 E6.84289
G1 X153.871 Y28.411 E6.89224
G1 X154.524 Y29.102 E6.94157
G1 X155.116 Y29.845 E6.99086
G1 X155.644 Y30.635 E7.04017
G1 X156.104 Y31.467 E7.08949
G1 X156.492 Y32.335 E7.13883
G1 X156.805 Y33.233 E7.18817
G1 X157.042 Y34.153 E7.23746
G1 X157.201 Y35.09 E7.28677
G1 X157.287 Y36.192 E7.34413
G1 X157.296 Y36.512 E7.36074
G1 X157.3 Y36.83 E7.37724
G1 X157.3 Y76.211 E9.42055
G1 X157.299 Y137.919 E12.62232
G1 X157.289 Y138.646 E12.66005
G1 X157.236 Y139.596 E12.70941
G1 X157.103 Y140.537 E12.75872
G1 X156.892 Y141.464 E12.80805
G1 X156.604 Y142.369 E12.85733
G1 X156.24 Y143.248 E12.90669
G1 X155.804 Y144.092 E12.95598
G1 X155.299 Y144.897 E13.00529
G1 X154.727 Y145.657 E13.05464
G1 X154.094 Y146.366 E13.10396
G1 X153.403 Y147.019 E13.15329
G1 X152.66 Y147.612 E13.20261
G1 X151.87 Y148.141 E13.25194
G1 X151.038 Y148.601 E13.30127
G1 X150.171 Y148.989 E13.35055
G1 X149.274 Y149.303 E13.39987
G1 X148.353 Y149.541 E13.44922
G1 X147.416 Y149.701 E13.49854
G1 X146.308 Y149.787 E13.5562
G1 X145.988 Y149.796 E13.57281
G1 X145.67 Y149.8 E13.58932
G1 X29.561 Y149.799 E19.61373
G1 X28.863 Y149.79 E19.64994
G1 X27.914 Y149.738 E19.69926
G1 X26.973 Y149.606 E19.74856
G1 X26.046 Y149.396 E19.79788
G1 X25.14 Y149.108 E19.8472
G1 X24.261 Y148.745 E19.89655
G1 X23.416 Y148.31 E19.94586
G1 X22.611 Y147.805 E19.99517
G1 X21.85 Y147.234 E20.04453
G1 X21.141 Y146.602 E20.09381
G1 X20.487 Y145.912 E20.14314
G1 X19.894 Y145.169 E20.19246
G1 X19.365 Y144.379 E20.24179
G1 X18.904 Y143.548 E20.2911
G1 X18.514 Y142.681 E20.34043
G1 X18.199 Y141.784 E20.38976
G1 X17.961 Y140.864 E20.43906
G1 X17.801 Y139.927 E20.48838
G1 X17.713 Y138.796 E20.54724
G1 X17.704 Y138.463 E20.56453
G1 X17.7 Y138.158 E20.58035
G1 X17.701 Y37.021 E25.82793
G1 X17.71 Y36.356 E25.86244
G1 X17.763 Y35.407 E25.91175
G1 X17.895 Y34.466 E25.96106
G1 X18.106 Y33.539 E26.01038
G1 X18.395 Y32.633 E26.05973
G1 X18.758 Y31.755 E26.10902
G1 X19.194 Y30.91 E26.15836
G1 X19.699 Y30.105 E26.20766
G1 X20.27 Y29.345 E26.25699
G1 X20.903 Y28.636 E26.3063
G1 X21.594 Y27.982 E26.35567
G1 X22.337 Y27.389 E26.40499
G0 F6000 X22.837 Y27.671
G1 F900 X23.621 Y27.172 E26.45321
G1 X24.444 Y26.743 E26.50137
G1 X25.301 Y26.387 E26.54952
G1 X26.186 Y26.105 E26.59771
G1 X27.092 Y25.901 E26.64589
G1 X28.011 Y25.775 E26.69402
G1 X28.707 Y25.733 E26.7302
G1 X29.028 Y25.724 E26.74686
G1 X29.33 Y25.72 E26.76253
G1 X145.293 Y25.72 E32.77937
G1 X146.145 Y25.731 E32.82358
G1 X147.072 Y25.784 E32.87176
G1 X147.991 Y25.917 E32.91994
G1 X148.895 Y26.129 E32.96811
G1 X149.778 Y26.417 E33.0163
G1 X150.632 Y26.78 E33.06445
G1 X151.452 Y27.216 E33.11264
G1 X152.232 Y27.72 E33.16082
G1 X152.965 Y28.29 E33.209
G1 X153.646 Y28.92 E33.25714
G1 X154.271 Y29.607 E33.30533
G1 X154.834 Y30.345 E33.35349
G1 X155.332 Y31.129 E33.40168
G1 X155.76 Y31.953 E33.44986
G1 X156.116 Y32.81 E33.49801
G1 X156.397 Y33.695 E33.54618
G1 X156.601 Y34.601 E33.59437
G1 X156.726 Y35.521 E33.64254
G1 X156.767 Y36.207 E33.6782
G1 X156.776 Y36.527 E33.69481
G1 X156.78 Y36.83 E33.71053
G1 X156.78 Y76.21 E35.7538
G1 X156.779 Y137.912 E38.95525
G1 X156.769 Y138.639 E38.99298
G1 X156.716 Y139.566 E39.04116
G1 X156.584 Y140.485 E39.08933
G1 X156.373 Y141.389 E39.13749
G1 X156.085 Y142.272 E39.18568
G1 X155.722 Y143.127 E39.23388
G1 X155.287 Y143.947 E39.28204
G1 X154.783 Y144.727 E39.33023
G1 X154.214 Y145.46 E39.37837
G1 X153.584 Y146.142 E39.42655
G1 X152.898 Y146.767 E39.4747
G1 X152.16 Y147.331 E39.52289
G1 X151.376 Y147.829 E39.57108
G1 X150.553 Y148.258 E39.61924
G1 X149.696 Y148.614 E39.66739
G1 X148.811 Y148.895 E39.71556
G1 X147.905 Y149.1 E39.76376
G1 X146.985 Y149.225 E39.81194
G1 X146.293 Y149.267 E39.84791
G1 X145.973 Y149.276 E39.86452
G1 X145.67 Y149.28 E39.88024
G1 X29.568 Y149.279 E45.90429
G1 X28.87 Y149.27 E45.9405
G1 X27.943 Y149.218 E45.98868
G1 X27.024 Y149.087 E46.03684
G1 X26.12 Y148.877 E46.085
G1 X25.237 Y148.589 E46.13319
G1 X24.382 Y148.227 E46.18136
G1 X23.561 Y147.793 E46.22955
G1 X22.781 Y147.29 E46.2777
G1 X22.047 Y146.721 E46.32589
G1 X21.365 Y146.092 E46.37403
G1 X20.739 Y145.406 E46.42221
G1 X20.175 Y144.668 E46.47041
G1 X19.676 Y143.885 E46.51858
G1 X19.246 Y143.062 E46.56676
G1 X18.889 Y142.205 E46.61493
G1 X18.607 Y141.321 E46.66308
G1 X18.402 Y140.415 E46.71127
G1 X18.276 Y139.495 E46.75945
G1 X18.233 Y138.782 E46.79652
G1 X18.224 Y138.449 E46.8138
G1 X18.22 Y138.158 E46.8289
G1 X18.221 Y37.028 E52.07611
G1 X18.23 Y36.363 E52.11062
G1 X18.283 Y35.436 E52.1588
G1 X18.415 Y34.517 E52.20697
G1 X18.625 Y33.613 E52.25512
G1 X18.913 Y32.73 E52.30331
G1 X19.276 Y31.876 E52.35146
G1 X19.71 Y31.055 E52.39964
G1 X20.214 Y30.275 E52.44783
G1 X20.783 Y29.542 E52.49598
G1 X21.413 Y28.86 E52.54415
G1 X22.1 Y28.234 E52.59237
G1 X22.837 Y27.671 E52.64049
G0 F6000 X22.604 Y28.494
G1 F900 X23.336 Y27.96 E52.68751
G1 X24.112 Y27.493 E52.7345
G1 X24.926 Y27.096 E52.78149
G1 X25.772 Y26.773 E52.82848
G1 X26.644 Y26.525 E52.87551
G1 X27.533 Y26.356 E52.92247
G1 X28.721 Y26.253 E52.98434
G1 X29.042 Y26.244 E53.001
G1 X29.33 Y26.24 E53.01594
G1 X145.293 Y26.24 E59.03278
G1 X146.138 Y26.251 E59.07663
G1 X147.042 Y26.304 E59.12361
G1 X147.938 Y26.436 E59.1706
G1 X148.819 Y26.647 E59.21761
G1 X149.678 Y26.935 E59.26462
G1 X150.508 Y27.298 E59.31162
G1 X151.303 Y27.732 E59.35861
G1 X152.056 Y28.235 E59.4056
G1 X152.762 Y28.802 E59.45258
G1 X153.416 Y29.429 E59.49959
G1 X154.011 Y30.112 E59.54659
G1 X154.545 Y30.844 E59.5936
G1 X155.011 Y31.62 E59.64057
G1 X155.407 Y32.435 E59.68758
G1 X155.73 Y33.281 E59.73457
G1 X155.977 Y34.153 E59.78159
G1 X156.146 Y35.043 E59.8286
G1 X156.247 Y36.222 E59.88999
G1 X156.256 Y36.542 E59.9066
G1 X156.26 Y36.83 E59.92155
G1 X156.26 Y76.21 E61.96481
G1 X156.259 Y137.905 E65.16591
G1 X156.249 Y138.632 E65.20363
G1 X156.197 Y139.536 E65.25061
G1 X156.065 Y140.432 E65.29761
G1 X155.854 Y141.313 E65.34461
G1 X155.567 Y142.172 E65.3916
G1 X155.205 Y143.003 E65.43863
G1 X154.771 Y143.798 E65.48563
G1 X154.269 Y144.552 E65.53263
G1 X153.702 Y145.258 E65.57961
G1 X153.075 Y145.912 E65.62662
G1 X152.393 Y146.508 E65.67361
G1 X151.661 Y147.041 E65.72059
G1 X150.885 Y147.508 E65.76759
G1 X150.071 Y147.905 E65.81458
G1 X149.224 Y148.228 E65.86161
G1 X148.353 Y148.475 E65.90859
G1 X147.463 Y148.645 E65.9556
G1 X146.278 Y148.747 E66.01731
G1 X145.958 Y148.756 E66.03392
G1 X145.67 Y148.76 E66.04887
G1 X29.575 Y148.759 E72.07255
G1 X28.877 Y148.75 E72.10877
G1 X27.972 Y148.699 E72.1558
G1 X27.076 Y148.567 E72.20279
G1 X26.195 Y148.358 E72.24977
G1 X25.336 Y148.071 E72.29676
G1 X24.505 Y147.71 E72.34377
G1 X23.71 Y147.277 E72.39074
G1 X22.956 Y146.775 E72.43774
G1 X22.249 Y146.209 E72.48473
G1 X21.594 Y145.582 E72.53178
G1 X20.998 Y144.901 E72.57873
G1 X20.464 Y144.169 E72.62575
G1 X19.996 Y143.394 E72.67272
G1 X19.599 Y142.58 E72.71971
G1 X19.275 Y141.734 E72.76672
G1 X19.027 Y140.863 E72.81371
G1 X18.857 Y139.973 E72.86072
G1 X18.753 Y138.768 E72.92347
G1 X18.744 Y138.435 E72.94076
G1 X18.74 Y138.158 E72.95513
G1 X18.741 Y37.035 E78.20198
G1 X18.75 Y36.37 E78.23649
G1 X18.802 Y35.466 E78.28347
G1 X18.934 Y34.57 E78.33046
G1 X19.144 Y33.689 E78.37745
G1 X19.431 Y32.83 E78.42445
G1 X19.793 Y31.999 E78.47148
G1 X20.227 Y31.204 E78.51847
G1 X20.729 Y30.45 E78.56547
G1 X21.296 Y29.744 E78.61245
G1 X21.922 Y29.09 E78.65943
G1 X22.604 Y28.494 E78.70642
G1 F1500 E77.90642
G0 F6000 X146.122 Y35.839
G0 X146.661 Y36.378
G0 X146.661 Y71.122
G0 X144.12 Y73.62
G1 F1500 E78.70642
G1 F900 X144.18 Y73.62 E78.70953
G1 X144.18 Y74.38 E78.74897
G1 X144.12 Y74.38 E78.75208
G1 X144.12 Y73.62 E78.79151
G0 F6000 X143.6 Y73.1
G1 F900 X144.7 Y73.1 E78.84859
G1 X144.7 Y74.9 E78.94198
G1 X143.6 Y74.9 E78.99906
G1 X143.6 Y73.1 E79.09245
G0 F6000 X143.08 Y72.58
G1 F900 X145.22 Y72.58 E79.20349
G1 X145.22 Y75.42 E79.35084
G1 X143.08 Y75.42 E79.46188
G1 X143.08 Y72.58 E79.60923
G0 F6000 X142.56 Y72.06
G1 F900 X145.74 Y72.06 E79.77423
G1 X145.74 Y75.94 E79.97555
G1 X142.56 Y75.94 E80.14054
G1 X142.56 Y72.06 E80.34186
G1 F1500 E79.54186
G0 F6000 X136.28 Y46.22
G0 X136.673 Y45.827
G1 F1500 E80.34186
G1 F900 X136.673 Y102.239 E83.26884
G1 X38.327 Y102.239 E88.37161
G1 X38.326 Y45.826 E91.29864
G1 X136.673 Y45.827 E96.40145
G1 F1500 E95.60145
G0 F6000 X136.28 Y46.22
G0 X136.26 Y100.218
G1 F1500 E96.40145
G1 F900 X136.26 Y46.782 E99.17402
G1 X136.184 Y46.598 E99.18435
G1 X135.902 Y46.316 E99.20505
G1 X135.718 Y46.24 E99.21538
G1 X39.282 Y46.24 E104.21904
G1 X39.098 Y46.316 E104.22936
G1 X38.816 Y46.598 E104.25006
G1 X38.74 Y46.782 E104.26039
G1 X38.74 Y100.218 E107.03296
G1 X38.816 Y100.402 E107.04329
G1 X39.098 Y100.684 E107.06398
G1 X39.282 Y100.76 E107.07431
G1 X135.718 Y100.76 E112.07797
G1 X135.902 Y100.684 E112.0883
G1 X136.184 Y100.402 E112.10899
G1 X136.26 Y100.218 E112.11932
G0 F6000 X136.153 Y101.124
G1 F900 X136.153 Y101.719 E112.15019
G1 X38.847 Y101.719 E117.19899
G1 X38.847 Y101.136 E117.22924
G1 X38.932 Y101.197 E117.23467
G1 X39.282 Y101.28 E117.25333
G1 X135.718 Y101.28 E122.25699
G1 X135.964 Y101.24 E122.26992
G1 X136.153 Y101.124 E122.28143
G0 F6000 X142.56 Y103.56
G1 F900 X145.74 Y103.56 E122.44643
G1 X145.74 Y108.44 E122.69963
G1 X142.56 Y108.44 E122.86463
G1 X142.56 Y103.56 E123.11783
G0 F6000 X143.08 Y104.08
G1 F900 X145.22 Y104.08 E123.22887
G1 X145.22 Y107.92 E123.42811
G1 X143.08 Y107.92 E123.53914
G1 X143.08 Y104.08 E123.73838
G0 F6000 X143.6 Y104.6
G1 F900 X144.7 Y104.6 E123.79546
G1 X144.7 Y107.4 E123.94074
G1 X143.6 Y107.4 E123.99781
G1 X143.6 Y104.6 E124.14309
G0 F6000 X144.12 Y105.12
G1 F900 X144.18 Y105.12 E124.14621
G1 X144.18 Y106.88 E124.23753
G1 X144.12 Y106.88 E124.24064
G1 X144.12 Y105.12 E124.33196
G0 F6000 X127.74 Y115.56
G1 F900 X127.74 Y118.24 E124.47101
G1 X124.755 Y118.24 E124.62589
G1 X124.76 Y118.227 E124.62661
G1 X124.76 Y115.56 E124.76499
G1 X127.74 Y115.56 E124.91961
G0 F6000 X127.22 Y116.08
G1 F900 X127.22 Y117.72 E125.00471
G1 X125.28 Y117.72 E125.10536
G1 X125.28 Y116.08 E125.19046
G1 X127.22 Y116.08 E125.29112
G0 F6000 X126.7 Y116.6
G1 F900 X126.7 Y117.2 E125.32225
G1 X125.8 Y117.2 E125.36894
G1 X125.8 Y116.6 E125.40008
G1 X126.7 Y116.6 E125.44677
G0 F6000 X101.74 Y115.56
G1 F900 X101.74 Y118.218 E125.58469
G1 X101.749 Y118.24 E125.58592
G1 X97.26 Y118.24 E125.81883
G1 X97.26 Y115.56 E125.95789
G1 X101.74 Y115.56 E126.19034
G0 F6000 X101.22 Y116.08
G1 F900 X101.22 Y117.72 E126.27543
G1 X97.78 Y117.72 E126.45392
G1 X97.78 Y116.08 E126.53901
G1 X101.22 Y116.08 E126.7175
G0 F6000 X100.7 Y116.6
G1 F900 X100.7 Y117.2 E126.74863
G1 X98.3 Y117.2 E126.87315
G1 X98.3 Y116.6 E126.90429
G1 X100.7 Y116.6 E127.02881
G1 F1500 E126.22881
G0 F6000 X136.28 Y101.846
G0 X137.133 Y102.699
;TYPE:SUPPORT-INTERFACE
G1 F1500 E127.02881
G1 F900 X137.133 Y45.367 E130.00353
G1 X37.866 Y45.366 E135.15408
G1 X37.867 Y102.699 E138.12885
G1 X137.133 Y102.699 E143.27934
G1 F1500 E142.47934
G0 F6000 X136.28 Y101.846
G0 X142.165 Y107.499
G0 X139.666 Y107.499
G1 F1500 E143.27934
G1 F900 X35.334 Y107.499 E148.69269
G1 X35.333 Y42.833 E152.04794
G1 X139.666 Y42.834 E157.46134
G1 X139.666 Y107.499 E160.81654
G0 F6000 X137.845 Y107.298
G1 F900 X133.445 Y102.898 E161.1394
G0 F6000 X134.689 Y102.898
G1 F900 X130.288 Y107.299 E161.46234
G0 F6000 X131.057 Y107.298
G1 F900 X126.657 Y102.898 E161.7852
G0 F6000 X127.901 Y102.898
G1 F900 X123.5 Y107.299 E162.10813
G0 F6000 X124.269 Y107.298
G1 F900 X119.869 Y102.898 E162.43099
G0 F6000 X121.113 Y102.898
G1 F900 X116.712 Y107.299 E162.75393
G0 F6000 X117.48 Y107.298
G1 F900 X113.081 Y102.898 E163.07675
G0 F6000 X114.325 Y102.898
G1 F900 X109.923 Y107.299 E163.39973
G0 F6000 X110.692 Y107.298
G1 F900 X106.292 Y102.898 E163.72259
G0 F6000 X107.536 Y102.898
G1 F900 X103.135 Y107.299 E164.04552
G0 F6000 X103.904 Y107.298
G1 F900 X99.504 Y102.898 E164.36838
G0 F6000 X100.748 Y102.898
G1 F900 X96.347 Y107.299 E164.69132
G0 F6000 X97.116 Y107.298
G1 F900 X92.716 Y102.898 E165.01418
G0 F6000 X93.96 Y102.898
G1 F900 X89.559 Y107.299 E165.33711
G0 F6000 X90.327 Y107.298
G1 F900 X85.928 Y102.898 E165.65994
G0 F6000 X87.172 Y102.898
G1 F900 X82.771 Y107.299 E165.98287
G0 F6000 X83.539 Y107.298
G1 F900 X79.14 Y102.898 E166.3057
G0 F6000 X80.383 Y102.898
G1 F900 X75.982 Y107.299 E166.62863
G0 F6000 X76.751 Y107.298
G1 F900 X72.351 Y102.898 E166.9515
G0 F6000 X73.595 Y102.898
G1 F900 X69.194 Y107.299 E167.27443
G0 F6000 X69.963 Y107.298
G1 F900 X65.563 Y102.898 E167.59729
G0 F6000 X66.807 Y102.898
G1 F900 X62.406 Y107.299 E167.92023
G0 F6000 X63.175 Y107.298
G1 F900 X58.775 Y102.898 E168.24309
G0 F6000 X60.019 Y102.898
G1 F900 X55.618 Y107.299 E168.56602
G0 F6000 X56.386 Y107.298
G1 F900 X51.987 Y102.898 E168.88885
G0 F6000 X53.23 Y102.898
G1 F900 X48.829 Y107.299 E169.21178
G0 F6000 X49.598 Y107.298
G1 F900 X45.198 Y102.898 E169.53464
G0 F6000 X46.442 Y102.898
G1 F900 X42.041 Y107.299 E169.85758
G0 F6000 X42.81 Y107.298
G1 F900 X38.41 Y102.898 E170.18044
G0 F6000 X37.667 Y102.155
G1 F900 X35.533 Y100.021 E170.33703
G0 F6000 X35.534 Y100.23
G1 F900 X37.666 Y98.097 E170.49351
G0 F6000 X37.667 Y98.761
G1 F900 X35.533 Y96.627 E170.65009
G0 F6000 X35.534 Y96.836
G1 F900 X37.666 Y94.703 E170.80657
G0 F6000 X37.667 Y95.367
G1 F900 X35.533 Y93.233 E170.96316
G0 F6000 X35.534 Y93.442
G1 F900 X37.666 Y91.309 E171.11964
G0 F6000 X37.667 Y91.973
G1 F900 X35.533 Y89.839 E171.27623
G0 F6000 X35.534 Y90.047
G1 F900 X37.666 Y87.915 E171.43267
G0 F6000 X37.667 Y88.579
G1 F900 X35.533 Y86.445 E171.58925
G0 F6000 X35.534 Y86.653
G1 F900 X37.666 Y84.521 E171.7457
G0 F6000 X37.667 Y85.185
G1 F900 X35.533 Y83.051 E171.90228
G0 F6000 X35.534 Y83.259
G1 F900 X37.666 Y81.127 E172.05872
G0 F6000 X37.667 Y81.791
G1 F900 X35.533 Y79.656 E172.21535
G0 F6000 X35.534 Y79.865
G1 F900 X37.666 Y77.732 E172.37183
G0 F6000 X37.667 Y78.396
G1 F900 X35.533 Y76.262 E172.52841
G0 F6000 X35.534 Y76.471
G1 F900 X37.666 Y74.338 E172.68489
G0 F6000 X37.667 Y75.002
G1 F900 X35.532 Y72.868 E172.84152
G0 F6000 X35.533 Y73.078
G1 F900 X37.666 Y70.945 E172.99803
G0 F6000 X37.666 Y71.607
G1 F900 X35.532 Y69.473 E173.15462
G0 F6000 X35.533 Y69.683
G1 F900 X37.666 Y67.551 E173.3111
G0 F6000 X37.666 Y68.213
G1 F900 X35.532 Y66.079 E173.46768
G0 F6000 X35.533 Y66.289
G1 F900 X37.666 Y64.157 E173.62416
G0 F6000 X37.666 Y64.819
G1 F900 X35.532 Y62.685 E173.78075
G0 F6000 X35.533 Y62.895
