;FLAVOR:Marlin
;TIME:20228
;Filament used: 12.3025m
;Layer height: 0.2
;MINX:20.94
;MINY:28.44
;MINZ:0.2
;MAXX:154.06
;MAXY:146.56
;MAXZ:46
;Generated with Creality Slicer 4.8.2-205
M140 S50
M105
M190 S50
M104 S195
M105
M109 S195
M82 ;absolute extrusion mode
G28 ;Home

G92 E0 ;Reset Extruder
G1 Z2.0 F3000 ;Move Z Axis up
G1 X10.1 Y20 Z0.28 F5000.0 ;Move to start position
G1 X10.1 Y170.0 Z0.28 F1500.0 E12 ;Draw the first line
G1 X10.4 Y170.0 Z0.28 F5000.0 ;Move to side a little
G1 X10.4 Y20 Z0.28 F1500.0 E25 ;Draw the second line
G92 E0 ;Reset Extruder
G1 Z2.0 F3000 ;Move Z Axis up

G92 E0
G92 E0
G1 F1500 E-0.8
;LAYER_COUNT:230
;LAYER:0
M107
G0 F6000 X24.048 Y30.262 Z0.2
;TYPE:SKIRT
G1 F1500 E0
G1 F900 X24.694 Y29.785 E0.04167
G1 X25.384 Y29.375 E0.08331
G1 X26.111 Y29.036 E0.12493
G1 X26.869 Y28.77 E0.16661
G1 X27.649 Y28.581 E0.20825
G1 X28.444 Y28.471 E0.2499
G1 X29.152 Y28.44 E0.28667
G1 X145.848 Y28.44 E6.34153
G1 X146.65 Y28.48 E6.3832
G1 X147.444 Y28.6 E6.42486
G1 X148.222 Y28.797 E6.4665
G1 X148.976 Y29.072 E6.50815
G1 X149.699 Y29.42 E6.54978
G1 X150.385 Y29.838 E6.59146
G1 X151.025 Y30.322 E6.63309
G1 X151.547 Y30.801 E6.66985
G1 X151.699 Y30.953 E6.68101
G1 X152.238 Y31.548 E6.72266
G1 X152.715 Y32.194 E6.76433
G1 X153.125 Y32.884 E6.80597
G1 X153.464 Y33.611 E6.84759
G1 X153.73 Y34.369 E6.88927
G1 X153.919 Y35.149 E6.93091
G1 X154.029 Y35.944 E6.97256
G1 X154.06 Y36.652 E7.00933
G1 X154.06 Y70.848 E8.78361
G1 X154.04 Y71.256 E8.80481
G1 X154.06 Y71.8 E8.83305
G1 X154.06 Y76.2 E9.06135
G1 X154.038 Y76.645 E9.08447
G1 X154.06 Y77.152 E9.1108
G1 X154.06 Y102.348 E10.41811
G1 X154.04 Y102.756 E10.43931
G1 X154.06 Y103.3 E10.46755
G1 X154.06 Y108.7 E10.74774
G1 X154.038 Y109.145 E10.77086
G1 X154.06 Y109.652 E10.79719
G1 X154.06 Y138.348 E12.2861
G1 X154.02 Y139.15 E12.32777
G1 X153.9 Y139.944 E12.36943
G1 X153.703 Y140.722 E12.41107
G1 X153.428 Y141.476 E12.45271
G1 X153.08 Y142.199 E12.49435
G1 X152.662 Y142.885 E12.53603
G1 X152.178 Y143.525 E12.57766
G1 X151.699 Y144.047 E12.61442
G1 X151.547 Y144.199 E12.62557
G1 X150.952 Y144.738 E12.66723
G1 X150.306 Y145.215 E12.7089
G1 X149.616 Y145.625 E12.75054
G1 X148.889 Y145.964 E12.79216
G1 X148.131 Y146.23 E12.83384
G1 X147.351 Y146.419 E12.87548
G1 X146.556 Y146.529 E12.91713
G1 X145.848 Y146.56 E12.9539
G1 X29.152 Y146.56 E19.00876
G1 X28.35 Y146.52 E19.05043
G1 X27.556 Y146.4 E19.09209
G1 X26.778 Y146.203 E19.13373
G1 X26.024 Y145.928 E19.17538
G1 X25.301 Y145.58 E19.21701
G1 X24.615 Y145.162 E19.25869
G1 X23.975 Y144.678 E19.30032
G1 X23.453 Y144.199 E19.33708
G1 X23.301 Y144.047 E19.34824
G1 X22.762 Y143.452 E19.38989
G1 X22.285 Y142.806 E19.43156
G1 X21.875 Y142.116 E19.4732
G1 X21.536 Y141.389 E19.51482
G1 X21.27 Y140.631 E19.5565
G1 X21.081 Y139.851 E19.59815
G1 X20.971 Y139.056 E19.63979
G1 X20.94 Y138.348 E19.67656
G1 X20.94 Y36.652 E24.95314
G1 X20.98 Y35.85 E24.9948
G1 X21.1 Y35.056 E25.03647
G1 X21.297 Y34.278 E25.07811
G1 X21.572 Y33.524 E25.11975
G1 X21.92 Y32.801 E25.16138
G1 X22.338 Y32.115 E25.20306
G1 X22.822 Y31.475 E25.2447
G1 X23.301 Y30.953 E25.28146
G1 X23.453 Y30.801 E25.29261
G1 X24.048 Y30.262 E25.33427
G0 F6000 X24.397 Y30.648
G1 F900 X25.024 Y30.19 E25.37455
G1 X25.695 Y29.799 E25.41485
G1 X26.402 Y29.479 E25.45511
G1 X27.139 Y29.234 E25.49541
G1 X27.896 Y29.065 E25.53566
G1 X28.668 Y28.976 E25.57598
G1 X29.152 Y28.96 E25.6011
G1 X145.848 Y28.96 E31.65597
G1 X146.623 Y29 E31.69624
G1 X147.391 Y29.119 E31.73656
G1 X148.141 Y29.317 E31.77681
G1 X148.868 Y29.591 E31.81712
G1 X149.562 Y29.938 E31.85738
G1 X150.217 Y30.355 E31.89766
G1 X150.826 Y30.837 E31.93796
G1 X151.18 Y31.168 E31.96311
G1 X151.332 Y31.32 E31.97426
G1 X151.852 Y31.897 E32.01456
G1 X152.31 Y32.524 E32.05485
G1 X152.701 Y33.195 E32.09515
G1 X153.021 Y33.902 E32.13541
G1 X153.266 Y34.639 E32.17571
G1 X153.435 Y35.396 E32.21595
G1 X153.524 Y36.168 E32.25628
G1 X153.54 Y36.652 E32.2814
G1 X153.54 Y70.848 E34.05569
G1 X153.513 Y71.375 E34.08307
G1 X153.54 Y71.8 E34.10516
G1 X153.54 Y76.2 E34.33346
G1 X153.518 Y76.619 E34.35523
G1 X153.524 Y76.668 E34.35779
G1 X153.54 Y77.152 E34.38292
G1 X153.54 Y102.348 E35.69023
G1 X153.513 Y102.875 E35.71761
G1 X153.54 Y103.3 E35.73971
G1 X153.54 Y108.7 E36.01989
G1 X153.518 Y109.119 E36.04166
G1 X153.524 Y109.168 E36.04423
G1 X153.54 Y109.652 E36.06935
G1 X153.54 Y138.348 E37.55827
G1 X153.5 Y139.123 E37.59853
G1 X153.381 Y139.891 E37.63886
G1 X153.183 Y140.641 E37.6791
G1 X152.909 Y141.368 E37.71941
G1 X152.562 Y142.062 E37.75967
G1 X152.145 Y142.717 E37.79996
G1 X151.663 Y143.326 E37.84026
G1 X151.332 Y143.68 E37.86541
G1 X151.18 Y143.832 E37.87656
G1 X150.603 Y144.352 E37.91686
G1 X149.976 Y144.81 E37.95715
G1 X149.305 Y145.201 E37.99744
G1 X148.598 Y145.521 E38.03771
G1 X147.861 Y145.766 E38.07801
G1 X147.104 Y145.935 E38.11825
G1 X146.332 Y146.024 E38.15857
G1 X145.848 Y146.04 E38.1837
G1 X29.152 Y146.04 E44.23856
G1 X28.377 Y146 E44.27883
G1 X27.609 Y145.881 E44.31915
G1 X26.859 Y145.683 E44.3594
G1 X26.132 Y145.409 E44.39971
G1 X25.438 Y145.062 E44.43997
G1 X24.783 Y144.645 E44.48026
G1 X24.174 Y144.163 E44.52056
G1 X23.82 Y143.832 E44.5457
G1 X23.668 Y143.68 E44.55686
G1 X23.148 Y143.103 E44.59716
G1 X22.69 Y142.476 E44.63745
G1 X22.299 Y141.805 E44.67774
G1 X21.979 Y141.098 E44.71801
G1 X21.734 Y140.361 E44.7583
G1 X21.565 Y139.604 E44.79855
G1 X21.476 Y138.832 E44.83887
G1 X21.46 Y138.348 E44.864
G1 X21.46 Y36.652 E50.14058
G1 X21.5 Y35.877 E50.18084
G1 X21.619 Y35.109 E50.22116
G1 X21.817 Y34.359 E50.26141
G1 X22.091 Y33.632 E50.30172
G1 X22.438 Y32.938 E50.34198
G1 X22.855 Y32.283 E50.38227
G1 X23.337 Y31.674 E50.42257
G1 X23.668 Y31.32 E50.44771
G1 X23.82 Y31.168 E50.45887
G1 X24.397 Y30.648 E50.49917
G0 F6000 X24.745 Y31.035
G1 F900 X25.353 Y30.597 E50.53805
G1 X26.003 Y30.226 E50.57688
G1 X26.69 Y29.926 E50.61578
G1 X27.405 Y29.701 E50.65467
G1 X28.139 Y29.553 E50.69352
G1 X29.152 Y29.48 E50.74622
G1 X145.848 Y29.48 E56.80108
G1 X146.596 Y29.52 E56.83995
G1 X147.336 Y29.639 E56.87884
G1 X148.058 Y29.837 E56.91768
G1 X148.756 Y30.11 E56.95657
G1 X149.42 Y30.457 E56.99544
G1 X150.044 Y30.872 E57.03433
G1 X150.812 Y31.536 E57.087
G1 X150.964 Y31.688 E57.09816
G1 X151.465 Y32.245 E57.13703
G1 X151.903 Y32.853 E57.17591
G1 X152.274 Y33.503 E57.21474
G1 X152.574 Y34.19 E57.25364
G1 X152.799 Y34.905 E57.29253
G1 X152.947 Y35.639 E57.33138
G1 X153.02 Y36.652 E57.38408
G1 X153.02 Y70.848 E59.15836
G1 X152.998 Y71.253 E59.17941
G1 X153 Y71.266 E59.18009
G1 X153.02 Y71.8 E59.20782
G1 X153.02 Y76.2 E59.43611
G1 X152.991 Y76.746 E59.46448
G1 X153.02 Y77.152 E59.4856
G1 X153.02 Y102.348 E60.79292
G1 X152.998 Y102.753 E60.81396
G1 X153 Y102.766 E60.81465
G1 X153.02 Y103.3 E60.84237
G1 X153.02 Y108.7 E61.12256
G1 X152.991 Y109.246 E61.15093
G1 X153.02 Y109.652 E61.17204
G1 X153.02 Y138.348 E62.66096
G1 X152.98 Y139.096 E62.69983
G1 X152.861 Y139.836 E62.73871
G1 X152.663 Y140.558 E62.77756
G1 X152.39 Y141.256 E62.81645
G1 X152.043 Y141.92 E62.85532
G1 X151.628 Y142.544 E62.8942
G1 X150.964 Y143.312 E62.94688
G1 X150.812 Y143.464 E62.95803
G1 X150.255 Y143.965 E62.9969
G1 X149.647 Y144.403 E63.03578
G1 X148.997 Y144.774 E63.07462
G1 X148.31 Y145.074 E63.11351
G1 X147.595 Y145.299 E63.15241
G1 X146.861 Y145.447 E63.19126
G1 X145.848 Y145.52 E63.24395
G1 X29.152 Y145.52 E69.29882
G1 X28.404 Y145.48 E69.33768
G1 X27.664 Y145.361 E69.37657
G1 X26.942 Y145.163 E69.41542
G1 X26.244 Y144.89 E69.45431
G1 X25.58 Y144.543 E69.49318
G1 X24.956 Y144.128 E69.53206
G1 X24.188 Y143.464 E69.58474
G1 X24.036 Y143.312 E69.59589
G1 X23.535 Y142.755 E69.63476
G1 X23.097 Y142.147 E69.67364
G1 X22.726 Y141.497 E69.71248
G1 X22.426 Y140.81 E69.75137
G1 X22.201 Y140.095 E69.79026
G1 X22.053 Y139.361 E69.82912
G1 X21.98 Y138.348 E69.88181
G1 X21.98 Y36.652 E75.15839
G1 X22.02 Y35.904 E75.19726
G1 X22.139 Y35.164 E75.23615
G1 X22.337 Y34.442 E75.27499
G1 X22.61 Y33.744 E75.31388
G1 X22.957 Y33.08 E75.35275
G1 X23.372 Y32.456 E75.39163
G1 X24.036 Y31.688 E75.44431
G1 X24.188 Y31.536 E75.45546
G1 X24.745 Y31.035 E75.49434
G0 F6000 X25.093 Y31.423
G1 F900 X25.68 Y31.005 E75.53173
G1 X26.31 Y30.654 E75.56914
G1 X26.975 Y30.376 E75.60654
G1 X27.666 Y30.172 E75.64393
G1 X28.376 Y30.046 E75.68134
G1 X29.152 Y30 E75.72167
G1 X145.848 Y30 E81.77654
G1 X146.568 Y30.04 E81.81396
G1 X147.279 Y30.159 E81.85136
G1 X147.972 Y30.357 E81.88876
G1 X148.639 Y30.63 E81.92615
G1 X149.272 Y30.975 E81.96356
G1 X149.863 Y31.388 E82.00097
G1 X150.444 Y31.904 E82.04128
G1 X150.596 Y32.056 E82.05244
G1 X151.077 Y32.593 E82.08984
G1 X151.495 Y33.18 E82.12723
G1 X151.846 Y33.81 E82.16465
G1 X152.124 Y34.475 E82.20205
G1 X152.328 Y35.166 E82.23943
G1 X152.454 Y35.876 E82.27685
G1 X152.5 Y36.652 E82.31718
G1 X152.5 Y70.848 E84.09147
G1 X152.472 Y71.361 E84.11812
G1 X152.5 Y71.8 E84.14095
G1 X152.5 Y76.2 E84.36925
G1 X152.473 Y76.691 E84.39476
G1 X152.5 Y77.152 E84.41872
G1 X152.5 Y102.348 E85.72604
G1 X152.472 Y102.861 E85.75269
G1 X152.5 Y103.3 E85.77552
G1 X152.5 Y108.7 E86.0557
G1 X152.473 Y109.191 E86.08122
G1 X152.5 Y109.652 E86.10518
G1 X152.5 Y138.348 E87.59409
G1 X152.46 Y139.068 E87.63151
G1 X152.341 Y139.779 E87.66891
G1 X152.143 Y140.472 E87.70631
G1 X151.87 Y141.139 E87.7437
G1 X151.525 Y141.772 E87.78111
G1 X151.112 Y142.363 E87.81852
G1 X150.596 Y142.944 E87.85883
G1 X150.444 Y143.096 E87.86999
G1 X149.907 Y143.577 E87.90739
G1 X149.32 Y143.995 E87.94478
G1 X148.69 Y144.346 E87.9822
G1 X148.025 Y144.624 E88.0196
G1 X147.334 Y144.828 E88.05698
G1 X146.624 Y144.954 E88.0944
G1 X145.848 Y145 E88.13473
G1 X29.152 Y145 E94.1896
G1 X28.432 Y144.96 E94.22701
G1 X27.721 Y144.841 E94.26442
G1 X27.028 Y144.643 E94.30181
G1 X26.361 Y144.37 E94.33921
G1 X25.728 Y144.025 E94.37661
G1 X25.137 Y143.612 E94.41402
G1 X24.556 Y143.096 E94.45434
G1 X24.404 Y142.944 E94.46549
G1 X23.923 Y142.407 E94.5029
G1 X23.505 Y141.82 E94.54029
G1 X23.154 Y141.19 E94.57771
G1 X22.876 Y140.525 E94.61511
G1 X22.672 Y139.834 E94.65249
G1 X22.546 Y139.124 E94.6899
G1 X22.5 Y138.348 E94.73024
G1 X22.5 Y36.652 E100.00682
G1 X22.54 Y35.932 E100.04423
G1 X22.659 Y35.221 E100.08164
G1 X22.857 Y34.528 E100.11903
G1 X23.13 Y33.861 E100.15643
G1 X23.475 Y33.228 E100.19383
G1 X23.888 Y32.637 E100.23124
G1 X24.404 Y32.056 E100.27156
G1 X24.556 Y31.904 E100.28271
G1 X25.093 Y31.423 E100.32012
G0 F6000 X25.44 Y31.812
G1 F900 X26.006 Y31.415 E100.35599
G1 X26.614 Y31.085 E100.39188
G1 X27.256 Y30.829 E100.42775
G1 X27.923 Y30.648 E100.4636
G1 X28.607 Y30.545 E100.49949
G1 X29.152 Y30.52 E100.5278
G1 X145.848 Y30.52 E106.58267
G1 X146.538 Y30.56 E106.61853
G1 X147.219 Y30.679 E106.6544
G1 X147.882 Y30.877 E106.6903
G1 X148.517 Y31.149 E106.72614
G1 X149.117 Y31.493 E106.76203
G1 X149.673 Y31.903 E106.79787
G1 X150.076 Y32.272 E106.82622
G1 X150.228 Y32.424 E106.83738
G1 X150.688 Y32.94 E106.87324
G1 X151.085 Y33.506 E106.90912
G1 X151.415 Y34.114 E106.94501
G1 X151.671 Y34.756 E106.98087
G1 X151.852 Y35.423 E107.01673
G1 X151.955 Y36.107 E107.05262
G1 X151.98 Y36.652 E107.08093
G1 X151.98 Y70.848 E108.85522
G1 X151.954 Y71.296 E108.8785
G1 X151.967 Y71.4 E108.88394
G1 X151.98 Y71.8 E108.9047
G1 X151.98 Y76.2 E109.133
G1 X151.956 Y76.621 E109.15488
G1 X151.98 Y77.152 E109.18246
G1 X151.98 Y102.348 E110.48977
G1 X151.954 Y102.796 E110.51306
G1 X151.967 Y102.9 E110.5185
G1 X151.98 Y103.3 E110.53926
G1 X151.98 Y108.7 E110.81944
G1 X151.956 Y109.121 E110.84132
G1 X151.98 Y109.652 E110.8689
G1 X151.98 Y138.348 E112.35782
G1 X151.94 Y139.038 E112.39368
G1 X151.821 Y139.719 E112.42955
G1 X151.623 Y140.382 E112.46545
G1 X151.351 Y141.017 E112.50129
G1 X151.007 Y141.617 E112.53718
G1 X150.597 Y142.173 E112.57302
G1 X150.228 Y142.576 E112.60137
G1 X150.076 Y142.728 E112.61253
G1 X149.56 Y143.188 E112.6484
G1 X148.994 Y143.585 E112.68427
G1 X148.386 Y143.915 E112.72016
G1 X147.744 Y144.171 E112.75602
G1 X147.077 Y144.352 E112.79188
G1 X146.393 Y144.455 E112.82777
G1 X145.848 Y144.48 E112.85608
G1 X29.152 Y144.48 E118.91094
G1 X28.462 Y144.44 E118.94681
G1 X27.781 Y144.321 E118.98268
G1 X27.118 Y144.123 E119.01858
G1 X26.483 Y143.851 E119.05442
G1 X25.883 Y143.507 E119.09031
G1 X25.327 Y143.097 E119.12615
G1 X24.924 Y142.728 E119.1545
G1 X24.772 Y142.576 E119.16565
G1 X24.312 Y142.06 E119.20152
G1 X23.915 Y141.494 E119.23739
G1 X23.585 Y140.886 E119.27329
G1 X23.329 Y140.244 E119.30915
G1 X23.148 Y139.577 E119.34501
G1 X23.045 Y138.893 E119.3809
G1 X23.02 Y138.348 E119.4092
G1 X23.02 Y36.652 E124.68578
G1 X23.06 Y35.962 E124.72165
G1 X23.179 Y35.281 E124.75751
G1 X23.377 Y34.618 E124.79342
G1 X23.649 Y33.983 E124.82926
G1 X23.993 Y33.383 E124.86514
G1 X24.403 Y32.827 E124.90099
G1 X24.772 Y32.424 E124.92934
G1 X24.924 Y32.272 E124.94049
G1 X25.44 Y31.812 E124.97636
G0 F6000 X25.786 Y32.201
G1 F900 X26.33 Y31.826 E125.01064
G1 X26.915 Y31.519 E125.04492
G1 X27.533 Y31.286 E125.07919
G1 X28.174 Y31.128 E125.11344
G1 X29.152 Y31.04 E125.16439
G1 X145.848 Y31.04 E131.21926
G1 X146.507 Y31.08 E131.25352
G1 X147.157 Y31.199 E131.2878
G1 X147.788 Y31.396 E131.3221
G1 X148.39 Y31.668 E131.35638
G1 X148.955 Y32.01 E131.39064
G1 X149.709 Y32.639 E131.44159
G1 X149.861 Y32.791 E131.45275
G1 X150.299 Y33.286 E131.48704
G1 X150.674 Y33.83 E131.52132
G1 X150.981 Y34.415 E131.5556
G1 X151.214 Y35.033 E131.58987
G1 X151.372 Y35.674 E131.62412
G1 X151.46 Y36.652 E131.67507
G1 X151.46 Y70.848 E133.44936
G1 X151.431 Y71.318 E133.47379
G1 X151.46 Y71.8 E133.49885
G1 X151.46 Y76.2 E133.72714
G1 X151.425 Y76.769 E133.75672
G1 X151.46 Y77.152 E133.77668
G1 X151.46 Y102.348 E135.08399
G1 X151.431 Y102.818 E135.10843
G1 X151.46 Y103.3 E135.13348
G1 X151.46 Y108.7 E135.41366
G1 X151.425 Y109.269 E135.44324
G1 X151.46 Y109.652 E135.4632
G1 X151.46 Y138.348 E136.95211
G1 X151.42 Y139.007 E136.98637
G1 X151.301 Y139.657 E137.02066
G1 X151.104 Y140.288 E137.05495
G1 X150.832 Y140.89 E137.08923
G1 X150.49 Y141.455 E137.1235
G1 X149.861 Y142.209 E137.17444
G1 X149.709 Y142.361 E137.1856
G1 X149.214 Y142.799 E137.21989
G1 X148.67 Y143.174 E137.25417
G1 X148.085 Y143.481 E137.28845
G1 X147.467 Y143.714 E137.32272
G1 X146.826 Y143.872 E137.35698
G1 X145.848 Y143.96 E137.40793
G1 X29.152 Y143.96 E143.46279
G1 X28.493 Y143.92 E143.49705
G1 X27.843 Y143.801 E143.53133
G1 X27.212 Y143.604 E143.56563
G1 X26.61 Y143.332 E143.59991
G1 X26.045 Y142.99 E143.63418
G1 X25.291 Y142.361 E143.68512
G1 X25.139 Y142.209 E143.69628
G1 X24.701 Y141.714 E143.73057
G1 X24.326 Y141.17 E143.76485
G1 X24.019 Y140.585 E143.79913
G1 X23.786 Y139.967 E143.8334
G1 X23.628 Y139.326 E143.86766
G1 X23.54 Y138.348 E143.91861
G1 X23.54 Y36.652 E149.19518
G1 X23.58 Y35.993 E149.22944
G1 X23.699 Y35.343 E149.26373
G1 X23.896 Y34.712 E149.29803
G1 X24.168 Y34.11 E149.3323
G1 X24.51 Y33.545 E149.36657
G1 X25.139 Y32.791 E149.41752
G1 X25.291 Y32.639 E149.42867
G1 X25.786 Y32.201 E149.46296
G0 F6000 X26.131 Y32.592
G1 F900 X26.651 Y32.24 E149.49554
G1 X27.212 Y31.957 E149.52815
G1 X27.804 Y31.747 E149.56074
G1 X28.419 Y31.615 E149.59337
G1 X29.152 Y31.56 E149.63151
G1 X145.848 Y31.56 E155.68638
G1 X146.475 Y31.6 E155.71898
G1 X147.092 Y31.719 E155.75158
G1 X147.689 Y31.916 E155.7842
G1 X148.256 Y32.187 E155.81681
G1 X148.784 Y32.527 E155.84939
G1 X149.341 Y33.007 E155.88754
G1 X149.493 Y33.159 E155.8987
G1 X149.908 Y33.631 E155.93131
G1 X150.26 Y34.151 E155.96389
G1 X150.543 Y34.712 E155.99649
G1 X150.753 Y35.304 E156.02908
G1 X150.885 Y35.919 E156.06172
G1 X150.94 Y36.652 E156.09986
G1 X150.94 Y70.848 E157.87414
G1 X150.905 Y71.394 E157.90253
