;FLAVOR:Marlin
;TIME:39355
;Filament used: 24.7752m
;Layer height: 0.2
;MINX:28.369
;MINY:28.45
;MINZ:0.2
;MAXX:146.634
;MAXY:146.578
;MAXZ:69
;Generated with Creality Slicer 4.8.2-205
M140 S50
M105
M190 S50
M104 S195
M105
M109 S195
M82 ;absolute extrusion mode
G28 ;Home

G92 E0 ;Reset Extruder
G1 Z2.0 F3000 ;Move Z Axis up
G1 X10.1 Y20 Z0.28 F5000.0 ;Move to start position
G1 X10.1 Y170.0 Z0.28 F1500.0 E12 ;Draw the first line
G1 X10.4 Y170.0 Z0.28 F5000.0 ;Move to side a little
G1 X10.4 Y20 Z0.28 F1500.0 E25 ;Draw the second line
G92 E0 ;Reset Extruder
G1 Z2.0 F3000 ;Move Z Axis up

G92 E0
G92 E0
G1 F1500 E-0.8
;LAYER_COUNT:345
;LAYER:0
M107
G0 F6000 X43.333 Y48.227 Z0.2
;TYPE:SKIRT
G1 F1500 E0
G1 F900 X43.934 Y47.695 E0.04165
G1 X44.585 Y47.226 E0.08328
G1 X45.28 Y46.824 E0.12493
G1 X46.012 Y46.493 E0.16662
G1 X46.772 Y46.236 E0.20824
G1 X47.555 Y46.056 E0.24993
G1 X48.351 Y45.955 E0.29156
G1 X48.965 Y45.932 E0.32344
G1 X128.03 Y45.932 E4.42579
G1 X128.832 Y45.972 E4.46746
G1 X129.626 Y46.092 E4.50912
G1 X130.404 Y46.289 E4.55076
G1 X131.158 Y46.564 E4.59241
G1 X131.881 Y46.912 E4.63404
G1 X132.567 Y47.33 E4.67572
G1 X133.207 Y47.814 E4.71735
G1 X133.796 Y48.36 E4.75903
G1 X134.327 Y48.961 E4.80064
G1 X134.796 Y49.613 E4.84231
G1 X135.198 Y50.307 E4.88392
G1 X135.529 Y51.039 E4.92561
G1 X135.786 Y51.799 E4.96723
G1 X135.966 Y52.582 E5.00892
G1 X136.067 Y53.378 E5.05055
G1 X136.09 Y53.992 E5.08243
G1 X136.09 Y99.071 E7.42139
G1 X136.05 Y99.873 E7.46306
G1 X135.93 Y100.667 E7.50472
G1 X135.733 Y101.445 E7.54636
G1 X135.458 Y102.199 E7.58801
G1 X135.11 Y102.922 E7.62964
G1 X134.692 Y103.608 E7.67132
G1 X134.208 Y104.248 E7.71295
G1 X133.662 Y104.837 E7.75462
G1 X133.061 Y105.368 E7.79624
G1 X132.409 Y105.837 E7.83791
G1 X131.715 Y106.239 E7.87952
G1 X130.983 Y106.57 E7.9212
G1 X130.223 Y106.827 E7.96283
G1 X129.44 Y107.007 E8.00452
G1 X128.644 Y107.108 E8.04615
G1 X128.03 Y107.131 E8.07803
G1 X48.966 Y107.131 E12.18033
G1 X48.164 Y107.091 E12.22199
G1 X47.37 Y106.971 E12.26366
G1 X46.592 Y106.774 E12.3053
G1 X45.838 Y106.499 E12.34694
G1 X45.115 Y106.151 E12.38858
G1 X44.429 Y105.733 E12.43026
G1 X43.789 Y105.249 E12.47189
G1 X43.2 Y104.703 E12.51356
G1 X42.669 Y104.102 E12.55517
G1 X42.2 Y103.45 E12.59685
G1 X41.798 Y102.756 E12.63846
G1 X41.467 Y102.024 E12.68014
G1 X41.21 Y101.264 E12.72177
G1 X41.03 Y100.481 E12.76346
G1 X40.929 Y99.685 E12.80509
G1 X40.906 Y99.071 E12.83697
G1 X40.905 Y53.992 E15.17593
G1 X40.945 Y53.19 E15.21759
G1 X41.064 Y52.397 E15.2592
G1 X41.262 Y51.619 E15.30085
G1 X41.537 Y50.864 E15.34254
G1 X41.885 Y50.141 E15.38418
G1 X42.303 Y49.456 E15.42581
G1 X42.787 Y48.815 E15.46749
G1 X43.333 Y48.227 E15.50912
G0 F6000 X43.844 Y48.458
G1 F900 X44.44 Y47.961 E15.54939
G1 X45.084 Y47.527 E15.58968
G1 X45.77 Y47.163 E15.62997
G1 X46.489 Y46.87 E15.67026
G1 X47.234 Y46.653 E15.71052
G1 X47.998 Y46.514 E15.75081
G1 X48.965 Y46.452 E15.80109
G1 X128.03 Y46.452 E19.90344
G1 X128.805 Y46.492 E19.94371
G1 X129.573 Y46.611 E19.98403
G1 X130.323 Y46.809 E20.02428
G1 X131.05 Y47.083 E20.06459
G1 X131.744 Y47.43 E20.10485
G1 X132.399 Y47.847 E20.14513
G1 X133.008 Y48.329 E20.18543
G1 X133.564 Y48.871 E20.22572
G1 X134.061 Y49.467 E20.26599
G1 X134.495 Y50.111 E20.30628
G1 X134.859 Y50.797 E20.34657
G1 X135.152 Y51.516 E20.38686
G1 X135.369 Y52.261 E20.42712
G1 X135.508 Y53.025 E20.46741
G1 X135.57 Y53.992 E20.51769
G1 X135.57 Y99.071 E22.85665
G1 X135.53 Y99.846 E22.89691
G1 X135.411 Y100.614 E22.93724
G1 X135.213 Y101.364 E22.97748
G1 X134.939 Y102.091 E23.0178
G1 X134.592 Y102.785 E23.05805
G1 X134.175 Y103.44 E23.09834
G1 X133.693 Y104.049 E23.13864
G1 X133.151 Y104.605 E23.17893
G1 X132.555 Y105.102 E23.21919
G1 X131.911 Y105.536 E23.25949
G1 X131.225 Y105.9 E23.29978
G1 X130.506 Y106.193 E23.34007
G1 X129.761 Y106.41 E23.38033
G1 X128.997 Y106.549 E23.42062
G1 X128.03 Y106.611 E23.47089
G1 X48.966 Y106.611 E27.57319
G1 X48.191 Y106.571 E27.61346
G1 X47.423 Y106.452 E27.65378
G1 X46.673 Y106.254 E27.69403
G1 X45.946 Y105.98 E27.73434
G1 X45.252 Y105.633 E27.7746
G1 X44.597 Y105.216 E27.81489
G1 X43.988 Y104.734 E27.85519
G1 X43.432 Y104.192 E27.89547
G1 X42.935 Y103.596 E27.93574
G1 X42.501 Y102.952 E27.97603
G1 X42.137 Y102.266 E28.01633
G1 X41.844 Y101.547 E28.05661
G1 X41.627 Y100.802 E28.09687
G1 X41.488 Y100.038 E28.13716
G1 X41.426 Y99.071 E28.18744
G1 X41.425 Y53.992 E30.5264
G1 X41.465 Y53.217 E30.56667
G1 X41.584 Y52.45 E30.60694
G1 X41.782 Y51.699 E30.64724
G1 X42.056 Y50.972 E30.68755
G1 X42.403 Y50.278 E30.72781
G1 X42.82 Y49.623 E30.7681
G1 X43.302 Y49.014 E30.80839
G1 X43.844 Y48.458 E30.84868
G0 F6000 X43.816 Y49.221
G1 F900 X44.354 Y48.699 E30.88758
G1 X44.944 Y48.238 E30.92642
G1 X45.58 Y47.842 E30.9653
G1 X46.255 Y47.516 E31.00419
G1 X46.96 Y47.264 E31.04304
G1 X47.688 Y47.089 E31.08189
G1 X48.431 Y46.992 E31.12076
G1 X48.965 Y46.972 E31.14849
G1 X128.03 Y46.972 E35.25084
G1 X128.778 Y47.012 E35.28971
G1 X129.518 Y47.131 E35.3286
G1 X130.24 Y47.329 E35.36744
G1 X130.938 Y47.602 E35.40633
G1 X131.602 Y47.949 E35.4452
G1 X132.226 Y48.364 E35.48409
G1 X132.801 Y48.843 E35.52292
G1 X133.323 Y49.381 E35.56181
G1 X133.784 Y49.971 E35.60066
G1 X134.18 Y50.607 E35.63953
G1 X134.506 Y51.282 E35.67843
G1 X134.758 Y51.987 E35.71727
G1 X134.933 Y52.716 E35.75617
G1 X135.03 Y53.458 E35.795
G1 X135.05 Y53.992 E35.82273
G1 X135.05 Y99.071 E38.16169
G1 X135.01 Y99.819 E38.20055
G1 X134.891 Y100.559 E38.23944
G1 X134.693 Y101.281 E38.27829
G1 X134.42 Y101.979 E38.31717
G1 X134.073 Y102.643 E38.35605
G1 X133.658 Y103.267 E38.39493
G1 X133.179 Y103.842 E38.43376
G1 X132.641 Y104.364 E38.47265
G1 X132.051 Y104.825 E38.5115
G1 X131.415 Y105.221 E38.55038
G1 X130.74 Y105.547 E38.58927
G1 X130.035 Y105.799 E38.62812
G1 X129.306 Y105.974 E38.66702
G1 X128.564 Y106.071 E38.70584
G1 X128.03 Y106.091 E38.73357
G1 X48.966 Y106.091 E42.83587
G1 X48.218 Y106.051 E42.87474
G1 X47.478 Y105.932 E42.91362
G1 X46.756 Y105.734 E42.95247
G1 X46.058 Y105.461 E42.99136
G1 X45.394 Y105.114 E43.03023
G1 X44.77 Y104.699 E43.06911
G1 X44.195 Y104.22 E43.10794
G1 X43.673 Y103.682 E43.14684
G1 X43.212 Y103.092 E43.18569
G1 X42.816 Y102.456 E43.22456
G1 X42.49 Y101.781 E43.26345
G1 X42.238 Y101.076 E43.3023
G1 X42.063 Y100.347 E43.3412
G1 X41.966 Y99.605 E43.38003
G1 X41.946 Y99.071 E43.40775
G1 X41.945 Y53.992 E45.74671
G1 X41.985 Y53.244 E45.78558
G1 X42.104 Y52.505 E45.82442
G1 X42.302 Y51.782 E45.86331
G1 X42.575 Y51.084 E45.9022
G1 X42.922 Y50.42 E45.94107
G1 X43.337 Y49.796 E45.97996
G1 X43.816 Y49.221 E46.01879
G0 F6000 X44.329 Y49.436
G1 F900 X44.862 Y48.951 E46.05618
G1 X45.445 Y48.527 E46.09358
G1 X46.072 Y48.171 E46.13099
G1 X46.734 Y47.887 E46.16837
G1 X47.424 Y47.677 E46.20579
G1 X48.133 Y47.546 E46.2432
G1 X48.965 Y47.492 E46.28646
G1 X128.03 Y47.492 E50.38881
G1 X128.75 Y47.532 E50.42623
G1 X129.461 Y47.651 E50.46363
G1 X130.154 Y47.849 E50.50102
G1 X130.821 Y48.122 E50.53842
G1 X131.454 Y48.467 E50.57582
G1 X132.045 Y48.88 E50.61323
G1 X132.586 Y49.356 E50.65062
G1 X133.071 Y49.889 E50.68801
G1 X133.495 Y50.472 E50.72542
G1 X133.851 Y51.099 E50.76283
G1 X134.135 Y51.761 E50.8002
G1 X134.345 Y52.451 E50.83763
G1 X134.476 Y53.16 E50.87504
G1 X134.53 Y53.992 E50.9183
G1 X134.53 Y99.071 E53.25726
G1 X134.49 Y99.791 E53.29467
G1 X134.371 Y100.502 E53.33208
G1 X134.173 Y101.195 E53.36947
G1 X133.9 Y101.862 E53.40687
G1 X133.555 Y102.495 E53.44427
G1 X133.142 Y103.086 E53.48168
G1 X132.666 Y103.627 E53.51907
G1 X132.133 Y104.112 E53.55646
G1 X131.55 Y104.536 E53.59386
G1 X130.923 Y104.892 E53.63127
G1 X130.261 Y105.176 E53.66865
G1 X129.571 Y105.386 E53.70607
G1 X128.862 Y105.517 E53.74348
G1 X128.03 Y105.571 E53.78674
G1 X48.966 Y105.571 E57.88904
G1 X48.246 Y105.531 E57.92646
G1 X47.535 Y105.412 E57.96386
G1 X46.842 Y105.214 E58.00126
G1 X46.175 Y104.941 E58.03865
G1 X45.542 Y104.596 E58.07606
G1 X44.951 Y104.183 E58.11347
G1 X44.41 Y103.707 E58.15085
G1 X43.925 Y103.174 E58.18825
G1 X43.501 Y102.591 E58.22565
G1 X43.145 Y101.964 E58.26306
G1 X42.861 Y101.302 E58.30044
G1 X42.651 Y100.612 E58.33786
G1 X42.52 Y99.903 E58.37527
G1 X42.466 Y99.071 E58.41853
G1 X42.465 Y53.992 E60.75749
G1 X42.505 Y53.272 E60.7949
G1 X42.624 Y52.562 E60.83226
G1 X42.822 Y51.868 E60.8697
G1 X43.095 Y51.201 E60.9071
G1 X43.44 Y50.568 E60.9445
G1 X43.853 Y49.978 E60.98187
G1 X44.329 Y49.436 E61.0193
G0 F6000 X44.841 Y49.662
G1 F900 X45.368 Y49.215 E61.05515
G1 X45.943 Y48.832 E61.091
G1 X46.559 Y48.517 E61.1269
G1 X47.207 Y48.276 E61.16277
G1 X47.879 Y48.111 E61.19867
G1 X48.565 Y48.025 E61.23454
G1 X48.965 Y48.012 E61.25531
G1 X128.03 Y48.012 E65.35766
G1 X128.72 Y48.052 E65.39352
G1 X129.401 Y48.171 E65.42939
G1 X130.064 Y48.369 E65.46529
G1 X130.699 Y48.641 E65.50114
G1 X131.299 Y48.985 E65.53702
G1 X131.855 Y49.395 E65.57286
G1 X132.36 Y49.868 E65.60877
G1 X132.807 Y50.395 E65.64462
G1 X133.191 Y50.971 E65.68054
G1 X133.505 Y51.586 E65.71637
G1 X133.746 Y52.234 E65.75224
G1 X133.911 Y52.906 E65.78814
G1 X133.997 Y53.592 E65.82402
G1 X134.01 Y53.992 E65.84478
G1 X134.01 Y99.071 E68.18374
G1 X133.97 Y99.761 E68.2196
G1 X133.851 Y100.442 E68.25547
G1 X133.653 Y101.105 E68.29137
G1 X133.381 Y101.74 E68.32722
G1 X133.037 Y102.34 E68.3631
G1 X132.627 Y102.896 E68.39895
G1 X132.154 Y103.401 E68.43485
G1 X131.627 Y103.848 E68.4707
G1 X131.051 Y104.232 E68.50662
G1 X130.436 Y104.546 E68.54245
G1 X129.788 Y104.787 E68.57832
G1 X129.116 Y104.952 E68.61422
G1 X128.43 Y105.038 E68.6501
G1 X128.03 Y105.051 E68.67086
G1 X48.966 Y105.051 E72.77316
G1 X48.276 Y105.011 E72.80902
G1 X47.595 Y104.892 E72.84489
G1 X46.932 Y104.694 E72.88079
G1 X46.297 Y104.422 E72.91664
G1 X45.697 Y104.078 E72.95252
G1 X45.141 Y103.668 E72.98837
G1 X44.636 Y103.195 E73.02427
G1 X44.189 Y102.668 E73.06012
G1 X43.805 Y102.092 E73.09604
G1 X43.491 Y101.477 E73.13187
G1 X43.25 Y100.829 E73.16774
G1 X43.085 Y100.157 E73.20364
G1 X42.999 Y99.471 E73.23952
G1 X42.986 Y99.071 E73.26028
G1 X42.985 Y53.992 E75.59924
G1 X43.025 Y53.302 E75.6351
G1 X43.144 Y52.621 E75.67097
G1 X43.341 Y51.958 E75.70686
G1 X43.614 Y51.323 E75.74272
G1 X43.958 Y50.723 E75.77861
G1 X44.368 Y50.167 E75.81445
G1 X44.841 Y49.662 E75.85035
G0 F6000 X45.351 Y49.899
G1 F900 X45.872 Y49.493 E75.88462
G1 X46.438 Y49.152 E75.91891
G1 X47.041 Y48.882 E75.95319
G1 X47.672 Y48.687 E75.98746
G1 X48.322 Y48.57 E76.02172
G1 X48.965 Y48.532 E76.05515
G1 X128.03 Y48.532 E80.1575
G1 X128.689 Y48.572 E80.19175
G1 X129.339 Y48.691 E80.22604
G1 X129.97 Y48.888 E80.26034
G1 X130.572 Y49.16 E80.29461
G1 X131.137 Y49.502 E80.32888
G1 X131.656 Y49.91 E80.36313
G1 X132.123 Y50.378 E80.39744
G1 X132.529 Y50.899 E80.43171
G1 X132.87 Y51.465 E80.466
G1 X133.14 Y52.068 E80.50028
G1 X133.335 Y52.699 E80.53454
G1 X133.452 Y53.349 E80.56881
G1 X133.49 Y53.992 E80.60223
G1 X133.49 Y99.071 E82.94119
G1 X133.45 Y99.73 E82.97545
G1 X133.331 Y100.38 E83.00973
G1 X133.134 Y101.011 E83.04403
G1 X132.862 Y101.613 E83.07831
G1 X132.52 Y102.178 E83.11258
G1 X132.112 Y102.697 E83.14683
G1 X131.644 Y103.164 E83.18113
G1 X131.123 Y103.57 E83.2154
G1 X130.557 Y103.911 E83.24969
G1 X129.954 Y104.181 E83.28397
G1 X129.323 Y104.376 E83.31824
G1 X128.673 Y104.493 E83.35251
G1 X128.03 Y104.531 E83.38593
G1 X48.966 Y104.531 E87.48823
G1 X48.307 Y104.491 E87.52248
G1 X47.657 Y104.372 E87.55677
G1 X47.026 Y104.175 E87.59107
G1 X46.424 Y103.903 E87.62534
G1 X45.859 Y103.561 E87.65961
G1 X45.34 Y103.153 E87.69386
G1 X44.873 Y102.685 E87.72817
G1 X44.467 Y102.164 E87.76244
G1 X44.126 Y101.598 E87.79672
G1 X43.856 Y100.995 E87.831
G1 X43.661 Y100.364 E87.86527
G1 X43.544 Y99.714 E87.89954
G1 X43.506 Y99.071 E87.93296
G1 X43.505 Y53.992 E90.27192
G1 X43.545 Y53.333 E90.30618
G1 X43.664 Y52.683 E90.34046
G1 X43.861 Y52.052 E90.37476
G1 X44.133 Y51.45 E90.40904
G1 X44.475 Y50.885 E90.44331
G1 X44.883 Y50.366 E90.47756
G1 X45.351 Y49.899 E90.51186
G0 F6000 X45.397 Y50.576
G1 F900 X45.859 Y50.15 E90.54447
G1 X46.372 Y49.787 E90.57708
G1 X46.927 Y49.492 E90.60969
G1 X47.514 Y49.27 E90.64225
G1 X48.126 Y49.124 E90.6749
G1 X48.965 Y49.052 E90.71859
G1 X128.03 Y49.052 E94.82094
G1 X128.657 Y49.092 E94.85354
G1 X129.274 Y49.211 E94.88614
G1 X129.871 Y49.408 E94.91876
G1 X130.438 Y49.679 E94.95137
G1 X130.966 Y50.019 E94.98395
G1 X131.446 Y50.424 E95.01654
G1 X131.872 Y50.886 E95.04914
G1 X132.235 Y51.399 E95.08175
G1 X132.53 Y51.954 E95.11436
G1 X132.752 Y52.542 E95.14697
G1 X132.898 Y53.153 E95.17957
G1 X132.97 Y53.992 E95.22326
G1 X132.97 Y99.071 E97.56222
G1 X132.93 Y99.698 E97.59482
G1 X132.811 Y100.315 E97.62742
G1 X132.614 Y100.912 E97.66004
G1 X132.343 Y101.479 E97.69265
G1 X132.003 Y102.007 E97.72523
G1 X131.598 Y102.487 E97.75782
G1 X131.136 Y102.913 E97.79043
G1 X130.623 Y103.276 E97.82303
G1 X130.068 Y103.571 E97.85564
G1 X129.48 Y103.793 E97.88826
G1 X128.869 Y103.939 E97.92085
G1 X128.03 Y104.011 E97.96454
G1 X48.966 Y104.011 E102.06684
G1 X48.339 Y103.971 E102.09944
G1 X47.722 Y103.852 E102.13204
G1 X47.125 Y103.655 E102.16466
G1 X46.558 Y103.384 E102.19727
G1 X46.03 Y103.044 E102.22985
G1 X45.55 Y102.639 E102.26244
G1 X45.124 Y102.177 E102.29505
G1 X44.761 Y101.664 E102.32765
G1 X44.466 Y101.109 E102.36027
G1 X44.244 Y100.521 E102.39288
G1 X44.098 Y99.91 E102.42547
G1 X44.026 Y99.071 E102.46916
G1 X44.025 Y53.992 E104.80812
G1 X44.065 Y53.365 E104.84072
G1 X44.184 Y52.748 E104.87333
G1 X44.381 Y52.151 E104.90594
G1 X44.651 Y51.584 E104.93853
G1 X44.992 Y51.056 E104.97114
G1 X45.397 Y50.576 E105.00373
G0 F6000 X45.909 Y50.799
G1 F900 X46.365 Y50.418 E105.03456
G1 X46.868 Y50.101 E105.06541
G1 X47.409 Y49.855 E105.09624
G1 X47.978 Y49.684 E105.12707
G1 X48.565 Y49.59 E105.15792
G1 X48.965 Y49.572 E105.17869
G1 X128.03 Y49.572 E109.28104
G1 X128.623 Y49.612 E109.31188
G1 X129.205 Y49.731 E109.3427
G1 X129.766 Y49.927 E109.37354
G1 X130.296 Y50.197 E109.4044
G1 X130.784 Y50.535 E109.4352
G1 X131.223 Y50.936 E109.46605
G1 X131.604 Y51.392 E109.49688
G1 X131.921 Y51.895 E109.52773
G1 X132.167 Y52.436 E109.55857
G1 X132.338 Y53.005 E109.58939
G1 X132.432 Y53.592 E109.62024
G1 X132.45 Y53.992 E109.64101
G1 X132.45 Y99.071 E111.97997
G1 X132.41 Y99.664 E112.01081
G1 X132.291 Y100.246 E112.04164
G1 X132.095 Y100.807 E112.07247
G1 X131.825 Y101.337 E112.10333
G1 X131.487 Y101.825 E112.13413
G1 X131.086 Y102.264 E112.16498
G1 X130.63 Y102.645 E112.19581
G1 X130.127 Y102.962 E112.22666
G1 X129.586 Y103.208 E112.2575
G1 X129.017 Y103.379 E112.28833
G1 X128.43 Y103.473 E112.31917
G1 X128.03 Y103.491 E112.33995
G1 X48.966 Y103.491 E116.44225
G1 X48.373 Y103.451 E116.47308
G1 X47.791 Y103.332 E116.50391
G1 X47.23 Y103.136 E116.53474
G1 X46.7 Y102.866 E116.5656
G1 X46.212 Y102.528 E116.5964
G1 X45.773 Y102.127 E116.62725
G1 X45.392 Y101.671 E116.65808
G1 X45.075 Y101.168 E116.68893
G1 X44.829 Y100.627 E116.71977
G1 X44.658 Y100.058 E116.7506
G1 X44.564 Y99.471 E116.78144
G1 X44.546 Y99.071 E116.80222
G1 X44.545 Y53.992 E119.14118
G1 X44.585 Y53.399 E119.17202
G1 X44.704 Y52.817 E119.20284
G1 X44.9 Y52.256 E119.23367
G1 X45.17 Y51.726 E119.26453
G1 X45.508 Y51.238 E119.29533
G1 X45.909 Y50.799 E119.32618
G0 F6000 X46.419 Y51.038
G1 F900 X46.867 Y50.704 E119.35518
G1 X47.358 Y50.439 E119.38413
G1 X47.881 Y50.246 E119.41305
G1 X48.427 Y50.129 E119.44203
G1 X48.965 Y50.092 E119.47001
G1 X128.03 Y50.092 E123.57236
G1 X128.587 Y50.132 E123.60133
G1 X129.132 Y50.251 E123.63028
G1 X129.655 Y50.447 E123.65926
G1 X130.144 Y50.715 E123.68819
G1 X130.591 Y51.05 E123.71717
G1 X130.984 Y51.446 E123.74612
G1 X131.318 Y51.894 E123.77511
