;FLAVOR:Marlin
;TIME:39836
;Filament used: 24.6565m
;Layer height: 0.2
;MINX:21.399
;MINY:35.504
;MINZ:0.2
;MAXX:151.278
;MAXY:139.408
;MAXZ:69
;Generated with Creality Slicer 4.8.2-205
M140 S50
M105
M190 S50
M104 S195
M105
M109 S195
M82 ;absolute extrusion mode
G28 ;Home

G92 E0 ;Reset Extruder
G1 Z2.0 F3000 ;Move Z Axis up
G1 X10.1 Y20 Z0.28 F5000.0 ;Move to start position
G1 X10.1 Y170.0 Z0.28 F1500.0 E12 ;Draw the first line
G1 X10.4 Y170.0 Z0.28 F5000.0 ;Move to side a little
G1 X10.4 Y20 Z0.28 F1500.0 E25 ;Draw the second line
G92 E0 ;Reset Extruder
G1 Z2.0 F3000 ;Move Z Axis up

G92 E0
G92 E0
G1 F1500 E-0.8
;LAYER_COUNT:345
;LAYER:0
M107
G0 F6000 X28.445 Y47.224 Z0.2
;TYPE:SKIRT
G1 F1500 E0
G1 F900 X29.273 Y46.745 E0.04963
G1 X29.602 Y46.546 E0.06958
G1 X30.043 Y46.288 E0.09609
G1 X32.213 Y44.976 E0.22766
G1 X34.315 Y43.625 E0.35731
G1 X36.394 Y42.202 E0.48803
G1 X38.398 Y40.746 E0.61656
G1 X41.13 Y38.621 E0.79614
G1 X41.861 Y38.029 E0.84495
G1 X42.625 Y37.463 E0.89428
G1 X43.433 Y36.963 E0.94358
G1 X44.281 Y36.533 E0.99291
G1 X45.161 Y36.175 E1.04221
G1 X46.069 Y35.892 E1.09156
G1 X46.997 Y35.687 E1.14087
G1 X47.939 Y35.561 E1.19018
G1 X48.624 Y35.519 E1.22579
G1 X48.951 Y35.509 E1.24276
G1 X49.296 Y35.504 E1.26066
G1 X127.483 Y35.506 E5.31746
G1 X128.188 Y35.516 E5.35404
G1 X129.137 Y35.57 E5.40336
G1 X130.079 Y35.703 E5.45272
G1 X131.005 Y35.914 E5.502
G1 X131.911 Y36.203 E5.55134
G1 X132.789 Y36.567 E5.60066
G1 X133.634 Y37.003 E5.64999
G1 X134.533 Y37.575 E5.70528
G1 X136.685 Y39.03 E5.84007
G1 X138.812 Y40.38 E5.97078
G1 X140.965 Y41.662 E6.10079
G1 X142.293 Y42.405 E6.17975
G1 X142.838 Y42.719 E6.21238
G1 X143.678 Y43.253 E6.26403
G1 X144.513 Y43.839 E6.31696
G1 X145.282 Y44.396 E6.36623
G1 X145.94 Y44.886 E6.40879
G1 X146.678 Y45.485 E6.45811
G1 X147.363 Y46.144 E6.50743
G1 X147.99 Y46.859 E6.55677
G1 X148.554 Y47.624 E6.60609
G1 X149.053 Y48.433 E6.6554
G1 X149.481 Y49.282 E6.70474
G1 X149.848 Y50.193 E6.7557
G1 X150.123 Y50.979 E6.7989
G1 X150.542 Y52.235 E6.8676
G1 X150.755 Y52.907 E6.90418
G1 X151.004 Y53.824 E6.95348
G1 X151.175 Y54.759 E7.0028
G1 X151.266 Y55.705 E7.05211
G1 X151.278 Y56.656 E7.10146
G1 X151.21 Y57.604 E7.15077
G1 X151.062 Y58.543 E7.20009
G1 X150.821 Y59.52 E7.2523
G1 X150.718 Y59.869 E7.27119
G1 X150.624 Y60.172 E7.28765
G1 X150.196 Y61.485 E7.3593
G1 X149.903 Y62.34 E7.40619
G1 X149.556 Y63.225 E7.45552
G1 X149.169 Y64.017 E7.50125
G1 X147.859 Y66.502 E7.64701
G1 X146.768 Y68.723 E7.7754
G1 X145.714 Y71.033 E7.90714
G1 X144.735 Y73.349 E8.03761
G1 X143.818 Y75.697 E8.1684
G1 X142.993 Y78.008 E8.29572
G1 X142.202 Y80.439 E8.42836
G1 X141.504 Y82.803 E8.55625
G1 X140.853 Y85.268 E8.68854
G1 X140.288 Y87.672 E8.81667
G1 X139.775 Y90.177 E8.94934
G1 X139.284 Y93.009 E9.09847
G1 X139.184 Y93.646 E9.13193
G1 X138.997 Y94.578 E9.18125
G1 X138.732 Y95.491 E9.23058
G1 X138.392 Y96.379 E9.27991
G1 X137.978 Y97.235 E9.32925
G1 X137.494 Y98.053 E9.37856
G1 X136.943 Y98.827 E9.42786
G1 X136.328 Y99.552 E9.47719
G1 X135.655 Y100.223 E9.5265
G1 X134.928 Y100.836 E9.57584
G1 X134.152 Y101.384 E9.62513
G1 X133.332 Y101.866 E9.67448
G1 X132.475 Y102.277 E9.7238
G1 X131.586 Y102.615 E9.77315
G1 X130.672 Y102.877 E9.82248
G1 X129.74 Y103.061 E9.87177
G1 X128.338 Y103.188 E9.94481
G1 X128.017 Y103.197 E9.96147
G1 X127.7 Y103.201 E9.97792
G1 X49.511 Y103.2 E14.03482
G1 X48.812 Y103.19 E14.07109
G1 X47.863 Y103.136 E14.12041
G1 X46.922 Y103.003 E14.16972
G1 X45.995 Y102.791 E14.21906
G1 X45.09 Y102.502 E14.26836
G1 X44.212 Y102.138 E14.31767
G1 X43.367 Y101.702 E14.36701
G1 X42.562 Y101.196 E14.41634
G1 X41.803 Y100.624 E14.46565
G1 X41.094 Y99.991 E14.51497
G1 X40.442 Y99.3 E14.56426
G1 X39.849 Y98.556 E14.61363
G1 X39.321 Y97.766 E14.66293
G1 X38.862 Y96.934 E14.71223
G1 X38.331 Y95.688 E14.78251
G1 X38.143 Y95.155 E14.81183
G1 X37.546 Y93.388 E14.90861
G1 X36.678 Y91.044 E15.0383
G1 X35.736 Y88.705 E15.16913
G1 X34.723 Y86.384 E15.30053
G1 X33.661 Y84.123 E15.43014
G1 X32.54 Y81.904 E15.55913
G1 X31.34 Y79.686 E15.68998
G1 X30.081 Y77.509 E15.82046
G1 X28.76 Y75.366 E15.95108
G1 X27.406 Y73.301 E16.0792
G1 X25.967 Y71.239 E16.20967
G1 X25.097 Y70.077 E16.28499
G1 X24.996 Y69.93 E16.29424
G1 X24.208 Y68.857 E16.36331
G1 X23.678 Y68.068 E16.41263
G1 X23.373 Y67.54 E16.44427
G1 X23.306 Y67.416 E16.45158
G1 X23.151 Y67.117 E16.46906
G1 X22.945 Y66.707 E16.49286
G1 X22.554 Y65.841 E16.54216
G1 X22.135 Y64.589 E16.61067
G1 X22.067 Y64.338 E16.62416
G1 X22.004 Y64.093 E16.63729
G1 X21.735 Y63.004 E16.69549
G1 X21.546 Y62.072 E16.74483
G1 X21.436 Y61.128 E16.79414
G1 X21.406 Y60.455 E16.82909
G1 X21.399 Y59.965 E16.85452
G1 X21.399 Y59.653 E16.87071
G1 X21.405 Y59.203 E16.89406
G1 X21.458 Y58.254 E16.94338
G1 X21.59 Y57.313 E16.99268
G1 X21.728 Y56.669 E17.02685
G1 X21.976 Y55.655 E17.08102
G1 X22.059 Y55.336 E17.09812
G1 X22.15 Y55.006 E17.11588
G1 X22.441 Y54.101 E17.1652
G1 X22.936 Y52.956 E17.22993
G1 X23.177 Y52.474 E17.25789
G1 X23.578 Y51.742 E17.30119
G1 X23.609 Y51.69 E17.30433
G1 X24.13 Y50.894 E17.3537
G1 X24.715 Y50.146 E17.40297
G1 X25.362 Y49.449 E17.45231
G1 X26.065 Y48.809 E17.50164
G1 X26.819 Y48.23 E17.55096
G1 X27.523 Y47.773 E17.59451
G1 X28.445 Y47.224 E17.65019
G0 F6000 X28.705 Y47.674
G1 F900 X29.556 Y47.182 E17.70119
G1 X29.865 Y46.995 E17.71993
G1 X30.286 Y46.748 E17.74526
G1 X32.475 Y45.426 E17.87794
G1 X34.617 Y44.048 E18.01009
G1 X36.705 Y42.619 E18.14137
G1 X38.706 Y41.165 E18.26971
G1 X41.464 Y39.02 E18.451
G1 X42.188 Y38.434 E18.49933
G1 X42.935 Y37.881 E18.54755
G1 X43.726 Y37.395 E18.59572
G1 X44.555 Y36.979 E18.64385
G1 X45.418 Y36.636 E18.69203
G1 X46.307 Y36.368 E18.74021
G1 X47.216 Y36.178 E18.78839
G1 X48.138 Y36.066 E18.83658
G1 X48.639 Y36.039 E18.86261
G1 X48.966 Y36.029 E18.87959
G1 X49.296 Y36.024 E18.89671
G1 X127.476 Y36.026 E22.95314
G1 X128.181 Y36.036 E22.98973
G1 X129.108 Y36.089 E23.0379
G1 X130.027 Y36.222 E23.08608
G1 X130.931 Y36.433 E23.13425
G1 X131.813 Y36.721 E23.18239
G1 X132.668 Y37.085 E23.23061
G1 X133.488 Y37.52 E23.27877
G1 X134.234 Y38 E23.3248
G1 X134.295 Y38.043 E23.32867
G1 X136.388 Y39.457 E23.45973
G1 X138.531 Y40.817 E23.59142
G1 X140.719 Y42.12 E23.72355
G1 X142.034 Y42.855 E23.80171
G1 X142.579 Y43.169 E23.83435
G1 X143.38 Y43.679 E23.88362
G1 X144.067 Y44.16 E23.92713
G1 X144.977 Y44.818 E23.9854
G1 X145.63 Y45.303 E24.0276
G1 X146.35 Y45.889 E24.07577
G1 X147.017 Y46.535 E24.12395
G1 X147.625 Y47.236 E24.1721
G1 X148.172 Y47.987 E24.2203
G1 X148.651 Y48.782 E24.26846
G1 X149.061 Y49.615 E24.31663
G1 X149.358 Y50.366 E24.35854
G1 X149.575 Y50.982 E24.39242
G1 X149.993 Y52.229 E24.46066
G1 X150.259 Y53.064 E24.50613
G1 X150.501 Y53.96 E24.55429
G1 X150.665 Y54.874 E24.60247
G1 X150.75 Y55.798 E24.65061
G1 X150.755 Y56.727 E24.69882
G1 X150.68 Y57.652 E24.74697
G1 X150.526 Y58.568 E24.79516
G1 X150.322 Y59.372 E24.8382
G1 X150.219 Y59.721 E24.85708
G1 X150.129 Y60.011 E24.87284
G1 X149.645 Y61.491 E24.95363
G1 X149.411 Y62.171 E24.99094
G1 X149.072 Y63.035 E25.0391
G1 X148.711 Y63.771 E25.08163
G1 X148.605 Y63.968 E25.09324
G1 X147.404 Y66.249 E25.22699
G1 X146.3 Y68.496 E25.35689
G1 X145.234 Y70.832 E25.49012
G1 X144.262 Y73.131 E25.61963
G1 X143.334 Y75.508 E25.75203
G1 X142.488 Y77.879 E25.88265
G1 X141.719 Y80.242 E26.01158
G1 X140.994 Y82.699 E26.1445
G1 X140.354 Y85.119 E26.27438
G1 X139.773 Y87.593 E26.40624
G1 X139.269 Y90.055 E26.53663
G1 X138.766 Y92.956 E26.6894
G1 X138.67 Y93.566 E26.72144
G1 X138.487 Y94.476 E26.7696
G1 X138.226 Y95.367 E26.81777
G1 X137.889 Y96.232 E26.86594
G1 X137.479 Y97.065 E26.91411
G1 X136.999 Y97.86 E26.9623
G1 X136.452 Y98.61 E27.01046
G1 X135.842 Y99.31 E27.05864
G1 X135.175 Y99.956 E27.10681
G1 X134.455 Y100.542 E27.15498
G1 X133.687 Y101.063 E27.20313
G1 X132.876 Y101.517 E27.25136
G1 X132.03 Y101.899 E27.29952
G1 X131.154 Y102.207 E27.3477
G1 X130.255 Y102.438 E27.39586
G1 X129.34 Y102.591 E27.444
G1 X128.323 Y102.668 E27.49691
G1 X128.002 Y102.677 E27.51358
G1 X127.7 Y102.681 E27.52925
G1 X49.519 Y102.68 E31.58573
G1 X48.82 Y102.67 E31.622
G1 X47.893 Y102.617 E31.67018
G1 X46.974 Y102.484 E31.71836
G1 X46.07 Y102.272 E31.76654
G1 X45.187 Y101.984 E31.81473
G1 X44.333 Y101.621 E31.86288
G1 X43.513 Y101.185 E31.91106
G1 X42.733 Y100.681 E31.95925
G1 X42 Y100.111 E32.00742
G1 X41.319 Y99.481 E32.05556
G1 X40.694 Y98.794 E32.10375
G1 X40.131 Y98.056 E32.15191
G1 X39.633 Y97.272 E32.2001
G1 X39.205 Y96.449 E32.24823
G1 X38.821 Y95.513 E32.30073
G1 X38.635 Y94.988 E32.32963
G1 X38.036 Y93.216 E32.42668
G1 X37.151 Y90.825 E32.55896
G1 X36.217 Y88.508 E32.68858
G1 X35.199 Y86.173 E32.82075
G1 X34.138 Y83.914 E32.95024
G1 X32.982 Y81.626 E33.08325
G1 X31.799 Y79.44 E33.21222
G1 X30.532 Y77.248 E33.34358
G1 X29.221 Y75.122 E33.47318
G1 X27.818 Y72.983 E33.60591
G1 X26.391 Y70.937 E33.73534
G1 X25.513 Y69.765 E33.81132
G1 X25.426 Y69.637 E33.81935
G1 X24.627 Y68.55 E33.88934
G1 X24.11 Y67.778 E33.93755
G1 X23.831 Y67.292 E33.96663
G1 X23.615 Y66.884 E33.99058
G1 X23.409 Y66.474 E34.01439
G1 X23.029 Y65.627 E34.06256
G1 X22.637 Y64.453 E34.12678
G1 X22.569 Y64.202 E34.14027
G1 X22.509 Y63.968 E34.1528
G1 X22.24 Y62.879 E34.21101
G1 X22.056 Y61.969 E34.25918
G1 X21.951 Y61.047 E34.30733
G1 X21.926 Y60.448 E34.33843
G1 X21.919 Y59.958 E34.36386
G1 X21.919 Y59.66 E34.37932
G1 X21.925 Y59.21 E34.40267
G1 X21.977 Y58.283 E34.45084
G1 X22.109 Y57.364 E34.49902
G1 X22.233 Y56.793 E34.52933
G1 X22.481 Y55.779 E34.5835
G1 X22.56 Y55.474 E34.59984
G1 X22.651 Y55.144 E34.61761
G1 X22.936 Y54.261 E34.66575
G1 X23.401 Y53.189 E34.72638
G1 X23.642 Y52.707 E34.75434
G1 X24.025 Y52.008 E34.79569
G1 X24.056 Y51.956 E34.79884
G1 X24.565 Y51.18 E34.84699
G1 X25.139 Y50.45 E34.89517
G1 X25.774 Y49.773 E34.94333
G1 X26.465 Y49.152 E34.99154
G1 X27.206 Y48.594 E35.03966
G1 X27.789 Y48.22 E35.0756
G1 X28.705 Y47.674 E35.13093
G0 F6000 X28.966 Y48.124
G1 F900 X29.8 Y47.641 E35.18094
G1 X30.128 Y47.444 E35.20079
G1 X30.529 Y47.209 E35.22491
G1 X32.762 Y45.86 E35.36027
G1 X34.879 Y44.498 E35.49088
G1 X36.991 Y43.053 E35.62366
G1 X39.044 Y41.562 E35.75531
G1 X41.773 Y39.438 E35.93474
G1 X42.515 Y38.838 E35.98425
G1 X43.244 Y38.3 E36.03126
G1 X44.017 Y37.828 E36.07825
G1 X44.829 Y37.426 E36.12526
G1 X45.673 Y37.098 E36.17225
G1 X46.543 Y36.845 E36.21926
G1 X47.432 Y36.67 E36.26627
G1 X48.655 Y36.559 E36.32999
G1 X48.982 Y36.549 E36.34696
G1 X49.296 Y36.544 E36.36325
G1 X127.469 Y36.546 E40.41932
G1 X128.174 Y36.556 E40.45591
G1 X129.078 Y36.609 E40.50289
G1 X129.974 Y36.741 E40.54988
G1 X130.855 Y36.952 E40.59689
G1 X131.713 Y37.24 E40.64385
G1 X132.544 Y37.602 E40.69088
G1 X133.339 Y38.036 E40.73787
G1 X133.934 Y38.425 E40.77476
G1 X133.992 Y38.466 E40.77844
G1 X136.106 Y39.894 E40.91081
G1 X138.273 Y41.269 E41.04397
G1 X140.445 Y42.563 E41.17515
G1 X141.774 Y43.306 E41.25415
G1 X142.319 Y43.62 E41.28679
G1 X143.082 Y44.105 E41.3337
G1 X143.769 Y44.586 E41.37721
G1 X144.672 Y45.239 E41.43503
G1 X145.319 Y45.72 E41.47686
G1 X146.021 Y46.292 E41.52384
G1 X146.669 Y46.925 E41.57085
G1 X147.26 Y47.612 E41.61787
G1 X147.787 Y48.348 E41.66483
G1 X148.247 Y49.128 E41.71182
G1 X148.637 Y49.946 E41.75884
G1 X148.867 Y50.539 E41.79184
G1 X149.137 Y51.309 E41.83418
G1 X149.5 Y52.394 E41.89354
G1 X149.763 Y53.221 E41.93857
G1 X149.999 Y54.096 E41.98559
G1 X150.156 Y54.988 E42.03258
G1 X150.234 Y55.89 E42.07956
G1 X150.232 Y56.796 E42.12657
G1 X150.15 Y57.698 E42.17356
G1 X149.989 Y58.589 E42.22054
G1 X149.823 Y59.225 E42.25465
G1 X149.72 Y59.574 E42.27353
G1 X149.635 Y59.85 E42.28851
G1 X149.154 Y61.322 E42.36886
G1 X148.92 Y62.002 E42.40617
G1 X148.587 Y62.844 E42.45315
G1 X148.253 Y63.525 E42.49251
G1 X148.147 Y63.722 E42.50412
G1 X146.95 Y65.995 E42.63741
G1 X145.826 Y68.283 E42.76967
G1 X144.76 Y70.619 E42.9029
G1 X143.771 Y72.958 E43.03467
G1 X142.849 Y75.319 E43.16618
G1 X142.004 Y77.686 E43.29658
G1 X141.215 Y80.109 E43.4288
G1 X140.492 Y82.562 E43.56149
G1 X139.853 Y84.977 E43.69111
G1 X139.266 Y87.478 E43.8244
G1 X138.753 Y89.983 E43.95707
G1 X138.265 Y92.8 E44.10541
G1 X138.157 Y93.485 E44.14139
G1 X137.977 Y94.373 E44.1884
G1 X137.719 Y95.241 E44.23539
G1 X137.386 Y96.083 E44.28237
G1 X136.98 Y96.893 E44.32938
G1 X136.504 Y97.663 E44.37635
G1 X135.962 Y98.389 E44.42336
G1 X135.358 Y99.064 E44.47035
G1 X134.697 Y99.683 E44.51734
G1 X133.983 Y100.242 E44.56439
G1 X133.224 Y100.735 E44.61135
G1 X132.424 Y101.159 E44.65833
G1 X131.589 Y101.512 E44.70536
G1 X130.727 Y101.789 E44.75234
G1 X129.843 Y101.989 E44.79937
G1 X128.946 Y102.11 E44.84633
G1 X128.309 Y102.148 E44.87944
G1 X127.988 Y102.157 E44.8961
G1 X127.7 Y102.161 E44.91105
G1 X49.526 Y102.16 E48.96717
G1 X48.827 Y102.15 E49.00344
G1 X47.923 Y102.097 E49.05043
G1 X47.027 Y101.965 E49.09742
G1 X46.146 Y101.754 E49.14442
G1 X45.287 Y101.466 E49.19143
G1 X44.457 Y101.103 E49.23843
G1 X43.662 Y100.669 E49.28543
G1 X42.909 Y100.166 E49.33241
G1 X42.203 Y99.599 E49.3794
G1 X41.549 Y98.972 E49.42641
G1 X40.954 Y98.29 E49.47337
G1 X40.421 Y97.557 E49.52039
G1 X39.954 Y96.781 E49.56738
G1 X39.558 Y95.966 E49.6144
G1 X39.311 Y95.338 E49.64941
G1 X39.128 Y94.822 E49.67782
G1 X38.527 Y93.044 E49.7752
G1 X37.643 Y90.656 E49.90732
G1 X36.686 Y88.281 E50.04018
G1 X35.688 Y85.992 E50.16974
G1 X34.594 Y83.663 E50.30325
G1 X33.453 Y81.405 E50.43452
G1 X32.248 Y79.178 E50.5659
G1 X30.982 Y76.988 E50.69715
G1 X29.638 Y74.81 E50.82994
G1 X28.247 Y72.688 E50.96159
G1 X26.825 Y70.649 E51.09057
G1 X25.929 Y69.453 E51.16811
G1 X25.843 Y69.327 E51.17602
G1 X25.046 Y68.242 E51.24587
G1 X24.542 Y67.489 E51.29289
G1 X24.288 Y67.045 E51.31943
G1 X24.221 Y66.921 E51.32674
G1 X24.08 Y66.65 E51.34259
G1 X23.874 Y66.24 E51.3664
G1 X23.504 Y65.414 E51.41336
G1 X23.139 Y64.317 E51.47335
G1 X23.013 Y63.843 E51.4988
G1 X22.744 Y62.754 E51.557
G1 X22.566 Y61.866 E51.60399
G1 X22.467 Y60.966 E51.65097
G1 X22.446 Y60.441 E51.67823
G1 X22.439 Y59.951 E51.70366
G1 X22.439 Y59.667 E51.71839
G1 X22.445 Y59.217 E51.74174
G1 X22.497 Y58.313 E51.78872
G1 X22.629 Y57.417 E51.83572
G1 X22.738 Y56.916 E51.86232
G1 X22.986 Y55.902 E51.91648
G1 X23.061 Y55.613 E51.93197
G1 X23.152 Y55.283 E51.94973
G1 X23.431 Y54.421 E51.99674
G1 X23.866 Y53.422 E52.05328
G1 X24.107 Y52.94 E52.08124
G1 X24.471 Y52.274 E52.12062
G1 X24.502 Y52.222 E52.12376
G1 X25 Y51.465 E52.17078
G1 X25.562 Y50.756 E52.21772
G1 X26.185 Y50.098 E52.26473
G1 X26.864 Y49.498 E52.31175
G1 X27.593 Y48.96 E52.35876
G1 X28.056 Y48.666 E52.38722
G1 X28.966 Y48.124 E52.44217
G1 F1500 E51.64217
G0 F6000 X48.844 Y46.143
G0 X128.152 Y46.144
G0 X128.588 Y46.58
G0 X135.633 Y56.076
G1 F1500 E52.44217
G1 F900 X135.878 Y55.898 E52.45789
G1 X136.136 Y55.898 E52.47127
G1 X136.338 Y56.044 E52.4842
G1 X136.435 Y56.334 E52.50007
G1 X136.348 Y56.599 E52.51454
G1 X136.146 Y56.745 E52.52747
G1 X135.888 Y56.745 E52.54086
G1 X135.628 Y56.559 E52.55745
G1 X135.615 Y56.518 E52.55968
G1 X135.616 Y56.128 E52.57991
G1 X135.633 Y56.076 E52.58275
G0 F6000 X135.096 Y56.042
G1 F900 X135.193 Y55.753 E52.59857
G1 X135.708 Y55.378 E52.63163
G1 X136.304 Y55.378 E52.66255
G1 X136.778 Y55.721 E52.69291
G1 X136.982 Y56.331 E52.72628
G1 X136.795 Y56.905 E52.7576
G1 X136.674 Y57.006 E52.76578
G1 X136.314 Y57.265 E52.78879
G1 X135.72 Y57.266 E52.81961
G1 X135.184 Y56.88 E52.85388
G1 X135.095 Y56.598 E52.86923
G1 X135.096 Y56.042 E52.89808
G0 F6000 X134.576 Y55.954
G1 F900 X134.753 Y55.431 E52.92672
G1 X135.54 Y54.858 E52.97723
G1 X136.472 Y54.858 E53.02559
G1 X137.219 Y55.399 E53.07345
G1 X137.53 Y56.328 E53.12428
G1 X137.24 Y57.217 E53.1728
