;FLAVOR:Marlin
;TIME:18760
;Filament used: 11.7193m
;Layer height: 0.2
;MINX:20.94
;MINY:28.44
;MINZ:0.2
;MAXX:154.06
;MAXY:146.56
;MAXZ:46
;Generated with Creality Slicer 4.8.2-205
M140 S50
M105
M190 S50
M104 S195
M105
M109 S195
M82 ;absolute extrusion mode
G28 ;Home

G92 E0 ;Reset Extruder
G1 Z2.0 F3000 ;Move Z Axis up
G1 X10.1 Y20 Z0.28 F5000.0 ;Move to start position
G1 X10.1 Y170.0 Z0.28 F1500.0 E12 ;Draw the first line
G1 X10.4 Y170.0 Z0.28 F5000.0 ;Move to side a little
G1 X10.4 Y20 Z0.28 F1500.0 E25 ;Draw the second line
G92 E0 ;Reset Extruder
G1 Z2.0 F3000 ;Move Z Axis up

G92 E0
G92 E0
G1 F1500 E-0.8
;LAYER_COUNT:230
;LAYER:0
M107
G0 F6000 X23.969 Y30.203 Z0.2
;TYPE:SKIRT
G1 F1500 E0
G1 F900 X24.621 Y29.734 E0.04167
G1 X25.315 Y29.332 E0.08329
G1 X26.047 Y29.001 E0.12497
G1 X26.807 Y28.744 E0.1666
G1 X27.59 Y28.564 E0.20828
G1 X28.386 Y28.463 E0.24991
G1 X29 Y28.44 E0.28179
G1 X146 Y28.44 E6.35243
G1 X146.802 Y28.48 E6.3941
G1 X147.596 Y28.6 E6.43576
G1 X148.374 Y28.797 E6.4774
G1 X149.128 Y29.072 E6.51905
G1 X149.851 Y29.42 E6.56068
G1 X150.537 Y29.838 E6.60236
G1 X151.177 Y30.322 E6.64399
G1 X151.766 Y30.868 E6.68567
G1 X152.297 Y31.469 E6.72728
G1 X152.766 Y32.121 E6.76895
G1 X153.168 Y32.815 E6.81056
G1 X153.499 Y33.547 E6.85225
G1 X153.756 Y34.307 E6.89387
G1 X153.936 Y35.09 E6.93556
G1 X154.037 Y35.886 E6.97719
G1 X154.06 Y36.5 E7.00907
G1 X154.06 Y71 E8.79913
G1 X154.02 Y71.802 E8.8408
G1 X153.9 Y72.596 E8.88246
G1 X153.703 Y73.374 E8.9241
G1 X153.476 Y73.996 E8.95846
G1 X153.499 Y74.047 E8.96136
G1 X153.756 Y74.807 E9.00299
G1 X153.936 Y75.59 E9.04467
G1 X154.037 Y76.386 E9.08631
G1 X154.06 Y77 E9.11819
G1 X154.06 Y102.5 E10.44127
G1 X154.02 Y103.302 E10.48294
G1 X153.9 Y104.096 E10.5246
G1 X153.703 Y104.874 E10.56625
G1 X153.428 Y105.628 E10.60789
G1 X153.25 Y105.997 E10.62914
G1 X153.499 Y106.547 E10.66047
G1 X153.756 Y107.307 E10.7021
G1 X153.936 Y108.09 E10.74378
G1 X154.037 Y108.886 E10.78542
G1 X154.06 Y109.5 E10.8173
G1 X154.06 Y138.5 E12.32198
G1 X154.02 Y139.302 E12.36365
G1 X153.9 Y140.096 E12.40531
G1 X153.703 Y140.874 E12.44695
G1 X153.428 Y141.628 E12.4886
G1 X153.08 Y142.351 E12.53023
G1 X152.662 Y143.037 E12.57191
G1 X152.178 Y143.677 E12.61354
G1 X151.632 Y144.266 E12.65522
G1 X151.031 Y144.797 E12.69683
G1 X150.379 Y145.266 E12.7385
G1 X149.685 Y145.668 E12.78011
G1 X148.953 Y145.999 E12.8218
G1 X148.193 Y146.256 E12.86342
G1 X147.41 Y146.436 E12.90511
G1 X146.614 Y146.537 E12.94674
G1 X146 Y146.56 E12.97862
G1 X29 Y146.56 E19.04926
G1 X28.198 Y146.52 E19.09093
G1 X27.404 Y146.4 E19.13259
G1 X26.626 Y146.203 E19.17423
G1 X25.872 Y145.928 E19.21588
G1 X25.149 Y145.58 E19.25751
G1 X24.463 Y145.162 E19.29919
G1 X23.823 Y144.678 E19.34082
G1 X23.234 Y144.132 E19.38249
G1 X22.703 Y143.531 E19.42411
G1 X22.234 Y142.879 E19.46578
G1 X21.832 Y142.185 E19.50739
G1 X21.501 Y141.453 E19.54907
G1 X21.244 Y140.693 E19.5907
G1 X21.064 Y139.91 E19.63239
G1 X20.963 Y139.114 E19.67402
G1 X20.94 Y138.5 E19.7059
G1 X20.94 Y36.5 E24.99825
G1 X20.98 Y35.698 E25.03992
G1 X21.1 Y34.904 E25.08158
G1 X21.297 Y34.126 E25.12322
G1 X21.572 Y33.372 E25.16487
G1 X21.92 Y32.649 E25.2065
G1 X22.338 Y31.963 E25.24818
G1 X22.822 Y31.323 E25.28981
G1 X23.368 Y30.734 E25.33148
G1 X23.969 Y30.203 E25.3731
G0 F6000 X24.475 Y30.469
G1 F900 X25.119 Y30.035 E25.41339
G1 X25.805 Y29.671 E25.45368
G1 X26.524 Y29.378 E25.49397
G1 X27.269 Y29.161 E25.53423
G1 X28.033 Y29.022 E25.57452
G1 X29 Y28.96 E25.6248
G1 X146 Y28.96 E31.69544
G1 X146.775 Y29 E31.7357
G1 X147.543 Y29.119 E31.77603
G1 X148.293 Y29.317 E31.81627
G1 X149.02 Y29.591 E31.85658
G1 X149.714 Y29.938 E31.89684
G1 X150.369 Y30.355 E31.93713
G1 X150.978 Y30.837 E31.97743
G1 X151.534 Y31.379 E32.01772
G1 X152.031 Y31.975 E32.05798
G1 X152.465 Y32.619 E32.09828
G1 X152.829 Y33.305 E32.13857
G1 X153.122 Y34.024 E32.17885
G1 X153.339 Y34.769 E32.21912
G1 X153.478 Y35.533 E32.25941
G1 X153.54 Y36.5 E32.30968
G1 X153.54 Y71 E34.09974
G1 X153.5 Y71.775 E34.14001
G1 X153.381 Y72.543 E34.18033
G1 X153.183 Y73.293 E34.22058
G1 X152.913 Y74.01 E34.26033
G1 X153.122 Y74.524 E34.28912
G1 X153.339 Y75.269 E34.32938
G1 X153.478 Y76.033 E34.36968
G1 X153.54 Y77 E34.41995
G1 X153.54 Y102.5 E35.74304
G1 X153.5 Y103.275 E35.78331
G1 X153.381 Y104.043 E35.82363
G1 X153.183 Y104.793 E35.86388
G1 X152.909 Y105.52 E35.90419
G1 X152.668 Y106.002 E35.93215
G1 X152.829 Y106.305 E35.94995
G1 X153.122 Y107.024 E35.99024
G1 X153.339 Y107.769 E36.0305
G1 X153.478 Y108.533 E36.07079
G1 X153.54 Y109.5 E36.12107
G1 X153.54 Y138.5 E37.62575
G1 X153.5 Y139.275 E37.66602
G1 X153.381 Y140.043 E37.70634
G1 X153.183 Y140.793 E37.74659
G1 X152.909 Y141.52 E37.7869
G1 X152.562 Y142.214 E37.82716
G1 X152.145 Y142.869 E37.86745
G1 X151.663 Y143.478 E37.90775
G1 X151.121 Y144.034 E37.94803
G1 X150.525 Y144.531 E37.9883
G1 X149.881 Y144.965 E38.02859
G1 X149.195 Y145.329 E38.06889
G1 X148.476 Y145.622 E38.10917
G1 X147.731 Y145.839 E38.14943
G1 X146.967 Y145.978 E38.18973
G1 X146 Y146.04 E38.24
G1 X29 Y146.04 E44.31064
G1 X28.225 Y146 E44.35091
G1 X27.457 Y145.881 E44.39123
G1 X26.707 Y145.683 E44.43148
G1 X25.98 Y145.409 E44.47179
G1 X25.286 Y145.062 E44.51205
G1 X24.631 Y144.645 E44.55234
G1 X24.022 Y144.163 E44.59263
G1 X23.466 Y143.621 E44.63292
G1 X22.969 Y143.025 E44.67319
G1 X22.535 Y142.381 E44.71348
G1 X22.171 Y141.695 E44.75377
G1 X21.878 Y140.976 E44.79406
G1 X21.661 Y140.231 E44.83432
G1 X21.522 Y139.467 E44.87461
G1 X21.46 Y138.5 E44.92489
G1 X21.46 Y36.5 E50.21724
G1 X21.5 Y35.725 E50.25751
G1 X21.619 Y34.957 E50.29783
G1 X21.817 Y34.207 E50.33808
G1 X22.091 Y33.48 E50.37839
G1 X22.438 Y32.786 E50.41865
G1 X22.855 Y32.131 E50.45894
G1 X23.337 Y31.522 E50.49923
G1 X23.879 Y30.966 E50.53952
G1 X24.475 Y30.469 E50.57979
G0 F6000 X24.389 Y31.207
G1 F900 X24.979 Y30.746 E50.61864
G1 X25.615 Y30.35 E50.65751
G1 X26.29 Y30.024 E50.6964
G1 X26.995 Y29.772 E50.73525
G1 X27.724 Y29.597 E50.77415
G1 X28.466 Y29.5 E50.81297
G1 X29 Y29.48 E50.8407
G1 X146 Y29.48 E56.91134
G1 X146.748 Y29.52 E56.95021
G1 X147.488 Y29.639 E56.9891
G1 X148.21 Y29.837 E57.02794
G1 X148.908 Y30.11 E57.06683
G1 X149.572 Y30.457 E57.1057
G1 X150.196 Y30.872 E57.14458
G1 X150.771 Y31.351 E57.18341
G1 X151.293 Y31.889 E57.22231
G1 X151.754 Y32.479 E57.26116
G1 X152.15 Y33.115 E57.30003
G1 X152.476 Y33.79 E57.33893
G1 X152.728 Y34.495 E57.37777
G1 X152.903 Y35.224 E57.41667
G1 X153 Y35.966 E57.4555
G1 X153.02 Y36.5 E57.48322
G1 X153.02 Y71 E59.27328
G1 X152.98 Y71.748 E59.31215
G1 X152.861 Y72.488 E59.35104
G1 X152.663 Y73.21 E59.38988
G1 X152.39 Y73.908 E59.42877
G1 X152.339 Y74.006 E59.4345
G1 X152.476 Y74.29 E59.45086
G1 X152.728 Y74.995 E59.48971
G1 X152.903 Y75.724 E59.52861
G1 X153 Y76.466 E59.56744
G1 X153.02 Y77 E59.59516
G1 X153.02 Y102.5 E60.91825
G1 X152.98 Y103.248 E60.95712
G1 X152.861 Y103.988 E60.99601
G1 X152.663 Y104.71 E61.03485
G1 X152.39 Y105.408 E61.07374
G1 X152.08 Y106.002 E61.1085
G1 X152.15 Y106.115 E61.1154
G1 X152.476 Y106.79 E61.15429
G1 X152.728 Y107.495 E61.19314
G1 X152.903 Y108.224 E61.23204
G1 X153 Y108.966 E61.27087
G1 X153.02 Y109.5 E61.29859
G1 X153.02 Y138.5 E62.80328
G1 X152.98 Y139.248 E62.84215
G1 X152.861 Y139.988 E62.88104
G1 X152.663 Y140.71 E62.91988
G1 X152.39 Y141.408 E62.95877
G1 X152.043 Y142.072 E62.99764
G1 X151.628 Y142.696 E63.03653
G1 X151.149 Y143.271 E63.07536
G1 X150.611 Y143.793 E63.11425
G1 X150.021 Y144.254 E63.1531
G1 X149.385 Y144.65 E63.19197
G1 X148.71 Y144.976 E63.23087
G1 X148.005 Y145.228 E63.26971
G1 X147.276 Y145.403 E63.30861
G1 X146.534 Y145.5 E63.34744
G1 X146 Y145.52 E63.37517
G1 X29 Y145.52 E69.4458
G1 X28.252 Y145.48 E69.48467
G1 X27.512 Y145.361 E69.52356
G1 X26.79 Y145.163 E69.5624
G1 X26.092 Y144.89 E69.60129
G1 X25.428 Y144.543 E69.64017
G1 X24.804 Y144.128 E69.67905
G1 X24.229 Y143.649 E69.71788
G1 X23.707 Y143.111 E69.75677
G1 X23.246 Y142.521 E69.79562
G1 X22.85 Y141.885 E69.8345
G1 X22.524 Y141.21 E69.87339
G1 X22.272 Y140.505 E69.91224
G1 X22.097 Y139.776 E69.95113
G1 X22 Y139.034 E69.98996
G1 X21.98 Y138.5 E70.01769
G1 X21.98 Y36.5 E75.31004
G1 X22.02 Y35.752 E75.34891
G1 X22.139 Y35.012 E75.3878
G1 X22.337 Y34.29 E75.42664
G1 X22.61 Y33.592 E75.46553
G1 X22.957 Y32.928 E75.5044
G1 X23.372 Y32.304 E75.54328
G1 X23.851 Y31.729 E75.58211
G1 X24.389 Y31.207 E75.62101
G0 F6000 X24.897 Y31.459
G1 F900 X25.48 Y31.035 E75.65841
G1 X26.107 Y30.679 E75.69582
G1 X26.769 Y30.395 E75.7332
G1 X27.459 Y30.185 E75.77062
G1 X28.168 Y30.054 E75.80803
G1 X29 Y30 E75.85129
G1 X146 Y30 E81.92193
G1 X146.72 Y30.04 E81.95935
G1 X147.431 Y30.159 E81.99675
G1 X148.124 Y30.357 E82.03415
G1 X148.791 Y30.63 E82.07154
G1 X149.424 Y30.975 E82.10895
G1 X150.015 Y31.388 E82.14636
G1 X150.556 Y31.864 E82.18374
G1 X151.041 Y32.397 E82.22113
G1 X151.465 Y32.98 E82.25854
G1 X151.821 Y33.607 E82.29595
G1 X152.105 Y34.269 E82.33332
G1 X152.315 Y34.959 E82.37075
G1 X152.446 Y35.668 E82.40816
G1 X152.5 Y36.5 E82.45142
G1 X152.5 Y71 E84.24148
G1 X152.46 Y71.72 E84.27889
G1 X152.341 Y72.431 E84.3163
G1 X152.143 Y73.124 E84.35369
G1 X151.87 Y73.791 E84.39109
G1 X151.758 Y73.996 E84.40321
G1 X151.821 Y74.107 E84.40983
G1 X152.105 Y74.769 E84.4472
G1 X152.315 Y75.459 E84.48463
G1 X152.446 Y76.168 E84.52204
G1 X152.5 Y77 E84.5653
G1 X152.5 Y102.5 E85.88839
G1 X152.46 Y103.22 E85.9258
G1 X152.341 Y103.931 E85.9632
G1 X152.143 Y104.624 E86.0006
G1 X151.87 Y105.291 E86.03799
G1 X151.525 Y105.924 E86.0754
G1 X151.474 Y105.996 E86.07998
G1 X151.821 Y106.607 E86.11644
G1 X152.105 Y107.269 E86.15381
G1 X152.315 Y107.959 E86.19123
G1 X152.446 Y108.668 E86.22864
G1 X152.5 Y109.5 E86.2719
G1 X152.5 Y138.5 E87.77659
G1 X152.46 Y139.22 E87.81401
G1 X152.341 Y139.931 E87.85141
G1 X152.143 Y140.624 E87.88881
G1 X151.87 Y141.291 E87.9262
G1 X151.525 Y141.924 E87.96361
G1 X151.112 Y142.515 E88.00102
G1 X150.636 Y143.056 E88.03841
G1 X150.103 Y143.541 E88.0758
G1 X149.52 Y143.965 E88.1132
G1 X148.893 Y144.321 E88.15061
G1 X148.231 Y144.605 E88.18799
G1 X147.541 Y144.815 E88.22541
G1 X146.832 Y144.946 E88.26282
G1 X146 Y145 E88.30608
G1 X29 Y145 E94.37672
G1 X28.28 Y144.96 E94.41413
G1 X27.569 Y144.841 E94.45154
G1 X26.876 Y144.643 E94.48893
G1 X26.209 Y144.37 E94.52633
G1 X25.576 Y144.025 E94.56373
G1 X24.985 Y143.612 E94.60114
G1 X24.444 Y143.136 E94.63853
G1 X23.959 Y142.603 E94.67592
G1 X23.535 Y142.02 E94.71333
G1 X23.179 Y141.393 E94.75074
G1 X22.895 Y140.731 E94.78811
G1 X22.685 Y140.041 E94.82553
G1 X22.554 Y139.332 E94.86294
G1 X22.5 Y138.5 E94.9062
G1 X22.5 Y36.5 E100.19856
G1 X22.54 Y35.78 E100.23597
G1 X22.659 Y35.069 E100.27338
G1 X22.857 Y34.376 E100.31077
G1 X23.13 Y33.709 E100.34817
G1 X23.475 Y33.076 E100.38557
G1 X23.888 Y32.485 E100.42298
G1 X24.364 Y31.944 E100.46037
G1 X24.897 Y31.459 E100.49776
G0 F6000 X25.403 Y31.723
G1 F900 X25.979 Y31.339 E100.53368
G1 X26.594 Y31.025 E100.56951
G1 X27.242 Y30.784 E100.60538
G1 X27.914 Y30.619 E100.64128
G1 X28.6 Y30.533 E100.67715
G1 X29 Y30.52 E100.69792
G1 X146 Y30.52 E106.76856
G1 X146.69 Y30.56 E106.80442
G1 X147.371 Y30.679 E106.84029
G1 X148.034 Y30.877 E106.87619
G1 X148.669 Y31.149 E106.91203
G1 X149.269 Y31.493 E106.94792
G1 X149.825 Y31.903 E106.98376
G1 X150.33 Y32.376 E107.01966
G1 X150.777 Y32.903 E107.05552
G1 X151.161 Y33.479 E107.09144
G1 X151.475 Y34.094 E107.12727
G1 X151.716 Y34.742 E107.16314
G1 X151.881 Y35.414 E107.19904
G1 X151.967 Y36.1 E107.23491
G1 X151.98 Y36.5 E107.25568
G1 X151.98 Y71 E109.04574
G1 X151.94 Y71.69 E109.0816
G1 X151.821 Y72.371 E109.11747
G1 X151.623 Y73.034 E109.15337
G1 X151.351 Y73.669 E109.18922
G1 X151.167 Y73.99 E109.20841
G1 X151.475 Y74.594 E109.24359
G1 X151.716 Y75.242 E109.27946
G1 X151.881 Y75.914 E109.31537
G1 X151.967 Y76.6 E109.35124
G1 X151.98 Y77 E109.372
G1 X151.98 Y102.5 E110.69509
G1 X151.94 Y103.19 E110.73095
G1 X151.821 Y103.871 E110.76682
G1 X151.623 Y104.534 E110.80272
G1 X151.351 Y105.169 E110.83857
G1 X151.007 Y105.769 E110.87445
G1 X150.839 Y105.996 E110.88911
G1 X151.161 Y106.479 E110.91923
G1 X151.475 Y107.094 E110.95505
G1 X151.716 Y107.742 E110.99093
G1 X151.881 Y108.414 E111.02683
G1 X151.967 Y109.1 E111.0627
G1 X151.98 Y109.5 E111.08347
G1 X151.98 Y138.5 E112.58815
G1 X151.94 Y139.19 E112.62402
G1 X151.821 Y139.871 E112.65989
G1 X151.623 Y140.534 E112.69579
G1 X151.351 Y141.169 E112.73163
G1 X151.007 Y141.769 E112.76751
G1 X150.597 Y142.325 E112.80336
G1 X150.124 Y142.83 E112.83926
G1 X149.597 Y143.277 E112.87511
G1 X149.021 Y143.661 E112.91103
G1 X148.406 Y143.975 E112.94686
G1 X147.758 Y144.216 E112.98273
G1 X147.086 Y144.381 E113.01864
G1 X146.4 Y144.467 E113.05451
G1 X146 Y144.48 E113.07527
G1 X29 Y144.48 E119.14591
G1 X28.31 Y144.44 E119.18178
G1 X27.629 Y144.321 E119.21765
G1 X26.966 Y144.123 E119.25355
G1 X26.331 Y143.851 E119.28939
G1 X25.731 Y143.507 E119.32527
G1 X25.175 Y143.097 E119.36112
G1 X24.67 Y142.624 E119.39702
G1 X24.223 Y142.097 E119.43287
G1 X23.839 Y141.521 E119.46879
G1 X23.525 Y140.906 E119.50462
G1 X23.284 Y140.258 E119.54049
G1 X23.119 Y139.586 E119.5764
G1 X23.033 Y138.9 E119.61227
G1 X23.02 Y138.5 E119.63303
G1 X23.02 Y36.5 E124.92539
G1 X23.06 Y35.81 E124.96125
G1 X23.179 Y35.129 E124.99712
G1 X23.377 Y34.466 E125.03302
G1 X23.649 Y33.831 E125.06886
G1 X23.993 Y33.231 E125.10475
G1 X24.403 Y32.675 E125.14059
G1 X24.876 Y32.17 E125.17649
G1 X25.403 Y31.723 E125.21235
G0 F6000 X25.386 Y32.407
G1 F900 X25.907 Y32.001 E125.24662
G1 X26.473 Y31.66 E125.2809
G1 X27.076 Y31.39 E125.31518
G1 X27.707 Y31.195 E125.34945
G1 X28.357 Y31.078 E125.38372
G1 X29 Y31.04 E125.41714
G1 X146 Y31.04 E131.48778
G1 X146.659 Y31.08 E131.52204
G1 X147.309 Y31.199 E131.55632
G1 X147.94 Y31.396 E131.59062
G1 X148.542 Y31.668 E131.6249
G1 X149.107 Y32.01 E131.65916
G1 X149.626 Y32.418 E131.69342
G1 X150.093 Y32.886 E131.72772
G1 X150.499 Y33.407 E131.76199
G1 X150.84 Y33.973 E131.79628
G1 X151.11 Y34.576 E131.83056
G1 X151.305 Y35.207 E131.86483
G1 X151.422 Y35.857 E131.89909
G1 X151.46 Y36.5 E131.93252
G1 X151.46 Y71 E133.72258
G1 X151.42 Y71.659 E133.75683
G1 X151.301 Y72.309 E133.79112
G1 X151.104 Y72.94 E133.82542
G1 X150.832 Y73.542 E133.85969
G1 X150.555 Y74 E133.88746
G1 X150.84 Y74.473 E133.91612
G1 X151.11 Y75.076 E133.9504
G1 X151.305 Y75.707 E133.98466
G1 X151.422 Y76.357 E134.01893
G1 X151.46 Y77 E134.05235
G1 X151.46 Y102.5 E135.37544
G1 X151.42 Y103.159 E135.4097
G1 X151.301 Y103.809 E135.44398
G1 X151.104 Y104.44 E135.47828
G1 X150.832 Y105.042 E135.51256
G1 X150.49 Y105.607 E135.54683
G1 X150.181 Y105.999 E135.57272
G1 X150.499 Y106.407 E135.59956
G1 X150.84 Y106.973 E135.63385
G1 X151.11 Y107.576 E135.66813
G1 X151.305 Y108.207 E135.7024
G1 X151.422 Y108.857 E135.73666
G1 X151.46 Y109.5 E135.77009
G1 X151.46 Y138.5 E137.27477
G1 X151.42 Y139.159 E137.30903
G1 X151.301 Y139.809 E137.34332
G1 X151.104 Y140.44 E137.37761
G1 X150.832 Y141.042 E137.41189
G1 X150.49 Y141.607 E137.44616
G1 X150.082 Y142.126 E137.48041
G1 X149.614 Y142.593 E137.51472
G1 X149.093 Y142.999 E137.54899
G1 X148.527 Y143.34 E137.58327
G1 X147.924 Y143.61 E137.61755
G1 X147.293 Y143.805 E137.65182
G1 X146.643 Y143.922 E137.68609
G1 X146 Y143.96 E137.71951
G1 X29 Y143.96 E143.79015
G1 X28.341 Y143.92 E143.8244
G1 X27.691 Y143.801 E143.85869
G1 X27.06 Y143.604 E143.89299
G1 X26.458 Y143.332 E143.92726
G1 X25.893 Y142.99 E143.96153
G1 X25.374 Y142.582 E143.99579
G1 X24.907 Y142.114 E144.03009
G1 X24.501 Y141.593 E144.06436
G1 X24.16 Y141.027 E144.09865
G1 X23.89 Y140.424 E144.13293
G1 X23.695 Y139.793 E144.16719
